; generated by PrusaSlicer 2.2.0+win64 on 2020-10-29 at 08:25:27 UTC

; 

; external perimeters extrusion width = 0.45mm
; perimeters extrusion width = 0.45mm
; infill extrusion width = 0.45mm
; solid infill extrusion width = 0.45mm
; top infill extrusion width = 0.40mm
; first layer extrusion width = 0.45mm

M73 P0 R59
M73 Q0 S59
M201 X1000 Y1000 Z1000 E5000 ; sets maximum accelerations, mm/sec^2
M203 X200 Y200 Z12 E120 ; sets maximum feedrates, mm/sec
M204 P1250 R1250 T1250 ; sets acceleration (P, T) and retract acceleration (R), mm/sec^2
M205 X8.00 Y8.00 Z0.40 E1.50 ; sets the jerk limits, mm/sec
M205 S0 T0 ; sets the minimum extruding and travel feed rate, mm/sec
M107
G90 ; use absolute coordinates
M83 ; extruder relative mode
M104 S240 ; set extruder temp
M140 S85 ; set bed temp
M190 S85 ; wait for bed temp
M109 S240 ; wait for extruder temp
G28 W ; home all without mesh bed level
G80 ; mesh bed leveling
G1 Y-3.0 F1000.0 ; go outside print area
G92 E0.0
G1 X60.0 E9.0 F1000.0 ; intro line
M73 Q0 S59
M73 P0 R59
G1 X100.0 E12.5 F1000.0 ; intro line
G92 E0.0
M221 S95
G21 ; set units to millimeters
G90 ; use absolute coordinates
M83 ; use relative distances for extrusion
M900 K45 ; Filament gcode
;BEFORE_LAYER_CHANGE
G92 E0.0
;0.2


G1 E-0.80000 F2100.00000
G1 Z0.600 F10800.000
;AFTER_LAYER_CHANGE
;0.2
G1 X77.567 Y95.550
G1 Z0.200
G1 E0.80000 F2100.00000
M204 S1000
G1 F1200.000
G1 X78.231 Y94.889 E0.03171
G1 X83.183 Y91.814 E0.19730
G1 X83.832 Y91.554 E0.02366
G1 X84.544 Y91.488 E0.02421
G1 X169.990 Y91.499 E2.89224
G1 X170.641 Y91.590 E0.02225
G1 X171.307 Y91.894 E0.02481
G1 X171.854 Y92.388 E0.02494
G1 X172.226 Y93.025 E0.02494
G1 X172.387 Y93.744 E0.02494
G1 X172.390 Y115.688 E0.74280
G1 X172.299 Y116.335 E0.02212
G1 X171.916 Y117.115 E0.02942
G1 X171.093 Y117.960 E0.03992
G1 X170.424 Y118.351 E0.02622
G1 X169.670 Y118.510 E0.02609
G1 X128.311 Y118.507 E1.39993
G1 X127.660 Y118.416 E0.02225
G1 X78.759 Y101.163 E1.75527
G1 X78.219 Y100.891 E0.02045
G1 X77.827 Y100.561 E0.01735
G1 X77.511 Y100.152 E0.01748
G1 X77.291 Y99.689 E0.01735
G1 X77.174 Y99.186 E0.01748
G1 X77.170 Y96.637 E0.08627
G1 X77.303 Y96.068 E0.01980
G1 X77.540 Y95.603 E0.01764
G1 F8640.000
G1 X78.231 Y94.889 E-0.22954
G1 X80.183 Y93.677 E-0.53046
G1 E-0.04000 F2100.00000
G1 Z0.800 F10800.000
G1 X129.664 Y98.347
G1 Z0.200
G1 E0.80000 F2100.00000
G1 F1200.000
G1 X168.214 Y98.352 E1.30485
G1 X168.213 Y105.459 E0.24057
G1 X129.663 Y105.454 E1.30486
G1 X129.664 Y98.407 E0.23854
G1 X129.257 Y97.940 F10800.000
G1 F1200.000
G1 X168.621 Y97.945 E1.33241
G1 X168.620 Y105.866 E0.26813
G1 X129.256 Y105.861 E1.33242
G1 X129.257 Y98.000 E0.26610
G1 F8640.000
G1 X132.549 Y97.995 E-0.76000
G1 E-0.04000 F2100.00000
G1 Z0.800 F10800.000
G1 X168.849 Y106.273
G1 Z0.200
G1 E0.80000 F2100.00000
G1 F1200.000
G1 X149.027 Y106.271 E0.67095
G1 X149.026 Y115.471 E0.31140
G1 X148.848 Y115.471 E0.00604
G1 X148.849 Y106.271 E0.31140
G1 X129.027 Y106.268 E0.67095
G1 X129.026 Y115.468 E0.31140
G1 X128.848 Y115.468 E0.00604
G1 X128.850 Y98.268 E0.58219
G1 X80.195 Y98.262 E1.64690
G1 X80.196 Y97.526 E0.02491
G1 X168.850 Y97.538 E3.00086
G1 X168.851 Y95.274 E0.07664
G1 X85.351 Y95.263 E2.82638
G1 X85.351 Y94.527 E0.02491
G1 X169.028 Y94.538 E2.83239
G1 X169.026 Y115.473 E0.70864
G1 X168.848 Y115.473 E0.00604
G1 X168.849 Y106.333 E0.30937
G1 X168.442 Y106.680 F10800.000
G1 F1200.000
G1 X149.434 Y106.678 E0.64339
G1 X149.433 Y115.878 E0.31140
G1 X148.557 Y115.878 E0.02966
G1 X148.441 Y115.878 E0.00394
G1 X148.442 Y106.678 E0.31140
G1 X129.434 Y106.675 E0.64339
G1 X129.433 Y115.875 E0.31140
G1 X128.440 Y115.875 E0.03360
G1 X128.443 Y98.675 E0.58219
G1 X79.788 Y98.669 E1.64690
G1 X79.789 Y97.119 E0.05246
G1 X168.443 Y97.131 E3.00086
G1 X168.444 Y95.681 E0.04908
G1 X84.944 Y95.670 E2.82638
M73 Q1 S58
M73 P1 R58
G1 X84.944 Y94.120 E0.05246
G1 X169.435 Y94.131 E2.85995
G1 X169.433 Y115.880 E0.73619
G1 X168.441 Y115.880 E0.03360
G1 X168.442 Y106.740 E0.30937
G1 X168.428 Y106.281 F10800.000
G1 F8640.000
G1 X165.150 Y106.730 E-0.76000
G1 E-0.04000 F2100.00000
G1 Z0.800 F10800.000
G1 X168.092 Y99.303
G1 Z0.200
G1 E0.80000 F2100.00000
G1 F1200.000
G1 X167.445 Y98.657 E0.03117
G1 X166.865 Y98.657 E0.01979
G1 X167.908 Y99.700 E0.05032
G1 X167.908 Y100.280 E0.01978
G1 X166.285 Y98.657 E0.07830
G1 X165.705 Y98.657 E0.01979
G1 X167.908 Y100.860 E0.10628
G1 X167.908 Y101.440 E0.01978
G1 X165.125 Y98.657 E0.13425
G1 X164.545 Y98.657 E0.01979
G1 X167.908 Y102.020 E0.16223
G1 X167.908 Y102.600 E0.01978
G1 X163.964 Y98.657 E0.19021
G1 X163.384 Y98.656 E0.01979
G1 X167.908 Y103.180 E0.21819
G1 X167.908 Y103.760 E0.01978
G1 X162.804 Y98.656 E0.24617
G1 X162.224 Y98.656 E0.01979
G1 X167.908 Y104.340 E0.27415
G1 X167.908 Y104.920 E0.01978
G1 X161.644 Y98.656 E0.30213
G1 X161.064 Y98.656 E0.01979
G1 X167.561 Y105.154 E0.31340
G1 X166.981 Y105.154 E0.01979
G1 X160.484 Y98.656 E0.31340
G1 X159.903 Y98.656 E0.01979
G1 X166.401 Y105.154 E0.31340
G1 X165.821 Y105.153 E0.01979
G1 X159.323 Y98.656 E0.31340
G1 X158.743 Y98.656 E0.01979
G1 X165.241 Y105.153 E0.31340
G1 X164.660 Y105.153 E0.01979
G1 X158.163 Y98.656 E0.31340
G1 X157.583 Y98.656 E0.01979
G1 X164.080 Y105.153 E0.31340
G1 X163.500 Y105.153 E0.01979
G1 X157.003 Y98.656 E0.31340
G1 X156.422 Y98.656 E0.01979
G1 X162.920 Y105.153 E0.31340
G1 X162.340 Y105.153 E0.01979
G1 X155.842 Y98.655 E0.31340
G1 X155.262 Y98.655 E0.01979
G1 X161.760 Y105.153 E0.31340
G1 X161.180 Y105.153 E0.01979
G1 X154.682 Y98.655 E0.31340
G1 X154.102 Y98.655 E0.01979
G1 X160.599 Y105.153 E0.31340
G1 X160.019 Y105.153 E0.01979
G1 X153.522 Y98.655 E0.31340
G1 X152.942 Y98.655 E0.01979
G1 X159.439 Y105.153 E0.31340
G1 X158.859 Y105.153 E0.01979
G1 X152.361 Y98.655 E0.31340
G1 X151.781 Y98.655 E0.01979
G1 X158.279 Y105.153 E0.31340
G1 X157.699 Y105.152 E0.01979
G1 X151.201 Y98.655 E0.31340
G1 X150.621 Y98.655 E0.01979
G1 X157.119 Y105.152 E0.31340
G1 X156.538 Y105.152 E0.01979
G1 X150.041 Y98.655 E0.31340
G1 X149.461 Y98.655 E0.01979
G1 X155.958 Y105.152 E0.31340
G1 X155.378 Y105.152 E0.01979
G1 X148.881 Y98.655 E0.31340
G1 X148.300 Y98.655 E0.01979
G1 X154.798 Y105.152 E0.31340
G1 X154.218 Y105.152 E0.01979
G1 X147.720 Y98.654 E0.31340
G1 X147.140 Y98.654 E0.01979
G1 X153.638 Y105.152 E0.31340
G1 X153.058 Y105.152 E0.01979
G1 X146.560 Y98.654 E0.31340
G1 X145.980 Y98.654 E0.01979
G1 X152.477 Y105.152 E0.31340
G1 X151.897 Y105.152 E0.01979
G1 X145.400 Y98.654 E0.31340
G1 X144.820 Y98.654 E0.01979
G1 X151.317 Y105.152 E0.31340
G1 X150.737 Y105.152 E0.01979
G1 X144.239 Y98.654 E0.31340
G1 X143.659 Y98.654 E0.01979
G1 X150.157 Y105.151 E0.31340
G1 X149.577 Y105.151 E0.01979
G1 X143.079 Y98.654 E0.31340
G1 X142.499 Y98.654 E0.01979
G1 X148.996 Y105.151 E0.31340
G1 X148.416 Y105.151 E0.01979
G1 X141.919 Y98.654 E0.31340
G1 X141.339 Y98.654 E0.01979
G1 X147.836 Y105.151 E0.31340
G1 X147.256 Y105.151 E0.01979
G1 X140.758 Y98.654 E0.31340
G1 X140.178 Y98.653 E0.01979
G1 X146.676 Y105.151 E0.31340
G1 X146.096 Y105.151 E0.01979
G1 X139.598 Y98.653 E0.31340
G1 X139.018 Y98.653 E0.01979
G1 X145.516 Y105.151 E0.31340
G1 X144.935 Y105.151 E0.01979
G1 X138.438 Y98.653 E0.31340
G1 X137.858 Y98.653 E0.01979
G1 X144.355 Y105.151 E0.31340
G1 X143.775 Y105.151 E0.01979
G1 X137.278 Y98.653 E0.31340
G1 X136.697 Y98.653 E0.01979
G1 X143.195 Y105.151 E0.31340
G1 X142.615 Y105.150 E0.01979
G1 X136.117 Y98.653 E0.31340
G1 X135.537 Y98.653 E0.01979
G1 X142.035 Y105.150 E0.31340
G1 X141.455 Y105.150 E0.01979
G1 X134.957 Y98.653 E0.31340
G1 X134.377 Y98.653 E0.01979
G1 X140.874 Y105.150 E0.31340
G1 X140.294 Y105.150 E0.01979
G1 X133.797 Y98.653 E0.31340
G1 X133.217 Y98.653 E0.01979
G1 X139.714 Y105.150 E0.31340
G1 X139.134 Y105.150 E0.01979
G1 X132.636 Y98.652 E0.31340
G1 X132.056 Y98.652 E0.01979
G1 X138.554 Y105.150 E0.31340
G1 X137.974 Y105.150 E0.01979
G1 X131.476 Y98.652 E0.31340
G1 X130.896 Y98.652 E0.01979
G1 X137.394 Y105.150 E0.31340
G1 X136.813 Y105.150 E0.01979
G1 X130.316 Y98.652 E0.31340
G1 X129.970 Y98.652 E0.01181
G1 X129.970 Y98.886 E0.00798
G1 X136.233 Y105.150 E0.30212
G1 X135.653 Y105.150 E0.01979
G1 X129.969 Y99.466 E0.27414
G1 X129.969 Y100.046 E0.01978
G1 X135.073 Y105.149 E0.24616
G1 X134.493 Y105.149 E0.01979
G1 X129.969 Y100.626 E0.21818
G1 X129.969 Y101.206 E0.01978
G1 X133.913 Y105.149 E0.19020
G1 X133.332 Y105.149 E0.01979
G1 X129.969 Y101.786 E0.16222
G1 X129.969 Y102.366 E0.01978
G1 X132.752 Y105.149 E0.13425
G1 X132.172 Y105.149 E0.01979
G1 X129.969 Y102.946 E0.10627
G1 X129.969 Y103.526 E0.01978
G1 X131.592 Y105.149 E0.07829
G1 X131.012 Y105.149 E0.01979
G1 X129.969 Y104.106 E0.05031
G1 X129.969 Y104.686 E0.01978
G1 X130.615 Y105.332 E0.03117
G1 F8640.000
G1 X129.969 Y104.686 E-0.21103
G1 X129.969 Y104.106 E-0.13392
G1 X131.012 Y105.149 E-0.34062
G1 X131.334 Y105.149 E-0.07443
G1 E-0.04000 F2100.00000
G1 Z0.800 F10800.000
G1 X129.054 Y97.900
G1 Z0.200
G1 E0.80000 F2100.00000
G1 F1200.000
G1 X80.399 Y97.894 E1.32988
G1 F8640.000
G1 X83.691 Y97.894 E-0.76000
G1 E-0.04000 F2100.00000
G1 Z0.800 F10800.000
G1 X85.554 Y94.895
G1 Z0.200
G1 E0.80000 F2100.00000
G1 F1200.000
G1 X168.825 Y94.906 E2.27605
;BEFORE_LAYER_CHANGE
G92 E0.0
;0.35


G1 F8640.000
G1 X165.533 Y94.905 E-0.76000
G1 E-0.04000 F2100.00000
G1 Z0.800 F10800.000
;AFTER_LAYER_CHANGE
;0.35
M104 S250 ; set temperature
M140 S90 ; set bed temperature
G1 X171.307 Y91.894
G1 Z0.350
G1 E0.80000 F2100.00000
G1 F3000.000
G1 X171.854 Y92.388 E0.01920
G1 X172.226 Y93.025 E0.01920
G1 X172.387 Y93.744 E0.01920
G1 X172.390 Y115.688 E0.57178
G1 X172.299 Y116.335 E0.01703
G1 X171.916 Y117.115 E0.02265
G1 X171.093 Y117.960 E0.03073
G1 X170.424 Y118.351 E0.02019
G1 X169.670 Y118.510 E0.02009
G1 X128.311 Y118.507 E1.07763
G1 X127.660 Y118.416 E0.01712
G1 X78.759 Y101.163 E1.35115
G1 X78.219 Y100.891 E0.01574
G1 X77.827 Y100.561 E0.01336
G1 X77.511 Y100.152 E0.01346
G1 X77.291 Y99.689 E0.01336
G1 X77.174 Y99.186 E0.01346
G1 X77.170 Y96.637 E0.06641
G1 X77.303 Y96.068 E0.01524
G1 X77.567 Y95.550 E0.01514
G1 X78.231 Y94.889 E0.02441
G1 X83.183 Y91.814 E0.15188
G1 X83.832 Y91.554 E0.01821
G1 X84.544 Y91.488 E0.01864
G1 X169.990 Y91.499 E2.22635
G1 X170.641 Y91.590 E0.01712
G1 X171.253 Y91.869 E0.01754
G1 F8640.000
G1 X171.854 Y92.388 E-0.18340
G1 X172.226 Y93.025 E-0.17014
G1 X172.387 Y93.744 E-0.17014
G1 X172.387 Y94.767 E-0.23632
G1 E-0.04000 F2100.00000
G1 Z0.950 F10800.000
G1 X168.357 Y98.384
G1 Z0.350
G1 E0.80000 F2100.00000
M204 S800
G1 F2700.000
G1 X168.356 Y105.427 E0.18351
G1 X129.520 Y105.422 E1.01189
G1 X129.522 Y98.379 E0.18351
G1 X168.297 Y98.384 E1.01031
M204 S1000
G1 X168.774 Y97.966 F10800.000
M204 S800
G1 F2700.000
G1 X168.774 Y105.845 E0.20528
G1 X129.103 Y105.840 E1.03366
G1 X129.104 Y97.961 E0.20528
G1 X168.714 Y97.966 E1.03209
M204 S1000
G1 X168.686 Y97.548 F10800.000
M204 S800
G1 F2700.000
G1 X168.686 Y95.263 E0.05955
G1 X85.186 Y95.252 E2.17566
G1 X85.186 Y94.538 E0.01861
G1 X169.193 Y94.549 E2.18885
M73 Q3 S57
M73 P3 R57
G1 X169.190 Y115.462 E0.54493
G1 X168.683 Y115.462 E0.01321
G1 X168.685 Y106.263 E0.23971
G1 X149.191 Y106.260 E0.50791
G1 X149.190 Y115.460 E0.23971
G1 X148.683 Y115.460 E0.01321
G1 X148.685 Y106.260 E0.23971
G1 X129.191 Y106.257 E0.50791
G1 X129.190 Y115.457 E0.23971
G1 X128.683 Y115.457 E0.01321
G1 X128.686 Y98.258 E0.44815
G1 X80.212 Y98.251 E1.26304
G1 X80.212 Y97.537 E0.01861
G1 X168.626 Y97.548 E2.30371
M204 S1000
G1 X168.268 Y97.131 F10800.000
M204 S800
G1 F1500.000
G1 X168.269 Y95.681 E0.03778
G1 X84.769 Y95.670 E2.17566
G1 X84.769 Y94.120 E0.04039
G1 X169.611 Y94.131 E2.21062
G1 X169.608 Y115.737 E0.56297
G1 X169.465 Y115.880 E0.00528
G1 X168.409 Y115.880 E0.02752
G1 X168.266 Y115.737 E0.00528
G1 X168.267 Y106.680 E0.23598
G1 X149.609 Y106.678 E0.48614
G1 X149.608 Y115.878 E0.23971
G1 X148.265 Y115.878 E0.03498
G1 X148.267 Y106.678 E0.23971
G1 X129.609 Y106.675 E0.48614
G1 X129.608 Y115.732 E0.23598
G1 X129.465 Y115.875 E0.00528
G1 X128.409 Y115.875 E0.02752
G1 X128.266 Y115.732 E0.00528
G1 X128.268 Y98.675 E0.44442
G1 X79.794 Y98.669 E1.26304
G1 X79.794 Y97.119 E0.04039
G1 X168.208 Y97.131 E2.30371
M204 S1000
G1 X168.668 Y97.128 F10800.000
G1 X168.939 Y97.757
G1 F2400.000
G1 X168.940 Y95.054 E0.01491
G1 X168.865 Y94.906 E0.00137
G1 X168.791 Y94.757 E0.00183
G1 X168.984 Y94.906 F10800.000
G1 F2400.000
G1 X85.395 Y94.895 E1.54575
G1 F8640.000
G1 X88.687 Y94.895 E-0.76000
G1 E-0.04000 F2100.00000
G1 Z0.950 F10800.000
G1 X80.420 Y97.894
G1 Z0.350
G1 E0.80000 F2100.00000
G1 F2400.000
G1 X128.895 Y97.900 E0.89640
G1 F8640.000
G1 X125.603 Y97.900 E-0.76000
G1 E-0.04000 F2100.00000
G1 Z0.950 F10800.000
G1 X129.647 Y99.360
G1 Z0.350
G1 E0.80000 F2100.00000
M204 S1250
G1 F4800.000
G1 X130.314 Y98.692 E0.02490
G1 X130.912 Y98.692 E0.01578
G1 X129.835 Y99.770 E0.04021
G1 X129.835 Y100.369 E0.01578
G1 X131.511 Y98.693 E0.06252
G1 X132.109 Y98.693 E0.01578
G1 X129.835 Y100.967 E0.08484
G1 X129.834 Y101.565 E0.01578
G1 X132.707 Y98.693 E0.10716
G1 X133.305 Y98.693 E0.01578
G1 X129.834 Y102.163 E0.12948
G1 X129.834 Y102.762 E0.01578
G1 X133.903 Y98.693 E0.15179
G1 X134.501 Y98.693 E0.01578
G1 X129.834 Y103.360 E0.17411
G1 X129.834 Y103.958 E0.01578
G1 X135.099 Y98.693 E0.19643
G1 X135.698 Y98.693 E0.01578
G1 X129.834 Y104.557 E0.21875
G1 X129.834 Y105.109 E0.01456
G1 X129.880 Y105.109 E0.00122
G1 X136.296 Y98.693 E0.23933
G1 X136.894 Y98.693 E0.01578
G1 X130.478 Y105.109 E0.23933
G1 X131.077 Y105.109 E0.01578
G1 X137.492 Y98.693 E0.23933
G1 X138.090 Y98.693 E0.01578
G1 X131.675 Y105.109 E0.23933
G1 X132.273 Y105.109 E0.01578
G1 X138.688 Y98.693 E0.23933
G1 X139.286 Y98.694 E0.01578
G1 X132.871 Y105.109 E0.23933
G1 X133.469 Y105.109 E0.01578
G1 X139.884 Y98.694 E0.23933
G1 X140.483 Y98.694 E0.01578
G1 X134.067 Y105.109 E0.23933
G1 X134.665 Y105.109 E0.01578
G1 X141.081 Y98.694 E0.23933
G1 X141.679 Y98.694 E0.01578
G1 X135.264 Y105.109 E0.23933
G1 X135.862 Y105.109 E0.01578
G1 X142.277 Y98.694 E0.23933
G1 X142.875 Y98.694 E0.01578
G1 X136.460 Y105.109 E0.23933
G1 X137.058 Y105.109 E0.01578
G1 X143.473 Y98.694 E0.23933
G1 X144.071 Y98.694 E0.01578
G1 X137.656 Y105.110 E0.23933
G1 X138.254 Y105.110 E0.01578
G1 X144.670 Y98.694 E0.23933
G1 X145.268 Y98.694 E0.01578
G1 X138.852 Y105.110 E0.23933
G1 X139.450 Y105.110 E0.01578
G1 X145.866 Y98.694 E0.23933
G1 X146.464 Y98.695 E0.01578
G1 X140.049 Y105.110 E0.23933
G1 X140.647 Y105.110 E0.01578
G1 X147.062 Y98.695 E0.23933
G1 X147.660 Y98.695 E0.01578
G1 X141.245 Y105.110 E0.23933
G1 X141.843 Y105.110 E0.01578
G1 X148.258 Y98.695 E0.23933
G1 X148.857 Y98.695 E0.01578
G1 X142.441 Y105.110 E0.23933
G1 X143.039 Y105.110 E0.01578
G1 X149.455 Y98.695 E0.23933
G1 X150.053 Y98.695 E0.01578
G1 X143.637 Y105.110 E0.23933
G1 X144.236 Y105.110 E0.01578
G1 X150.651 Y98.695 E0.23933
G1 X151.249 Y98.695 E0.01578
G1 X144.834 Y105.111 E0.23933
G1 X145.432 Y105.111 E0.01578
G1 X151.847 Y98.695 E0.23933
G1 X152.445 Y98.695 E0.01578
G1 X146.030 Y105.111 E0.23933
G1 X146.628 Y105.111 E0.01578
G1 X153.044 Y98.695 E0.23933
G1 X153.642 Y98.695 E0.01578
G1 X147.226 Y105.111 E0.23933
G1 X147.824 Y105.111 E0.01578
G1 X154.240 Y98.696 E0.23933
G1 X154.838 Y98.696 E0.01578
G1 X148.423 Y105.111 E0.23933
G1 X149.021 Y105.111 E0.01578
G1 X155.436 Y98.696 E0.23933
G1 X156.034 Y98.696 E0.01578
G1 X149.619 Y105.111 E0.23933
G1 X150.217 Y105.111 E0.01578
G1 X156.632 Y98.696 E0.23933
G1 X157.230 Y98.696 E0.01578
G1 X150.815 Y105.111 E0.23933
G1 X151.413 Y105.111 E0.01578
G1 X157.829 Y98.696 E0.23933
G1 X158.427 Y98.696 E0.01578
G1 X152.011 Y105.111 E0.23933
G1 X152.610 Y105.112 E0.01578
G1 X159.025 Y98.696 E0.23933
G1 X159.623 Y98.696 E0.01578
G1 X153.208 Y105.112 E0.23933
G1 X153.806 Y105.112 E0.01578
G1 X160.221 Y98.696 E0.23933
G1 X160.819 Y98.696 E0.01578
G1 X154.404 Y105.112 E0.23933
G1 X155.002 Y105.112 E0.01578
G1 X161.417 Y98.696 E0.23933
G1 X162.016 Y98.697 E0.01578
G1 X155.600 Y105.112 E0.23933
G1 X156.198 Y105.112 E0.01578
G1 X162.614 Y98.697 E0.23933
G1 X163.212 Y98.697 E0.01578
G1 X156.797 Y105.112 E0.23933
G1 X157.395 Y105.112 E0.01578
G1 X163.810 Y98.697 E0.23933
