; generated by PrusaSlicer 2.1.0+win64 on 2019-11-19 at 16:50:04 UTC

; 

; external perimeters extrusion width = 0.45mm
; perimeters extrusion width = 0.45mm
; infill extrusion width = 0.45mm
; solid infill extrusion width = 0.45mm
; top infill extrusion width = 0.40mm
; first layer extrusion width = 0.42mm

M73 P0 R17
M73 Q0 S17
M201 X1000 Y1000 Z1000 E5000 ; sets maximum accelerations, mm/sec^2
M203 X200 Y200 Z12 E120 ; sets maximum feedrates, mm/sec
M204 P1250 R1250 T1250 ; sets acceleration (P, T) and retract acceleration (R), mm/sec^2
M205 X8.00 Y8.00 Z0.40 E1.50 ; sets the jerk limits, mm/sec
M205 S0 T0 ; sets the minimum extruding and travel feed rate, mm/sec
M107
M115 U3.7.1 ; tell printer latest fw version
G90 ; use absolute coordinates
M83 ; extruder relative mode
M104 S215 ; set extruder temp
M140 S60 ; set bed temp
M190 S60 ; wait for bed temp
M109 S215 ; wait for extruder temp
G28 W ; home all without mesh bed level
G80 ; mesh bed leveling
G1 Y-3.0 F1000.0 ; go outside print area
G92 E0.0
G1 X60.0 E9.0 F1000.0 ; intro line
M73 Q0 S17
M73 P0 R17
G1 X100.0 E12.5 F1000.0 ; intro line
G92 E0.0
M221 S95
G21 ; set units to millimeters
G90 ; use absolute coordinates
M83 ; use relative distances for extrusion
M900 K30 ; Filament gcode
;BEFORE_LAYER_CHANGE
G92 E0.0
;0.2


G1 E-0.80000 F2100.00000
G1 Z0.600 F10800.000
;AFTER_LAYER_CHANGE
;0.2
G1 X104.232 Y82.245
G1 Z0.200
G1 E0.80000 F2100.00000
M204 S1000
G1 F1200
G1 X105.161 Y81.932 E0.03071
G1 X105.954 Y81.842 E0.02503
G1 X144.029 Y81.841 E1.19383
G1 X144.796 Y81.913 E0.02416
G1 X145.543 Y82.126 E0.02435
G1 X146.235 Y82.471 E0.02424
G1 X146.859 Y82.945 E0.02458
G1 X147.373 Y83.512 E0.02401
G1 X147.782 Y84.177 E0.02446
G1 X148.059 Y84.902 E0.02435
G1 X148.200 Y85.695 E0.02526
G1 X148.198 Y124.022 E1.20169
G1 X148.123 Y124.751 E0.02298
G1 X147.911 Y125.486 E0.02401
G1 X147.570 Y126.168 E0.02389
G1 X147.112 Y126.777 E0.02389
G1 X146.516 Y127.318 E0.02526
G1 X145.790 Y127.752 E0.02651
G1 X144.857 Y128.063 E0.03083
G1 X144.023 Y128.150 E0.02629
G1 X105.951 Y128.150 E1.19372
G1 X105.221 Y128.076 E0.02302
G1 X104.486 Y127.863 E0.02401
G1 X103.804 Y127.523 E0.02389
G1 X103.195 Y127.064 E0.02389
G1 X102.654 Y126.468 E0.02526
G1 X102.220 Y125.742 E0.02651
G1 X101.909 Y124.809 E0.03083
G1 X101.821 Y123.975 E0.02629
G1 X101.838 Y85.969 E1.19167
G1 X101.912 Y85.241 E0.02295
G1 X102.124 Y84.505 E0.02401
G1 X102.465 Y83.823 E0.02389
G1 X102.924 Y83.215 E0.02389
G1 X103.517 Y82.675 E0.02515
G1 X104.181 Y82.276 E0.02429
G1 F8640
G1 X105.161 Y81.932 E-0.23973
G1 X105.954 Y81.842 E-0.18432
G1 X107.409 Y81.842 E-0.33595
G1 E-0.04000 F2100.00000
G1 Z0.800 F10800.000
G1 X107.999 Y102.407
G1 Z0.200
G1 E0.80000 F2100.00000
G1 F1200
G1 X108.485 Y102.450 E0.01528
G1 X108.945 Y102.581 E0.01501
G1 X109.373 Y102.794 E0.01498
G1 X109.755 Y103.082 E0.01498
G1 X110.067 Y103.425 E0.01456
G1 X110.218 Y103.644 E0.00834
G1 X110.420 Y104.051 E0.01423
G1 X110.555 Y104.519 E0.01528
G1 X110.600 Y104.996 E0.01501
G1 X110.555 Y105.472 E0.01498
G1 X110.425 Y105.931 E0.01498
G1 X110.212 Y106.359 E0.01497
G1 X109.939 Y106.721 E0.01423
G1 X109.745 Y106.917 E0.00865
G1 X109.373 Y107.197 E0.01460
G1 X108.945 Y107.410 E0.01498
G1 X108.486 Y107.541 E0.01498
G1 X108.024 Y107.584 E0.01456
G1 X107.758 Y107.572 E0.00834
G1 X107.312 Y107.489 E0.01423
G1 X106.857 Y107.314 E0.01528
G1 X106.449 Y107.062 E0.01501
G1 X106.096 Y106.740 E0.01498
G1 X105.808 Y106.359 E0.01498
G1 X105.595 Y105.931 E0.01498
G1 X105.464 Y105.472 E0.01498
G1 X105.420 Y104.996 E0.01498
G1 X105.464 Y104.520 E0.01498
G1 X105.595 Y104.060 E0.01498
G1 X105.808 Y103.633 E0.01498
G1 X106.096 Y103.251 E0.01498
G1 X106.449 Y102.929 E0.01498
G1 X106.856 Y102.678 E0.01498
G1 X107.289 Y102.510 E0.01456
G1 X107.547 Y102.449 E0.00834
G1 X107.940 Y102.412 E0.01235
G1 X107.975 Y102.788 F10800.000
G1 F1200
G1 X108.416 Y102.822 E0.01387
G1 X108.809 Y102.934 E0.01280
G1 X109.174 Y103.116 E0.01279
G1 X109.499 Y103.362 E0.01279
G1 X109.771 Y103.660 E0.01264
G1 X109.892 Y103.836 E0.00670
G1 X110.068 Y104.188 E0.01234
G1 X110.183 Y104.589 E0.01308
G1 X110.221 Y104.996 E0.01280
G1 X110.183 Y105.402 E0.01279
G1 X110.072 Y105.794 E0.01279
G1 X109.890 Y106.160 E0.01279
G1 X109.653 Y106.474 E0.01234
G1 X109.496 Y106.632 E0.00700
G1 X109.174 Y106.875 E0.01265
G1 X108.809 Y107.057 E0.01279
G1 X108.416 Y107.169 E0.01279
G1 X108.015 Y107.206 E0.01264
G1 X107.801 Y107.196 E0.00670
G1 X107.414 Y107.124 E0.01234
G1 X107.025 Y106.975 E0.01308
G1 X106.678 Y106.760 E0.01280
G1 X106.376 Y106.485 E0.01279
G1 X106.130 Y106.160 E0.01279
G1 X105.948 Y105.794 E0.01279
G1 X105.837 Y105.402 E0.01279
G1 X105.799 Y104.996 E0.01279
G1 X105.837 Y104.589 E0.01279
G1 X105.948 Y104.197 E0.01279
G1 X106.130 Y103.832 E0.01279
G1 X106.376 Y103.506 E0.01279
G1 X106.678 Y103.231 E0.01279
G1 X107.024 Y103.017 E0.01279
G1 X107.400 Y102.871 E0.01264
G1 X107.608 Y102.822 E0.00670
G1 X107.915 Y102.793 E0.00966
G1 X108.176 Y102.442 F10800.000
G1 F8640
G1 X108.416 Y102.822 E-0.11581
G1 X108.809 Y102.934 E-0.09429
G1 X109.174 Y103.116 E-0.09421
G1 X109.499 Y103.362 E-0.09421
G1 X109.771 Y103.660 E-0.09308
G1 X109.892 Y103.836 E-0.04936
G1 X110.068 Y104.188 E-0.09087
G1 X110.183 Y104.589 E-0.09635
G1 X110.196 Y104.726 E-0.03183
G1 E-0.04000 F2100.00000
G1 Z0.800 F10800.000
G1 X105.495 Y100.682
G1 Z0.200
G1 E0.80000 F2100.00000
G1 F1200
G1 X105.750 Y100.609 E0.00834
G1 X106.037 Y100.583 E0.00903
G1 X143.992 Y100.583 E1.19004
G1 X144.282 Y100.611 E0.00915
G1 X144.639 Y100.733 E0.01181
G1 X144.860 Y100.870 E0.00816
G1 X145.052 Y101.046 E0.00816
G1 X145.209 Y101.253 E0.00816
G1 X145.325 Y101.486 E0.00816
G1 X145.396 Y101.737 E0.00816
G1 X145.423 Y102.023 E0.00902
G1 X145.423 Y107.969 E0.18642
G1 X145.395 Y108.267 E0.00940
G1 X145.273 Y108.624 E0.01183
G1 X145.128 Y108.857 E0.00860
G1 X144.860 Y109.121 E0.01180
G1 X144.639 Y109.258 E0.00816
G1 X144.383 Y109.357 E0.00859
G1 X143.983 Y109.409 E0.01266
G1 X106.037 Y109.409 E1.18976
G1 X105.738 Y109.381 E0.00940
G1 X105.382 Y109.258 E0.01183
G1 X105.160 Y109.121 E0.00817
G1 X104.968 Y108.946 E0.00816
G1 X104.811 Y108.738 E0.00816
G1 X104.695 Y108.505 E0.00816
G1 X104.624 Y108.255 E0.00816
G1 X104.597 Y107.969 E0.00902
G1 X104.597 Y102.023 E0.18642
G1 X104.625 Y101.723 E0.00944
G1 X104.747 Y101.367 E0.01180
G1 X104.884 Y101.146 E0.00816
G1 X105.155 Y100.873 E0.01204
G1 X105.440 Y100.706 E0.01036
G1 X105.289 Y100.360 F10800.000
G1 F1200
G1 X105.681 Y100.237 E0.01289
G1 X106.020 Y100.206 E0.01066
G1 X144.009 Y100.206 E1.19114
G1 X144.343 Y100.238 E0.01052
G1 X144.495 Y100.273 E0.00488
G1 X144.807 Y100.394 E0.01051
G1 X145.088 Y100.568 E0.01035
G1 X145.332 Y100.790 E0.01035
G1 X145.531 Y101.054 E0.01035
G1 X145.678 Y101.349 E0.01035
G1 X145.769 Y101.667 E0.01035
G1 X145.800 Y102.005 E0.01066
G1 X145.800 Y107.986 E0.18752
G1 X145.768 Y108.329 E0.01080
G1 X145.730 Y108.489 E0.00516
G1 X145.612 Y108.793 E0.01023
G1 X145.435 Y109.078 E0.01051
G1 X145.336 Y109.198 E0.00488
G1 X145.088 Y109.423 E0.01050
G1 X144.807 Y109.597 E0.01035
G1 X144.495 Y109.718 E0.01051
G1 X144.344 Y109.754 E0.00488
G1 X144.000 Y109.786 E0.01081
G1 X106.020 Y109.786 E1.19085
G1 X105.677 Y109.754 E0.01080
G1 X105.517 Y109.716 E0.00516
G1 X105.213 Y109.597 E0.01023
G1 X104.932 Y109.423 E0.01036
G1 X104.688 Y109.201 E0.01035
G1 X104.489 Y108.938 E0.01035
G1 X104.342 Y108.642 E0.01035
G1 X104.251 Y108.324 E0.01035
G1 X104.220 Y107.986 E0.01066
G1 X104.220 Y102.005 E0.18752
G1 X104.252 Y101.662 E0.01081
G1 X104.287 Y101.511 E0.00488
G1 X104.408 Y101.198 E0.01050
G1 X104.582 Y100.918 E0.01035
G1 X104.808 Y100.670 E0.01049
G1 X104.935 Y100.566 E0.00516
G1 X105.234 Y100.384 E0.01097
G1 X105.606 Y100.603 F10800.000
G1 F8640
G1 X105.681 Y100.237 E-0.10874
G1 X106.020 Y100.206 E-0.07851
G1 X108.500 Y100.206 E-0.57275
G1 E-0.04000 F2100.00000
G1 Z0.800 F10800.000
G1 X104.766 Y108.343
G1 Z0.200
G1 E0.80000 F2100.00000
G1 F1200
G1 X105.331 Y108.895 E0.02490
G1 X105.508 Y109.004 E0.00657
G1 X105.700 Y109.079 E0.00649
G1 X106.086 Y109.126 E0.01224
G1 X104.880 Y107.920 E0.05375
G1 X104.880 Y107.384 E0.01690
G1 X106.622 Y109.126 E0.07766
G1 X107.158 Y109.126 E0.01690
G1 X104.880 Y106.848 E0.10156
G1 X104.880 Y106.312 E0.01690
G1 X107.864 Y109.296 E0.13303
G1 F8640
G1 X105.536 Y106.968 E-0.76000
G1 E-0.04000 F2100.00000
G1 Z0.800 F10800.000
G1 X115.906 Y109.296
G1 Z0.200
G1 E0.80000 F2100.00000
G1 F1200
G1 X110.736 Y104.126 E0.23046
G1 X110.834 Y104.466 E0.01116
G1 X110.864 Y104.790 E0.01026
G1 X115.200 Y109.126 E0.19329
G1 X114.664 Y109.126 E0.01690
G1 X110.854 Y105.316 E0.16986
G1 X110.835 Y105.524 E0.00658
G1 X110.766 Y105.764 E0.00788
G1 X114.128 Y109.126 E0.14987
G1 X113.592 Y109.126 E0.01690
G1 X110.626 Y106.161 E0.13220
G1 X110.447 Y106.517 E0.01258
G1 X113.056 Y109.126 E0.11631
G1 X112.519 Y109.126 E0.01690
G1 X110.216 Y106.823 E0.10268
G1 X109.959 Y107.102 E0.01196
G1 X111.983 Y109.126 E0.09023
G1 X111.447 Y109.126 E0.01690
G1 X109.658 Y107.337 E0.07976
G1 X109.523 Y107.439 E0.00534
G1 X109.323 Y107.538 E0.00702
G1 X110.911 Y109.126 E0.07078
G1 X110.375 Y109.126 E0.01690
G1 X108.952 Y107.703 E0.06345
G1 X108.534 Y107.821 E0.01369
G1 X109.839 Y109.126 E0.05818
G1 X109.302 Y109.126 E0.01690
G1 X108.043 Y107.866 E0.05615
G1 X107.725 Y107.853 E0.01002
G1 X107.441 Y107.801 E0.00912
G1 X108.766 Y109.126 E0.05908
G1 X108.230 Y109.126 E0.01690
G1 X104.880 Y105.776 E0.14936
G1 X104.880 Y105.239 E0.01690
G1 X105.194 Y105.553 E0.01399
G1 X105.139 Y104.963 E0.01869
G1 X104.880 Y104.703 E0.01157
G1 X104.880 Y104.167 E0.01690
G1 X105.185 Y104.472 E0.01360
G1 X105.303 Y104.054 E0.01369
G1 X104.880 Y103.631 E0.01887
G1 X104.880 Y103.095 E0.01690
G1 X105.467 Y103.682 E0.02620
G1 X105.567 Y103.483 E0.00702
G1 X105.669 Y103.348 E0.00534
G1 X104.880 Y102.559 E0.03518
G1 X104.881 Y102.024 E0.01687
G1 X105.902 Y103.045 E0.04554
G1 X106.183 Y102.789 E0.01196
G1 X104.973 Y101.580 E0.05393
G1 X105.004 Y101.489 E0.00302
G1 X105.111 Y101.317 E0.00638
G1 X105.176 Y101.246 E0.00302
G1 X106.497 Y102.567 E0.05890
G1 X106.729 Y102.423 E0.00861
G1 X106.844 Y102.379 E0.00390
G1 X105.476 Y101.011 E0.06099
G1 X105.808 Y100.888 E0.01115
G1 X105.883 Y100.881 E0.00237
G1 X107.234 Y102.232 E0.06023
G1 X107.502 Y102.169 E0.00866
G1 X107.690 Y102.152 E0.00596
G1 X106.404 Y100.866 E0.05733
G1 X106.940 Y100.866 E0.01690
G1 X108.216 Y102.142 E0.05691
G1 X108.537 Y102.171 E0.01013
G1 X108.878 Y102.268 E0.01120
G1 X107.476 Y100.866 E0.06252
G1 X108.012 Y100.866 E0.01690
G1 X116.272 Y109.126 E0.36825
G1 X116.809 Y109.126 E0.01690
G1 X108.548 Y100.866 E0.36825
G1 X109.085 Y100.866 E0.01690
G1 X117.345 Y109.126 E0.36825
G1 X117.881 Y109.126 E0.01690
G1 X109.621 Y100.866 E0.36825
G1 X110.157 Y100.866 E0.01690
G1 X118.417 Y109.126 E0.36825
G1 X118.953 Y109.126 E0.01690
G1 X110.693 Y100.866 E0.36825
G1 X111.229 Y100.866 E0.01690
G1 X119.489 Y109.126 E0.36825
G1 X120.025 Y109.126 E0.01690
G1 X111.765 Y100.866 E0.36825
G1 X112.301 Y100.866 E0.01690
G1 X120.562 Y109.126 E0.36825
G1 X121.098 Y109.126 E0.01690
G1 X112.838 Y100.866 E0.36825
G1 X113.374 Y100.866 E0.01690
G1 X121.634 Y109.126 E0.36825
G1 X122.170 Y109.126 E0.01690
G1 X113.910 Y100.866 E0.36825
G1 X114.446 Y100.866 E0.01690
G1 X122.706 Y109.126 E0.36825
G1 X123.242 Y109.126 E0.01690
G1 X114.982 Y100.866 E0.36825
G1 X115.518 Y100.866 E0.01690
G1 X123.779 Y109.126 E0.36825
G1 X124.315 Y109.126 E0.01690
G1 X116.055 Y100.866 E0.36825
G1 X116.591 Y100.866 E0.01690
G1 X124.851 Y109.126 E0.36825
G1 X125.387 Y109.126 E0.01690
G1 X117.127 Y100.866 E0.36825
G1 X117.663 Y100.866 E0.01690
G1 X125.923 Y109.126 E0.36825
G1 X126.459 Y109.126 E0.01690
G1 X118.199 Y100.866 E0.36825
G1 X118.735 Y100.866 E0.01690
G1 X126.995 Y109.126 E0.36825
G1 X127.532 Y109.126 E0.01690
G1 X119.271 Y100.866 E0.36825
G1 X119.808 Y100.866 E0.01690
G1 X128.068 Y109.126 E0.36825
G1 X128.604 Y109.126 E0.01690
G1 X120.344 Y100.866 E0.36824
G1 X120.880 Y100.866 E0.01690
G1 X129.140 Y109.126 E0.36824
G1 X129.676 Y109.126 E0.01690
G1 X121.416 Y100.866 E0.36824
G1 X121.952 Y100.866 E0.01690
G1 X130.212 Y109.126 E0.36824
G1 X130.749 Y109.126 E0.01690
G1 X122.488 Y100.866 E0.36824
G1 X123.025 Y100.866 E0.01690
G1 X131.285 Y109.126 E0.36824
G1 X131.821 Y109.126 E0.01690
G1 X123.561 Y100.866 E0.36824
G1 X124.097 Y100.866 E0.01690
G1 X132.357 Y109.126 E0.36824
G1 X132.893 Y109.126 E0.01690
G1 X124.633 Y100.866 E0.36824
G1 X125.169 Y100.866 E0.01690
G1 X133.429 Y109.126 E0.36824
G1 X133.965 Y109.126 E0.01690
G1 X125.705 Y100.866 E0.36824
G1 X126.242 Y100.866 E0.01690
G1 X134.502 Y109.126 E0.36824
G1 X135.038 Y109.126 E0.01690
G1 X126.778 Y100.866 E0.36824
G1 X127.314 Y100.866 E0.01690
G1 X135.574 Y109.126 E0.36824
G1 X136.110 Y109.126 E0.01690
G1 X127.850 Y100.866 E0.36824
G1 X128.386 Y100.866 E0.01690
G1 X136.646 Y109.126 E0.36824
G1 X137.182 Y109.126 E0.01690
G1 X128.922 Y100.866 E0.36824
G1 X129.458 Y100.866 E0.01690
G1 X137.718 Y109.126 E0.36824
G1 X138.255 Y109.126 E0.01690
G1 X129.995 Y100.866 E0.36824
G1 X130.531 Y100.866 E0.01690
G1 X138.791 Y109.126 E0.36824
G1 X139.327 Y109.126 E0.01690
G1 X131.067 Y100.866 E0.36824
G1 X131.603 Y100.866 E0.01690
G1 X139.863 Y109.126 E0.36824
G1 X140.399 Y109.126 E0.01690
G1 X132.139 Y100.866 E0.36824
M73 Q6 S16
G1 X132.675 Y100.866 E0.01690
G1 X140.935 Y109.126 E0.36824
M73 P6 R16
G1 X141.472 Y109.126 E0.01690
G1 X133.212 Y100.866 E0.36824
G1 X133.748 Y100.866 E0.01690
G1 X142.008 Y109.126 E0.36824
G1 X142.544 Y109.126 E0.01690
G1 X134.284 Y100.866 E0.36824
G1 X134.820 Y100.866 E0.01690
G1 X143.080 Y109.126 E0.36824
G1 X143.616 Y109.126 E0.01690
G1 X135.356 Y100.866 E0.36824
G1 X135.892 Y100.866 E0.01690
G1 X144.137 Y109.110 E0.36755
G1 X144.223 Y109.102 E0.00272
G1 X144.546 Y108.983 E0.01085
G1 X136.429 Y100.866 E0.36188
G1 X136.965 Y100.866 E0.01690
G1 X144.848 Y108.749 E0.35144
G1 X145.017 Y108.497 E0.00957
G1 X145.047 Y108.412 E0.00285
G1 X137.501 Y100.866 E0.33640
G1 X138.037 Y100.866 E0.01690
G1 X145.139 Y107.968 E0.31661
G1 X145.140 Y107.433 E0.01687
G1 X138.573 Y100.866 E0.29276
G1 X139.109 Y100.866 E0.01690
G1 X145.140 Y106.897 E0.26886
G1 X145.140 Y106.361 E0.01690
G1 X139.645 Y100.866 E0.24496
G1 X140.182 Y100.866 E0.01690
G1 X145.140 Y105.824 E0.22105
G1 X145.140 Y105.288 E0.01690
G1 X140.718 Y100.866 E0.19715
G1 X141.254 Y100.866 E0.01690
G1 X145.140 Y104.752 E0.17325
G1 X145.140 Y104.216 E0.01690
G1 X141.790 Y100.866 E0.14935
G1 X142.326 Y100.866 E0.01690
G1 X145.140 Y103.680 E0.12544
G1 X145.140 Y103.144 E0.01690
G1 X142.862 Y100.866 E0.10154
G1 X143.399 Y100.866 E0.01690
G1 X145.140 Y102.608 E0.07764
G1 X145.140 Y102.071 E0.01690
G1 X143.935 Y100.866 E0.05374
G1 X144.222 Y100.889 E0.00909
G1 X144.517 Y100.990 E0.00981
G1 X144.689 Y101.097 E0.00638
G1 X145.254 Y101.649 E0.02491
G1 F8640
G1 X144.689 Y101.097 E-0.18242
G1 X144.517 Y100.990 E-0.04674
G1 X144.222 Y100.889 E-0.07189
G1 X143.935 Y100.866 E-0.06661
G1 X145.136 Y102.068 E-0.39234
G1 E-0.04000 F2100.00000
G1 Z0.800 F10800.000
G1 X110.440 Y89.965
G1 Z0.200
G1 E0.80000 F2100.00000
G1 F1200
G1 X110.227 Y90.392 E0.01497
G1 X109.954 Y90.755 E0.01423
G1 X109.760 Y90.951 E0.00865
G1 X109.389 Y91.231 E0.01460
G1 X108.961 Y91.444 E0.01498
G1 X108.501 Y91.575 E0.01498
G1 X108.039 Y91.618 E0.01456
G1 X107.774 Y91.606 E0.00834
G1 X107.327 Y91.523 E0.01423
G1 X106.872 Y91.348 E0.01528
G1 X106.465 Y91.096 E0.01501
G1 X106.112 Y90.774 E0.01498
G1 X105.824 Y90.393 E0.01498
G1 X105.611 Y89.965 E0.01498
G1 X105.480 Y89.505 E0.01498
G1 X105.436 Y89.030 E0.01498
G1 X105.480 Y88.554 E0.01498
G1 X105.611 Y88.094 E0.01498
G1 X105.824 Y87.666 E0.01498
G1 X106.112 Y87.285 E0.01498
G1 X106.465 Y86.963 E0.01498
G1 X106.871 Y86.711 E0.01498
G1 X107.304 Y86.544 E0.01456
G1 X107.563 Y86.483 E0.00834
G1 X108.015 Y86.440 E0.01423
G1 X108.500 Y86.484 E0.01528
G1 X108.961 Y86.615 E0.01501
G1 X109.389 Y86.828 E0.01498
G1 X109.770 Y87.116 E0.01498
G1 X110.083 Y87.459 E0.01456
G1 X110.233 Y87.678 E0.00834
G1 X110.436 Y88.084 E0.01423
G1 X110.571 Y88.553 E0.01528
G1 X110.615 Y89.030 E0.01501
G1 X110.571 Y89.505 E0.01498
G1 X110.457 Y89.907 E0.01310
