; generated by PrusaSlicer 2.2.0+win64 on 2020-09-12 at 16:33:09 UTC

; 

; external perimeters extrusion width = 0.45mm
; perimeters extrusion width = 0.45mm
; infill extrusion width = 0.45mm
; solid infill extrusion width = 0.45mm
; top infill extrusion width = 0.40mm
; first layer extrusion width = 0.42mm

M73 P0 R98
M73 Q0 S99
M201 X1000 Y1000 Z200 E5000 ; sets maximum accelerations, mm/sec^2
M203 X200 Y200 Z12 E120 ; sets maximum feedrates, mm/sec
M204 P1250 R1250 T1250 ; sets acceleration (P, T) and retract acceleration (R), mm/sec^2
M205 X8.00 Y8.00 Z0.40 E4.50 ; sets the jerk limits, mm/sec
M205 S0 T0 ; sets the minimum extruding and travel feed rate, mm/sec
M107
M862.3 P "MK3S" ; printer model check
M862.1 P0.4 ; nozzle diameter check
M115 U3.9.0 ; tell printer latest fw version
G90 ; use absolute coordinates
M83 ; extruder relative mode
M104 S230 ; set extruder temp
M140 S85 ; set bed temp
M190 S85 ; wait for bed temp
M109 S230 ; wait for extruder temp
G28 W ; home all without mesh bed level
G80 ; mesh bed leveling
G1 Y-3.0 F1000.0 ; go outside print area
G92 E0.0
G1 X60.0 E9.0 F1000.0 ; intro line
M73 Q0 S99
M73 P0 R98
G1 X100.0 E12.5 F1000.0 ; intro line
G92 E0.0
M221 S95

; Don't change E values below. Excessive value can damage the printer.
M907 E430 ; set extruder motor current
G21 ; set units to millimeters
G90 ; use absolute coordinates
M83 ; use relative distances for extrusion
M900 K0.12 ; Filament gcode LA 1.5
M900 K45 ; Filament gcode LA 1.0
;BEFORE_LAYER_CHANGE
G92 E0.0
;0.2


G1 E-1.40000 F2100.00000
G1 Z0.200 F10800.000
;AFTER_LAYER_CHANGE
;0.2
G1 Z0.400
G1 X48.228 Y32.610
G1 Z0.200
G1 E1.40000 F2100.00000
M204 S1000
G1 F1200.000
G1 X48.661 Y31.907 E0.02590
G1 X49.027 Y31.573 E0.01550
G1 X49.449 Y31.325 E0.01538
G1 X49.914 Y31.168 E0.01538
G1 X50.401 Y31.110 E0.01538
G1 X103.441 Y31.110 E1.66303
G1 X104.254 Y31.255 E0.02590
G1 X104.969 Y31.669 E0.02590
G1 X105.499 Y32.303 E0.02590
G1 X105.779 Y33.080 E0.02590
G1 X110.050 Y69.031 E1.13515
G1 X110.268 Y80.890 E0.37189
G1 X110.267 Y89.003 E0.25437
G1 X110.178 Y89.796 E0.02502
G1 X110.002 Y90.418 E0.02027
G1 X109.639 Y91.176 E0.02633
G1 X109.230 Y91.744 E0.02194
G1 X108.588 Y92.364 E0.02800
G1 X107.763 Y92.872 E0.03037
G1 X106.862 Y93.184 E0.02990
G1 X105.910 Y93.293 E0.03002
G1 X51.850 Y93.292 E1.69504
G1 X51.026 Y93.205 E0.02598
G1 X50.403 Y93.032 E0.02027
G1 X49.634 Y92.665 E0.02669
G1 X49.063 Y92.254 E0.02206
G1 X48.465 Y91.639 E0.02693
G1 X47.994 Y90.906 E0.02729
G1 X47.729 Y90.267 E0.02170
G1 X47.543 Y89.417 E0.02729
G1 X47.320 Y77.500 E0.37371
G1 X47.320 Y69.441 E0.25270
G1 X48.061 Y33.415 E1.12979
G1 X48.216 Y32.668 E0.02390
G1 F8640.000
G1 X48.661 Y31.907 E-0.20384
G1 X49.027 Y31.573 E-0.11413
G1 X49.449 Y31.325 E-0.11326
G1 X49.914 Y31.168 E-0.11325
G1 X50.401 Y31.110 E-0.11326
G1 X53.313 Y31.110 E-0.67227
G1 E-0.07000 F2100.00000
G1 Z0.400 F10800.000
G1 X51.979 Y35.028
G1 Z0.200
G1 E1.40000 F2100.00000
G1 F1200.000
G1 X101.896 Y35.028 E1.56510
G1 X101.896 Y46.446 E0.35802
G1 X101.866 Y46.626 E0.00570
G1 X101.828 Y46.713 E0.00297
G1 X101.702 Y46.852 E0.00588
G1 X101.531 Y46.928 E0.00586
G1 X101.362 Y46.946 E0.00534
G1 X52.512 Y46.946 E1.53166
G1 X52.319 Y46.925 E0.00608
G1 X52.190 Y46.868 E0.00445
G1 X52.084 Y46.773 E0.00446
G1 X52.013 Y46.650 E0.00446
G1 X51.988 Y46.534 E0.00372
G1 X51.979 Y35.088 E0.35887
G1 X51.602 Y34.651 F10800.000
G1 F1200.000
G1 X102.273 Y34.651 E1.58875
G1 X102.273 Y46.456 E0.37015
G1 X102.227 Y46.743 E0.00911
G1 X102.156 Y46.902 E0.00546
G1 X102.054 Y47.043 E0.00544
G1 X101.925 Y47.159 E0.00544
G1 X101.775 Y47.245 E0.00544
G1 X101.610 Y47.299 E0.00543
G1 X101.382 Y47.323 E0.00720
G1 X52.492 Y47.323 E1.53289
G1 X52.239 Y47.296 E0.00799
G1 X51.999 Y47.196 E0.00816
G1 X51.801 Y47.026 E0.00817
G1 X51.666 Y46.803 E0.00817
G1 X51.611 Y46.573 E0.00740
G1 X51.602 Y34.711 E0.37193
G1 X51.225 Y34.274 F10800.000
G1 F1200.000
G1 X102.650 Y34.274 E1.61241
G1 X102.650 Y46.466 E0.38228
G1 X102.643 Y46.598 E0.00414
G1 X102.587 Y46.860 E0.00841
G1 X102.484 Y47.092 E0.00795
G1 X102.336 Y47.296 E0.00792
G1 X102.148 Y47.465 E0.00792
G1 X101.929 Y47.592 E0.00792
G1 X101.689 Y47.670 E0.00792
G1 X101.401 Y47.700 E0.00906
G1 X52.473 Y47.700 E1.53412
G1 X52.170 Y47.668 E0.00954
G1 X51.818 Y47.528 E0.01187
G1 X51.527 Y47.286 E0.01188
G1 X51.325 Y46.966 E0.01188
G1 X51.234 Y46.613 E0.01142
G1 X51.225 Y34.334 E0.38500
G1 X50.847 Y33.897 F10800.000
G1 F1200.000
G1 X103.027 Y33.897 E1.63606
G1 X103.027 Y46.476 E0.39441
G1 X103.018 Y46.647 E0.00538
G1 X102.948 Y46.978 E0.01058
G1 X102.813 Y47.282 E0.01044
G1 X102.617 Y47.550 E0.01041
G1 X102.371 Y47.772 E0.01041
G1 X102.083 Y47.938 E0.01041
G1 X101.767 Y48.041 E0.01041
G1 X101.421 Y48.077 E0.01092
G1 X52.453 Y48.077 E1.53535
G1 X52.101 Y48.040 E0.01109
G1 X51.951 Y48.000 E0.00487
G1 X51.638 Y47.860 E0.01075
G1 X51.507 Y47.776 E0.00488
G1 X51.253 Y47.546 E0.01074
G1 X51.155 Y47.425 E0.00489
G1 X50.983 Y47.129 E0.01074
G1 X50.927 Y46.983 E0.00490
G1 X50.857 Y46.653 E0.01058
G1 X50.847 Y33.957 E0.39807
G1 X51.194 Y34.096 F10800.000
G1 F8640.000
G1 X56.607 Y33.950 E-1.33000
G1 E-0.07000 F2100.00000
G1 Z0.400 F10800.000
G1 X101.783 Y35.909
G1 Z0.200
G1 E1.40000 F2100.00000
G1 F1200.000
G1 X101.184 Y35.311 E0.02673
G1 X100.647 Y35.311 E0.01696
G1 X101.613 Y36.277 E0.04314
G1 X101.613 Y36.814 E0.01696
G1 X100.110 Y35.311 E0.06713
G1 X99.573 Y35.311 E0.01696
G1 X101.613 Y37.351 E0.09112
G1 X101.613 Y37.888 E0.01696
G1 X99.036 Y35.311 E0.11511
G1 X98.499 Y35.311 E0.01696
G1 X101.613 Y38.425 E0.13910
G1 X101.613 Y38.962 E0.01696
G1 X97.962 Y35.311 E0.16309
G1 X97.424 Y35.311 E0.01696
G1 X101.613 Y39.500 E0.18708
G1 X101.613 Y40.037 E0.01696
G1 X96.887 Y35.311 E0.21107
G1 X96.350 Y35.311 E0.01696
G1 X101.613 Y40.574 E0.23506
G1 X101.613 Y41.111 E0.01696
G1 X95.813 Y35.311 E0.25905
G1 X95.276 Y35.311 E0.01696
G1 X101.613 Y41.648 E0.28304
G1 X101.613 Y42.185 E0.01696
G1 X94.739 Y35.311 E0.30703
G1 X94.202 Y35.311 E0.01696
G1 X101.613 Y42.722 E0.33102
G1 X101.613 Y43.259 E0.01696
G1 X93.664 Y35.311 E0.35501
G1 X93.127 Y35.311 E0.01696
G1 X101.613 Y43.797 E0.37900
G1 X101.613 Y44.334 E0.01696
G1 X92.590 Y35.311 E0.40299
G1 X92.053 Y35.311 E0.01696
G1 X101.613 Y44.871 E0.42698
G1 X101.613 Y45.408 E0.01696
G1 X91.516 Y35.311 E0.45097
G1 X90.979 Y35.311 E0.01696
G1 X101.613 Y45.945 E0.47496
G1 X101.605 Y46.474 E0.01670
G1 X90.442 Y35.311 E0.49858
G1 X89.904 Y35.311 E0.01696
G1 X101.256 Y46.663 E0.50701
G1 X100.719 Y46.663 E0.01696
G1 X89.367 Y35.311 E0.50701
G1 X88.830 Y35.311 E0.01696
G1 X100.182 Y46.663 E0.50701
G1 X99.645 Y46.663 E0.01696
G1 X88.293 Y35.311 E0.50701
G1 X87.756 Y35.311 E0.01696
G1 X99.108 Y46.663 E0.50701
G1 X98.571 Y46.663 E0.01696
G1 X87.219 Y35.311 E0.50701
G1 X86.682 Y35.311 E0.01696
G1 X98.034 Y46.663 E0.50701
G1 X97.496 Y46.663 E0.01696
G1 X86.145 Y35.311 E0.50701
G1 X85.607 Y35.311 E0.01696
G1 X96.959 Y46.663 E0.50701
G1 X96.422 Y46.663 E0.01696
G1 X85.070 Y35.311 E0.50701
M73 Q1 S98
G1 X84.533 Y35.311 E0.01696
G1 X95.885 Y46.663 E0.50701
M73 P1 R97
G1 X95.348 Y46.663 E0.01696
G1 X83.996 Y35.311 E0.50701
G1 X83.459 Y35.311 E0.01696
G1 X94.811 Y46.663 E0.50701
G1 X94.274 Y46.663 E0.01696
G1 X82.922 Y35.311 E0.50701
G1 X82.385 Y35.311 E0.01696
G1 X93.736 Y46.663 E0.50701
G1 X93.199 Y46.663 E0.01696
G1 X81.847 Y35.311 E0.50701
G1 X81.310 Y35.311 E0.01696
G1 X92.662 Y46.663 E0.50701
G1 X92.125 Y46.663 E0.01696
G1 X80.773 Y35.311 E0.50701
G1 X80.236 Y35.311 E0.01696
G1 X91.588 Y46.663 E0.50701
G1 X91.051 Y46.663 E0.01696
G1 X79.699 Y35.311 E0.50701
G1 X79.162 Y35.311 E0.01696
G1 X90.514 Y46.663 E0.50701
G1 X89.977 Y46.663 E0.01696
G1 X78.625 Y35.311 E0.50701
G1 X78.087 Y35.311 E0.01696
G1 X89.439 Y46.663 E0.50701
G1 X88.902 Y46.663 E0.01696
G1 X77.550 Y35.311 E0.50701
G1 X77.013 Y35.311 E0.01696
G1 X88.365 Y46.663 E0.50701
G1 X87.828 Y46.663 E0.01696
G1 X76.476 Y35.311 E0.50701
G1 X75.939 Y35.311 E0.01696
G1 X87.291 Y46.663 E0.50701
G1 X86.754 Y46.663 E0.01696
G1 X75.402 Y35.311 E0.50701
G1 X74.865 Y35.311 E0.01696
G1 X86.217 Y46.663 E0.50701
G1 X85.679 Y46.663 E0.01696
G1 X74.328 Y35.311 E0.50701
G1 X73.790 Y35.311 E0.01696
G1 X85.142 Y46.663 E0.50701
G1 X84.605 Y46.663 E0.01696
G1 X73.253 Y35.311 E0.50701
G1 X72.716 Y35.311 E0.01696
G1 X84.068 Y46.663 E0.50701
G1 X83.531 Y46.663 E0.01696
G1 X72.179 Y35.311 E0.50701
G1 X71.642 Y35.311 E0.01696
G1 X82.994 Y46.663 E0.50701
G1 X82.457 Y46.663 E0.01696
G1 X71.105 Y35.311 E0.50701
G1 X70.568 Y35.311 E0.01696
G1 X81.919 Y46.663 E0.50701
G1 X81.382 Y46.663 E0.01696
G1 X70.030 Y35.311 E0.50701
G1 X69.493 Y35.311 E0.01696
G1 X80.845 Y46.663 E0.50701
G1 X80.308 Y46.663 E0.01696
G1 X68.956 Y35.311 E0.50701
G1 X68.419 Y35.311 E0.01696
G1 X79.771 Y46.663 E0.50701
G1 X79.234 Y46.663 E0.01696
G1 X67.882 Y35.311 E0.50701
G1 X67.345 Y35.311 E0.01696
G1 X78.697 Y46.663 E0.50701
G1 X78.160 Y46.663 E0.01696
G1 X66.808 Y35.311 E0.50701
G1 X66.270 Y35.311 E0.01696
G1 X77.622 Y46.663 E0.50701
G1 X77.085 Y46.663 E0.01696
G1 X65.733 Y35.311 E0.50701
G1 X65.196 Y35.311 E0.01696
G1 X76.548 Y46.663 E0.50701
G1 X76.011 Y46.663 E0.01696
G1 X64.659 Y35.311 E0.50701
G1 X64.122 Y35.311 E0.01696
G1 X75.474 Y46.663 E0.50701
G1 X74.937 Y46.663 E0.01696
G1 X63.585 Y35.311 E0.50701
G1 X63.048 Y35.311 E0.01696
G1 X74.400 Y46.663 E0.50701
G1 X73.862 Y46.663 E0.01696
G1 X62.511 Y35.311 E0.50701
G1 X61.973 Y35.311 E0.01696
G1 X73.325 Y46.663 E0.50701
G1 X72.788 Y46.663 E0.01696
G1 X61.436 Y35.311 E0.50701
G1 X60.899 Y35.311 E0.01696
G1 X72.251 Y46.663 E0.50701
G1 X71.714 Y46.663 E0.01696
G1 X60.362 Y35.311 E0.50701
G1 X59.825 Y35.311 E0.01696
G1 X71.177 Y46.663 E0.50701
G1 X70.640 Y46.663 E0.01696
G1 X59.288 Y35.311 E0.50701
G1 X58.751 Y35.311 E0.01696
G1 X70.102 Y46.663 E0.50701
G1 X69.565 Y46.663 E0.01696
G1 X58.213 Y35.311 E0.50701
G1 X57.676 Y35.311 E0.01696
G1 X69.028 Y46.663 E0.50701
G1 X68.491 Y46.663 E0.01696
G1 X57.139 Y35.311 E0.50701
G1 X56.602 Y35.311 E0.01696
G1 X67.954 Y46.663 E0.50701
G1 X67.417 Y46.663 E0.01696
G1 X56.065 Y35.311 E0.50701
G1 X55.528 Y35.311 E0.01696
G1 X66.880 Y46.663 E0.50701
G1 X66.343 Y46.663 E0.01696
G1 X54.991 Y35.311 E0.50701
G1 X54.453 Y35.311 E0.01696
G1 X65.805 Y46.663 E0.50701
G1 X65.268 Y46.663 E0.01696
G1 X53.916 Y35.311 E0.50701
G1 X53.379 Y35.311 E0.01696
G1 X64.731 Y46.663 E0.50701
G1 X64.194 Y46.663 E0.01696
G1 X52.842 Y35.311 E0.50701
G1 X52.305 Y35.311 E0.01696
G1 X63.657 Y46.663 E0.50701
G1 X63.120 Y46.663 E0.01696
G1 X52.263 Y35.806 E0.48490
G1 X52.263 Y36.343 E0.01698
G1 X62.583 Y46.663 E0.46090
G1 X62.045 Y46.663 E0.01696
G1 X52.264 Y36.881 E0.43689
G1 X52.264 Y37.419 E0.01698
G1 X61.508 Y46.663 E0.41288
G1 X60.971 Y46.663 E0.01696
G1 X52.264 Y37.956 E0.38887
G1 X52.265 Y38.494 E0.01698
G1 X60.434 Y46.663 E0.36486
G1 X59.897 Y46.663 E0.01696
G1 X52.265 Y39.031 E0.34085
G1 X52.266 Y39.569 E0.01698
G1 X59.360 Y46.663 E0.31684
G1 X58.823 Y46.663 E0.01696
G1 X52.266 Y40.106 E0.29283
G1 X52.267 Y40.644 E0.01698
G1 X58.285 Y46.663 E0.26882
G1 X57.748 Y46.663 E0.01696
G1 X52.267 Y41.181 E0.24481
G1 X52.267 Y41.719 E0.01698
G1 X57.211 Y46.663 E0.22081
G1 X56.674 Y46.663 E0.01696
G1 X52.268 Y42.257 E0.19680
G1 X52.268 Y42.794 E0.01698
G1 X56.137 Y46.663 E0.17279
G1 X55.600 Y46.663 E0.01696
G1 X52.269 Y43.332 E0.14878
G1 X52.269 Y43.869 E0.01698
G1 X55.063 Y46.663 E0.12477
G1 X54.526 Y46.663 E0.01696
G1 X52.269 Y44.407 E0.10076
G1 X52.270 Y44.944 E0.01698
G1 X53.988 Y46.663 E0.07675
G1 X53.451 Y46.663 E0.01696
M73 Q2 S97
G1 X52.270 Y45.482 E0.05274
G1 X52.271 Y46.019 E0.01698
G1 X52.914 Y46.663 E0.02873
G1 X52.393 Y46.649 E0.01646
G1 X52.346 Y46.628 E0.00165
G1 X52.101 Y46.387 E0.01083
G1 F8640.000
G1 X52.346 Y46.628 E-0.07915
G1 X52.393 Y46.649 E-0.01204
G1 X52.914 Y46.663 E-0.12031
G1 X52.271 Y46.019 E-0.21009
G1 X52.270 Y45.482 E-0.12412
G1 X53.451 Y46.663 E-0.38563
G1 X53.988 Y46.663 E-0.12403
G1 X53.147 Y45.822 E-0.27464
G1 E-0.07000 F2100.00000
G1 Z0.400 F10800.000
G1 X52.065 Y52.273
G1 Z0.200
G1 E1.40000 F2100.00000
G1 F1200.000
G1 X52.211 Y52.105 E0.00698
G1 X52.313 Y52.046 E0.00370
G1 X52.516 Y52.012 E0.00646
M73 P2 R96
G1 X101.547 Y52.022 E1.53732
G1 X101.659 Y52.058 E0.00371
G1 X101.829 Y52.184 E0.00662
G1 X101.900 Y52.308 E0.00446
G1 X101.925 Y52.424 E0.00372
G1 X101.934 Y63.929 E0.36075
G1 X52.018 Y63.929 E1.56506
G1 X52.027 Y52.424 E0.36075
G1 X52.047 Y52.330 E0.00300
G1 X51.692 Y52.189 F10800.000
G1 F1200.000
G1 X51.742 Y52.076 E0.00391
G1 X51.859 Y51.915 E0.00622
G1 X51.988 Y51.799 E0.00546
G1 X52.195 Y51.686 E0.00737
G1 X52.506 Y51.635 E0.00991
G1 X101.624 Y51.650 E1.54006
G1 X101.814 Y51.712 E0.00624
G1 X101.964 Y51.799 E0.00544
G1 X102.112 Y51.932 E0.00624
G1 X102.247 Y52.154 E0.00817
G1 X102.302 Y52.384 E0.00740
G1 X102.311 Y64.306 E0.37382
G1 X51.641 Y64.306 E1.58873
G1 X51.650 Y52.384 E0.37382
G1 X51.679 Y52.248 E0.00436
G1 F8640.000
G1 X51.742 Y52.076 E-0.04241
G1 X51.859 Y51.915 E-0.04581
G1 X51.988 Y51.799 E-0.04019
G1 X52.195 Y51.686 E-0.05428
G1 X52.506 Y51.635 E-0.07295
G1 X57.159 Y51.636 E-1.07435
G1 E-0.07000 F2100.00000
G1 Z0.400 F10800.000
G1 X51.264 Y64.683
G1 Z0.200
G1 E1.40000 F2100.00000
G1 F1200.000
G1 X51.273 Y52.344 E0.38689
G1 X51.369 Y51.977 E0.01190
G1 X51.577 Y51.661 E0.01186
G1 X51.765 Y51.492 E0.00794
G1 X52.087 Y51.323 E0.01139
G1 X52.365 Y51.264 E0.00889
G1 X52.497 Y51.258 E0.00414
G1 X101.618 Y51.268 E1.54016
G1 X101.968 Y51.366 E0.01139
G1 X102.187 Y51.492 E0.00792
G1 X102.446 Y51.746 E0.01139
G1 X102.623 Y52.082 E0.01190
G1 X102.679 Y52.344 E0.00841
G1 X102.688 Y64.683 E0.38689
G1 X51.324 Y64.683 E1.61051
G1 X50.886 Y65.060 F10800.000
G1 F1200.000
G1 X50.896 Y52.304 E0.39995
G1 X50.966 Y51.974 E0.01058
G1 X51.024 Y51.823 E0.00507
G1 X51.097 Y51.680 E0.00504
G1 X51.295 Y51.408 E0.01056
G1 X51.543 Y51.185 E0.01043
G1 X51.835 Y51.016 E0.01057
G1 X51.980 Y50.961 E0.00488
G1 X52.315 Y50.889 E0.01075
G1 X52.487 Y50.880 E0.00538
G1 X101.647 Y50.891 E1.54140
G1 X101.801 Y50.915 E0.00487
G1 X102.122 Y51.019 E0.01058
G1 X102.409 Y51.185 E0.01041
G1 X102.660 Y51.411 E0.01058
G1 X102.758 Y51.531 E0.00487
G1 X102.930 Y51.828 E0.01076
G1 X102.986 Y51.974 E0.00490
G1 X103.056 Y52.304 E0.01058
G1 X103.066 Y65.060 E0.39995
G1 X50.946 Y65.060 E1.63418
G1 X51.058 Y64.699 F10800.000
G1 F8640.000
G1 X50.924 Y59.300 E-1.33000
G1 E-0.07000 F2100.00000
G1 Z0.400 F10800.000
G1 X101.812 Y53.109
G1 Z0.200
G1 E1.40000 F2100.00000
G1 F1200.000
G1 X101.007 Y52.304 E0.03595
G1 X100.470 Y52.304 E0.01697
G1 X101.643 Y53.477 E0.05237
G1 X101.643 Y54.015 E0.01698
G1 X99.933 Y52.304 E0.07639
G1 X99.396 Y52.304 E0.01697
G1 X101.644 Y54.552 E0.10040
G1 X101.644 Y55.090 E0.01698
G1 X98.858 Y52.304 E0.12441
G1 X98.321 Y52.304 E0.01697
G1 X101.644 Y55.627 E0.14842
G1 X101.645 Y56.165 E0.01698
G1 X97.784 Y52.304 E0.17243
G1 X97.247 Y52.304 E0.01697
G1 X101.645 Y56.702 E0.19644
G1 X101.646 Y57.240 E0.01698
G1 X96.709 Y52.304 E0.22046
G1 X96.172 Y52.303 E0.01697
G1 X101.646 Y57.777 E0.24447
G1 X101.647 Y58.315 E0.01698
G1 X95.635 Y52.303 E0.26848
G1 X95.098 Y52.303 E0.01697
G1 X101.647 Y58.852 E0.29249
G1 X101.647 Y59.390 E0.01698
G1 X94.561 Y52.303 E0.31650
G1 X94.023 Y52.303 E0.01697
G1 X101.648 Y59.927 E0.34052
G1 X101.648 Y60.465 E0.01698
G1 X93.486 Y52.303 E0.36453
G1 X92.949 Y52.303 E0.01697
G1 X101.649 Y61.003 E0.38854
G1 X101.649 Y61.540 E0.01698
G1 X92.412 Y52.303 E0.41255
G1 X91.874 Y52.303 E0.01697
G1 X101.649 Y62.078 E0.43656
G1 X101.650 Y62.615 E0.01698
G1 X91.337 Y52.302 E0.46057
G1 X90.800 Y52.302 E0.01697
G1 X101.650 Y63.153 E0.48459
G1 X101.651 Y63.646 E0.01559
G1 X101.607 Y63.646 E0.00138
G1 X90.263 Y52.302 E0.50664
G1 X89.726 Y52.302 E0.01697
G1 X101.070 Y63.646 E0.50665
G1 X100.533 Y63.646 E0.01696
G1 X89.188 Y52.302 E0.50665
G1 X88.651 Y52.302 E0.01697
G1 X99.996 Y63.646 E0.50666
G1 X99.458 Y63.646 E0.01696
G1 X88.114 Y52.302 E0.50666
G1 X87.577 Y52.302 E0.01697
G1 X98.921 Y63.646 E0.50667
G1 X98.384 Y63.646 E0.01696
G1 X87.039 Y52.302 E0.50667
G1 X86.502 Y52.301 E0.01697
G1 X97.847 Y63.646 E0.50668
G1 X97.310 Y63.646 E0.01696
G1 X85.965 Y52.301 E0.50668
G1 X85.428 Y52.301 E0.01697
