; generated by PrusaSlicer 2.2.0+win64 on 2020-11-13 at 11:59:40 UTC

; 

; external perimeters extrusion width = 0.60mm
; perimeters extrusion width = 0.50mm
; infill extrusion width = 0.50mm
; solid infill extrusion width = 0.50mm
; top infill extrusion width = 0.45mm
; first layer extrusion width = 0.42mm

M73 P0 R108
M73 Q0 S109
M201 X1000 Y1000 Z200 E5000 ; sets maximum accelerations, mm/sec^2
M203 X200 Y200 Z12 E120 ; sets maximum feedrates, mm/sec
M204 P1250 R1250 T1250 ; sets acceleration (P, T) and retract acceleration (R), mm/sec^2
M205 X8.00 Y8.00 Z0.40 E4.50 ; sets the jerk limits, mm/sec
M205 S0 T0 ; sets the minimum extruding and travel feed rate, mm/sec
M107
M862.3 P "MK3S" ; printer model check
M862.1 P0.4 ; nozzle diameter check
M115 U3.9.1 ; tell printer latest fw version
G90 ; use absolute coordinates
M83 ; extruder relative mode
M104 S240 ; set extruder temp
M140 S85 ; set bed temp
M190 S85 ; wait for bed temp
M109 S240 ; wait for extruder temp
G28 W ; home all without mesh bed level
G80 ; mesh bed leveling
G1 Y-3.0 F1000.0 ; go outside print area
G92 E0.0
G1 X60.0 E9.0 F1000.0 ; intro line
M73 Q0 S109
M73 P0 R108
G1 X100.0 E12.5 F1000.0 ; intro line
G92 E0.0
M221 S95

; Don't change E values below. Excessive value can damage the printer.

M907 E538 ; set extruder motor current
G21 ; set units to millimeters
G90 ; use absolute coordinates
M83 ; use relative distances for extrusion
M900 K0.08 ; Filament gcode LA 1.5
M900 K45 ; Filament gcode LA 1.0
;BEFORE_LAYER_CHANGE
G92 E0.0
;0.2


G1 E-1.40000 F2100.00000
G1 Z0.200 F12600.000
;AFTER_LAYER_CHANGE
;0.2
G1 Z0.400
G1 X22.401 Y16.787
G1 Z0.200
G1 E1.40000 F2100.00000
M204 S1000
G1 X23.074 Y16.355 E0.02508
G1 X25.143 Y15.623 E0.06881
G1 X76.072 Y5.514 E1.62801
G1 X235.410 Y5.511 E4.99592
G1 X236.187 Y5.643 E0.02473
G1 X244.557 Y8.691 E0.27929
G1 X245.050 Y8.946 E0.01740
G1 X245.470 Y9.309 E0.01740
G1 X246.756 Y10.847 E0.06287
G1 X247.112 Y11.572 E0.02532
G1 X248.568 Y19.847 E0.26347
G1 X249.271 Y44.679 E0.77890
G1 X249.050 Y95.290 E1.58686
G1 X248.736 Y118.694 E0.73390
G1 X247.512 Y165.908 E1.48086
G1 X246.732 Y189.926 E0.75348
G1 X246.623 Y190.540 E0.01953
G1 X245.959 Y192.359 E0.06072
G1 X245.708 Y192.815 E0.01633
G1 X245.366 Y193.203 E0.01621
G1 X238.472 Y198.987 E0.28217
G1 X238.049 Y199.258 E0.01574
G1 X237.579 Y199.434 E0.01574
G1 X196.668 Y206.655 E1.30255
G1 X193.669 Y207.094 E0.09503
G1 X190.568 Y207.362 E0.09759
G1 X187.596 Y207.447 E0.09322
G1 X120.341 Y207.447 E2.10875
G1 X117.326 Y207.360 E0.09456
G1 X25.439 Y201.101 E2.88775
G1 X24.891 Y200.991 E0.01752
G1 X23.073 Y200.327 E0.06070
G1 X22.628 Y200.078 E0.01597
G1 X22.247 Y199.741 E0.01597
G1 X16.462 Y192.846 E0.28217
G1 X16.197 Y192.434 E0.01538
G1 X16.021 Y191.976 E0.01538
G1 X8.797 Y151.058 E1.30279
G1 X8.356 Y148.040 E0.09563
G1 X8.091 Y145.012 E0.09529
G1 X8.002 Y141.978 E0.09517
G1 X8.002 Y74.711 E2.10911
G1 X8.096 Y71.601 E0.09758
G1 X8.356 Y68.635 E0.09334
G1 X8.792 Y65.658 E0.09433
G1 X16.010 Y24.749 E1.30250
G1 X16.187 Y24.267 E0.01609
G1 X16.463 Y23.834 E0.01609
G1 X22.362 Y16.833 E0.28706
G1 F10080.000
G1 X23.074 Y16.355 E-0.16969
G1 X25.143 Y15.623 E-0.43437
G1 X28.741 Y14.909 E-0.72594
G1 E-0.07000 F2100.00000
G1 Z0.400 F12600.000
G1 X75.605 Y11.845
G1 Z0.200
G1 E1.40000 F2100.00000
G1 X77.100 Y15.954 E0.13711
G1 X81.407 Y16.713 E0.13711
G1 X86.116 Y11.101 E0.22971
G1 X87.347 Y10.653 E0.04108
G1 X90.702 Y11.244 E0.10681
G1 X91.075 Y12.270 E0.03421
G1 X89.392 Y14.276 E0.08211
G1 X90.888 Y18.385 E0.13711
G1 X95.194 Y19.144 E0.13711
G1 X99.903 Y13.532 E0.22972
G1 X101.135 Y13.084 E0.04108
G1 X104.489 Y13.675 E0.10681
G1 X104.863 Y14.701 E0.03421
G1 X103.179 Y16.707 E0.08211
G1 X104.675 Y20.816 E0.13711
G1 X108.981 Y21.575 E0.13711
G1 X112.663 Y17.188 E0.17959
G1 X113.284 Y16.581 E0.02723
G1 X113.979 Y16.129 E0.02600
G1 X114.750 Y15.822 E0.02600
G1 X115.565 Y15.672 E0.02600
G1 X116.441 Y15.685 E0.02746
G1 X118.318 Y15.864 E0.05911
G1 X120.246 Y15.974 E0.06057
G1 X122.170 Y16.011 E0.06033
G1 X189.436 Y16.011 E2.10908
G1 X191.360 Y15.974 E0.06033
G1 X193.289 Y15.864 E0.06057
G1 X195.165 Y15.685 E0.05911
G1 X196.041 Y15.672 E0.02746
G1 X196.857 Y15.822 E0.02600
G1 X197.627 Y16.129 E0.02600
G1 X198.322 Y16.581 E0.02600
G1 X198.943 Y17.188 E0.02723
G1 X202.625 Y21.575 E0.17959
G1 X206.932 Y20.816 E0.13711
G1 X208.427 Y16.707 E0.13711
G1 X206.744 Y14.701 E0.08211
G1 X207.117 Y13.675 E0.03421
G1 X208.897 Y13.361 E0.05668
G1 X210.472 Y13.084 E0.05013
G1 X211.703 Y13.532 E0.04108
G1 X216.412 Y19.144 E0.22972
G1 X220.719 Y18.385 E0.13711
G1 X222.214 Y14.276 E0.13711
G1 X220.531 Y12.270 E0.08211
G1 X220.904 Y11.244 E0.03421
G1 X224.259 Y10.653 E0.10681
G1 X225.490 Y11.101 E0.04108
G1 X230.200 Y16.713 E0.22971
G1 X234.506 Y15.954 E0.13711
G1 X236.002 Y11.845 E0.13711
G1 X234.318 Y9.839 E0.08211
G1 X234.692 Y8.813 E0.03421
G1 X235.335 Y8.700 E0.02049
G1 X243.251 Y11.583 E0.26416
G1 X244.094 Y12.587 E0.04109
G1 X245.382 Y19.901 E0.23286
G1 X244.934 Y21.132 E0.04108
G1 X238.478 Y26.547 E0.26420
G1 X237.838 Y26.660 E0.02036
G1 X237.137 Y25.824 E0.03421
G1 X238.033 Y23.363 E0.08211
G1 X235.222 Y20.013 E0.13711
G1 X230.915 Y20.773 E0.13711
G1 X228.410 Y27.657 E0.22971
G1 X227.406 Y28.499 E0.04108
G1 X224.051 Y29.091 E0.10681
G1 X223.350 Y28.255 E0.03421
G1 X224.245 Y25.794 E0.08211
G1 X221.435 Y22.444 E0.13711
G1 X217.128 Y23.204 E0.13711
G1 X214.622 Y30.088 E0.22971
G1 X213.619 Y30.931 E0.04108
G1 X210.264 Y31.522 E0.10681
G1 X209.562 Y30.686 E0.03421
G1 X210.458 Y28.225 E0.08211
G1 X207.647 Y24.875 E0.13711
G1 X203.341 Y25.635 E0.13711
G1 X200.958 Y32.182 E0.21845
G1 X200.854 Y32.404 E0.00769
G1 X200.733 Y32.577 E0.00661
G1 X200.560 Y32.750 E0.00769
G1 X200.107 Y33.131 E0.01855
G1 X199.906 Y33.271 E0.00769
G1 X199.714 Y33.360 E0.00661
G1 X199.477 Y33.424 E0.00769
G1 X197.986 Y33.687 E0.04749
G1 X195.142 Y34.104 E0.09012
G1 X192.290 Y34.353 E0.08976
G1 X189.417 Y34.437 E0.09012
G1 X122.189 Y34.437 E2.10789
G1 X119.316 Y34.353 E0.09012
G1 X116.464 Y34.104 E0.08976
G1 X113.621 Y33.687 E0.09012
G1 X112.129 Y33.424 E0.04749
G1 X111.892 Y33.360 E0.00769
G1 X111.701 Y33.271 E0.00661
G1 X111.500 Y33.131 E0.00769
G1 X111.047 Y32.750 E0.01855
G1 X110.873 Y32.577 E0.00769
G1 X110.762 Y32.419 E0.00605
G1 X110.647 Y32.179 E0.00835
G1 X108.266 Y25.635 E0.21835
G1 X103.959 Y24.875 E0.13711
G1 X101.148 Y28.225 E0.13711
G1 X102.044 Y30.686 E0.08211
G1 X101.342 Y31.522 E0.03421
G1 X97.988 Y30.931 E0.10681
G1 X96.984 Y30.088 E0.04108
G1 X94.478 Y23.204 E0.22971
G1 X90.172 Y22.444 E0.13711
G1 X87.361 Y25.794 E0.13711
G1 X88.257 Y28.255 E0.08211
G1 X87.555 Y29.091 E0.03421
G1 X84.200 Y28.499 E0.10681
G1 X83.197 Y27.657 E0.04108
G1 X80.691 Y20.773 E0.22971
G1 X76.384 Y20.013 E0.13711
G1 X73.574 Y23.363 E0.13711
G1 X74.469 Y25.824 E0.08211
G1 X73.768 Y26.660 E0.03421
G1 X73.128 Y26.547 E0.02036
G1 X66.672 Y21.132 E0.26420
G1 X66.224 Y19.901 E0.04108
G1 X67.513 Y12.587 E0.23286
G1 X68.355 Y11.583 E0.04109
G1 X76.271 Y8.700 E0.26416
G1 X76.915 Y8.813 E0.02049
G1 X77.288 Y9.839 E0.03421
G1 X75.643 Y11.799 E0.08023
G1 X76.033 Y11.920 F12600.000
G1 F2100.000
G1 X77.380 Y15.620 E0.12346
G1 X81.258 Y16.304 E0.12346
G1 X85.892 Y10.781 E0.22606
G1 X87.313 Y10.264 E0.04742
G1 X90.982 Y10.911 E0.11680
G1 X91.504 Y12.345 E0.04786
G1 X89.821 Y14.351 E0.08211
G1 X91.167 Y18.051 E0.12346
G1 X95.045 Y18.735 E0.12346
G1 X99.679 Y13.212 E0.22606
G1 X101.101 Y12.695 E0.04742
G1 X104.769 Y13.342 E0.11680
G1 X105.291 Y14.776 E0.04786
G1 X103.608 Y16.782 E0.08211
G1 X104.955 Y20.483 E0.12346
G1 X108.832 Y21.166 E0.12346
G1 X112.386 Y16.931 E0.17334
G1 X113.047 Y16.285 E0.02898
G1 X113.805 Y15.792 E0.02834
G1 X114.645 Y15.458 E0.02834
G1 X115.534 Y15.294 E0.02834
G1 X116.462 Y15.308 E0.02910
G1 X118.346 Y15.488 E0.05936
G1 X120.261 Y15.597 E0.06012
G1 X122.174 Y15.634 E0.05999
G1 X189.433 Y15.634 E2.10886
G1 X191.346 Y15.597 E0.05999
G1 X193.260 Y15.488 E0.06012
G1 X195.144 Y15.308 E0.05936
G1 X196.073 Y15.294 E0.02910
G1 X196.962 Y15.458 E0.02834
G1 X197.801 Y15.792 E0.02834
G1 X198.559 Y16.285 E0.02834
G1 X199.220 Y16.931 E0.02898
G1 X202.774 Y21.166 E0.17334
G1 X206.652 Y20.483 E0.12346
G1 X207.998 Y16.782 E0.12346
G1 X206.315 Y14.776 E0.08211
G1 X206.837 Y13.342 E0.04786
G1 X210.506 Y12.695 E0.11680
G1 X211.927 Y13.212 E0.04742
G1 X216.561 Y18.735 E0.22606
G1 X220.439 Y18.051 E0.12346
G1 X221.786 Y14.351 E0.12346
G1 X220.102 Y12.345 E0.08211
G1 X220.624 Y10.911 E0.04786
G1 X224.293 Y10.264 E0.11680
G1 X225.714 Y10.781 E0.04742
G1 X230.349 Y16.304 E0.22606
G1 X234.226 Y15.620 E0.12346
G1 X235.573 Y11.920 E0.12346
G1 X233.890 Y9.914 E0.08211
G1 X234.412 Y8.480 E0.04786
G1 X235.369 Y8.311 E0.03048
G1 X243.475 Y11.263 E0.27050
G1 X244.447 Y12.422 E0.04742
G1 X245.771 Y19.935 E0.23920
G1 X245.254 Y21.356 E0.04742
G1 X238.643 Y26.901 E0.27054
G1 X237.690 Y27.069 E0.03035
G1 X236.708 Y25.900 E0.04786
G1 X237.604 Y23.439 E0.08211
G1 X235.073 Y20.422 E0.12346
G1 X231.195 Y21.106 E0.12346
G1 X228.729 Y27.881 E0.22606
G1 X227.571 Y28.853 E0.04742
G1 X223.902 Y29.500 E0.11680
G1 X222.921 Y28.331 E0.04786
G1 X223.817 Y25.870 E0.08211
G1 X221.286 Y22.854 E0.12346
G1 X217.408 Y23.537 E0.12346
G1 X214.942 Y30.312 E0.22606
G1 X213.784 Y31.284 E0.04742
G1 X210.115 Y31.931 E0.11680
G1 X209.134 Y30.762 E0.04786
G1 X210.029 Y28.301 E0.08211
G1 X207.498 Y25.285 E0.12346
G1 X203.621 Y25.968 E0.12346
G1 X201.307 Y32.326 E0.21214
G1 X201.182 Y32.593 E0.00924
G1 X201.023 Y32.820 E0.00868
G1 X200.815 Y33.029 E0.00924
G1 X200.336 Y33.430 E0.01958
G1 X200.095 Y33.599 E0.00924
G1 X199.844 Y33.716 E0.00868
G1 X199.559 Y33.792 E0.00924
G1 X198.046 Y34.059 E0.04818
G1 X195.186 Y34.478 E0.09063
G1 X192.312 Y34.730 E0.09045
G1 X189.423 Y34.814 E0.09063
G1 X122.184 Y34.814 E2.10824
G1 X119.294 Y34.730 E0.09063
G1 X116.421 Y34.478 E0.09045
G1 X113.561 Y34.059 E0.09063
G1 X112.047 Y33.792 E0.04818
G1 X111.762 Y33.716 E0.00924
G1 X111.512 Y33.599 E0.00868
G1 X111.270 Y33.430 E0.00924
G1 X110.792 Y33.029 E0.01958
G1 X110.583 Y32.820 E0.00924
G1 X110.436 Y32.610 E0.00805
G1 X110.299 Y32.325 E0.00990
G1 X107.986 Y25.968 E0.21210
G1 X104.108 Y25.285 E0.12346
G1 X101.577 Y28.301 E0.12346
G1 X102.473 Y30.762 E0.08211
G1 X101.491 Y31.931 E0.04786
G1 X97.823 Y31.284 E0.11680
G1 X96.664 Y30.312 E0.04742
G1 X94.198 Y23.537 E0.22606
G1 X90.321 Y22.854 E0.12346
G1 X87.790 Y25.870 E0.12346
G1 X88.685 Y28.331 E0.08211
G1 X87.704 Y29.500 E0.04786
G1 X84.035 Y28.853 E0.11680
G1 X82.877 Y27.881 E0.04742
G1 X80.411 Y21.106 E0.22606
G1 X76.533 Y20.422 E0.12346
G1 X74.002 Y23.439 E0.12346
G1 X74.898 Y25.900 E0.08211
G1 X73.917 Y27.069 E0.04786
G1 X72.964 Y26.901 E0.03035
G1 X66.353 Y21.356 E0.27054
G1 X65.835 Y19.935 E0.04742
G1 X67.159 Y12.422 E0.23920
G1 X68.131 Y11.263 E0.04742
G1 X76.237 Y8.311 E0.27050
G1 X77.195 Y8.480 E0.03048
G1 X77.717 Y9.914 E0.04786
G1 X76.072 Y11.874 E0.08023
G1 X75.714 Y12.162 F12600.000
G1 F10080.000
G1 X77.380 Y15.620 E-0.78531
G1 X80.090 Y16.098 E-0.54469
G1 E-0.07000 F2100.00000
G1 Z0.400 F12600.000
G1 X76.135 Y8.850
G1 Z0.200
G1 E1.40000 F2100.00000
M73 Q0 S108
G1 X76.940 Y9.655 E0.03578
G1 X76.988 Y9.786 E0.00435
G1 X76.782 Y10.031 E0.01006
G1 X75.876 Y9.125 E0.04026
G1 X75.484 Y9.267 E0.01309
G1 X76.538 Y10.322 E0.04683
G1 X76.294 Y10.612 E0.01191
G1 X75.092 Y9.410 E0.05339
G1 X74.701 Y9.553 E0.01309
G1 X76.051 Y10.903 E0.05996
G1 X75.807 Y11.193 E0.01191
G1 X74.309 Y9.695 E0.06653
M73 P0 R107
G1 X73.918 Y9.838 E0.01309
G1 X75.563 Y11.483 E0.07310
G1 X75.319 Y11.774 E0.01191
G1 X73.526 Y9.981 E0.07966
G1 X73.134 Y10.123 E0.01309
G1 X75.591 Y12.580 E0.10915
G1 X75.897 Y13.420 E0.02808
G1 X72.743 Y10.266 E0.14012
G1 X72.351 Y10.408 E0.01309
G1 X76.203 Y14.260 E0.17110
G1 X76.509 Y15.100 E0.02808
G1 X71.960 Y10.551 E0.20207
G1 X71.568 Y10.694 E0.01309
G1 X87.315 Y26.441 E0.69952
G1 X87.061 Y25.741 E0.02340
G1 X87.101 Y25.693 E0.00199
G1 X77.744 Y16.335 E0.41567
G1 X78.392 Y16.450 E0.02069
G1 X87.345 Y25.402 E0.39768
G1 X87.589 Y25.112 E0.01191
G1 X79.041 Y16.564 E0.37970
G1 X79.690 Y16.679 E0.02069
G1 X87.833 Y24.821 E0.36172
G1 X88.076 Y24.531 E0.01191
G1 X80.338 Y16.793 E0.34373
G1 X80.987 Y16.907 E0.02069
G1 X88.320 Y24.240 E0.32575
G1 X88.564 Y23.950 E0.01191
G1 X81.558 Y16.944 E0.31122
G1 X81.801 Y16.653 E0.01191
G1 X88.808 Y23.660 E0.31122
G1 X89.051 Y23.369 E0.01191
G1 X82.045 Y16.363 E0.31122
G1 X82.289 Y16.072 E0.01191
G1 X89.295 Y23.079 E0.31122
G1 X89.539 Y22.788 E0.01191
G1 X82.533 Y15.782 E0.31122
G1 X82.776 Y15.492 E0.01191
G1 X89.783 Y22.498 E0.31122
G1 X90.026 Y22.207 E0.01191
G1 X83.020 Y15.201 E0.31122
G1 X83.264 Y14.911 E0.01191
G1 X90.606 Y22.253 E0.32616
G1 X91.255 Y22.367 E0.02069
G1 X83.508 Y14.620 E0.34414
G1 X83.751 Y14.330 E0.01191
G1 X91.904 Y22.482 E0.36213
G1 X92.552 Y22.596 E0.02069
G1 X83.995 Y14.039 E0.38011
G1 X84.239 Y13.749 E0.01191
G1 X93.201 Y22.710 E0.39810
G1 X93.849 Y22.825 E0.02069
G1 X84.483 Y13.458 E0.41608
G1 X84.726 Y13.168 E0.01191
G1 X101.771 Y30.212 E0.75714
G1 X101.825 Y30.800 F12600.000
G1 F2100.000
G1 X95.063 Y24.038 E0.30038
G1 X95.369 Y24.878 E0.02808
G1 X101.461 Y30.970 E0.27062
G1 X101.238 Y31.236 E0.01087
G1 X101.182 Y31.226 E0.00180
G1 X95.674 Y25.718 E0.24465
G1 X95.980 Y26.558 E0.02808
G1 X100.533 Y31.111 E0.20226
G1 X99.885 Y30.997 E0.02069
G1 X96.286 Y27.398 E0.15986
G1 X96.591 Y28.238 E0.02808
G1 X99.236 Y30.883 E0.11747
G1 X98.587 Y30.768 E0.02069
G1 X96.897 Y29.078 E0.07508
G1 X97.203 Y29.918 E0.02808
G1 X98.148 Y30.863 E0.04198
G1 F10080.000
G1 X97.203 Y29.918 E-0.26454
G1 X96.897 Y29.078 E-0.17691
G1 X98.587 Y30.768 E-0.47309
G1 X99.236 Y30.883 E-0.13035
G1 X98.217 Y29.864 E-0.28511
G1 E-0.07000 F2100.00000
G1 Z0.400 F12600.000
G1 X84.528 Y28.461
G1 Z0.200
G1 E1.40000 F2100.00000
G1 X83.337 Y27.271 E0.05289
G1 X83.031 Y26.431 E0.02808
G1 X84.967 Y28.367 E0.08599
G1 X85.616 Y28.481 E0.02069
G1 X82.725 Y25.591 E0.12838
G1 X82.420 Y24.751 E0.02808
G1 X86.264 Y28.595 E0.17077
G1 X86.913 Y28.710 E0.02069
G1 X82.114 Y23.911 E0.21317
G1 X81.808 Y23.071 E0.02808
G1 X87.492 Y28.755 E0.25249
G1 X87.736 Y28.465 E0.01191
G1 X81.503 Y22.231 E0.27690
G1 X81.197 Y21.391 E0.02808
G1 X88.100 Y28.295 E0.30666
G1 X87.905 Y27.565 F12600.000
G1 F2100.000
G1 X71.176 Y10.836 E0.74311
G1 X70.785 Y10.979 E0.01309
G1 X80.229 Y20.423 E0.41952
G1 X79.580 Y20.309 E0.02069
G1 X70.393 Y11.122 E0.40811
G1 X70.002 Y11.264 E0.01309
G1 X78.932 Y20.194 E0.39669
G1 X78.283 Y20.080 E0.02069
G1 X69.610 Y11.407 E0.38527
G1 X69.218 Y11.549 E0.01309
G1 X77.635 Y19.966 E0.37386
G1 X76.986 Y19.851 E0.02069
G1 X68.827 Y11.692 E0.36244
G1 X68.512 Y11.807 E0.01053
G1 X68.464 Y11.864 E0.00233
G1 X76.337 Y19.737 E0.34974
G1 X76.280 Y19.727 E0.00183
G1 X76.058 Y19.992 E0.01086
G1 X68.220 Y12.154 E0.34815
G1 X67.977 Y12.445 E0.01191
G1 X75.814 Y20.282 E0.34815
G1 X75.570 Y20.573 E0.01191
G1 X67.751 Y12.754 E0.34733
G1 X67.671 Y13.208 E0.01449
G1 X75.327 Y20.863 E0.34006
G1 X75.083 Y21.154 E0.01191
G1 X67.591 Y13.662 E0.33279
G1 X67.511 Y14.116 E0.01449
G1 X74.839 Y21.444 E0.32551
G1 X74.595 Y21.735 E0.01191
G1 X67.431 Y14.570 E0.31824
G1 X67.351 Y15.025 E0.01449
G1 X74.352 Y22.025 E0.31097
G1 X74.108 Y22.316 E0.01191
G1 X67.271 Y15.479 E0.30370
G1 X67.191 Y15.933 E0.01449
G1 X73.864 Y22.606 E0.29643
G1 X73.621 Y22.897 E0.01191
G1 X67.111 Y16.387 E0.28915
G1 X67.031 Y16.841 E0.01449
G1 X73.377 Y23.187 E0.28188
G1 X73.273 Y23.310 E0.00505
G1 X73.449 Y23.794 E0.01617
G1 X66.951 Y17.296 E0.28867
G1 X66.871 Y17.750 E0.01449
G1 X73.755 Y24.634 E0.30580
G1 X74.061 Y25.474 E0.02808
G1 X66.791 Y18.204 E0.32294
G1 X66.711 Y18.658 E0.01449
G1 X74.012 Y25.959 E0.32430
G1 X73.768 Y26.249 E0.01191
G1 X66.631 Y19.112 E0.31703
G1 X66.551 Y19.567 E0.01449
G1 X73.292 Y26.308 E0.29947
G1 X73.244 Y26.300 E0.00155
G1 X70.179 Y23.729 E0.12565
G1 X66.324 Y19.874 E0.17123
G1 F10080.000
G1 X70.179 Y23.729 E-1.07890
G1 X71.151 Y24.544 E-0.25110
G1 E-0.07000 F2100.00000
G1 Z0.400 F12600.000
G1 X116.817 Y34.040
G1 Z0.200
G1 E1.40000 F2100.00000
G1 X108.623 Y25.846 E0.36399
G1 X108.929 Y26.686 E0.02808
G1 X116.014 Y33.771 E0.31474
