; generated by PrusaSlicer 2.3.0+win64 on 2021-01-23 at 15:00:06 UTC

; 

; external perimeters extrusion width = 0.45mm
; perimeters extrusion width = 0.45mm
; infill extrusion width = 0.45mm
; solid infill extrusion width = 0.45mm
; top infill extrusion width = 0.40mm
; first layer extrusion width = 0.42mm

M73 P0 R120
M73 Q0 S120
M201 X1000 Y1000 Z200 E5000 ; sets maximum accelerations, mm/sec^2
M203 X200 Y200 Z12 E120 ; sets maximum feedrates, mm/sec
M204 P1250 R1250 T1250 ; sets acceleration (P, T) and retract acceleration (R), mm/sec^2
M205 X8.00 Y8.00 Z0.40 E4.50 ; sets the jerk limits, mm/sec
M205 S0 T0 ; sets the minimum extruding and travel feed rate, mm/sec
M107
;TYPE:Custom
M862.3 P "MK3S" ; printer model check
M862.1 P0.4 ; nozzle diameter check
M115 U3.9.2 ; tell printer latest fw version
G90 ; use absolute coordinates
M83 ; extruder relative mode
M104 S240 ; set extruder temp
M140 S85 ; set bed temp
M190 S85 ; wait for bed temp
M109 S240 ; wait for extruder temp
G28 W ; home all without mesh bed level
G80 ; mesh bed leveling
G1 Y-3.0 F1000.0 ; go outside print area
G92 E0.0
G1 X60.0 E9.0 F1000.0 ; intro line
G1 X100.0 E12.5 F1000.0 ; intro line
G92 E0.0
M221 S95

; Don't change E values below. Excessive value can damage the printer.
M907 E430 ; set extruder motor current
G21 ; set units to millimeters
G90 ; use absolute coordinates
M83 ; use relative distances for extrusion
M900 K0.08 ; Filament gcode LA 1.5
M900 K45 ; Filament gcode LA 1.0
;LAYER_CHANGE
;Z:0.2
;HEIGHT:0.2
;BEFORE_LAYER_CHANGE
G92 E0.0
;0.2


G1 E-1.40000 F2100.000
G1 Z0.200 F10800.000
;AFTER_LAYER_CHANGE
;0.2
G1 Z0.400
G1 X68.300 Y48.338
G1 Z0.200
G1 E1.40000 F2100.000
M204 S1000
;TYPE:Skirt
;WIDTH:0.42
G1 F1200.000
G1 X69.072 Y47.812 E0.02931
G1 X69.984 Y47.623 E0.02919
G1 X180.004 Y47.623 E3.44960
G1 X180.906 Y47.802 E0.02884
G1 X181.670 Y48.308 E0.02872
G1 X182.185 Y49.065 E0.02872
G1 X182.377 Y49.965 E0.02884
G1 X182.377 Y160.015 E3.45056
G1 X182.198 Y160.906 E0.02849
G1 X181.700 Y161.662 E0.02837
G1 X180.921 Y162.191 E0.02954
G1 X180.000 Y162.377 E0.02946
G1 X69.985 Y162.377 E3.44945
M73 P0 R119
G1 X69.094 Y162.198 E0.02849
G1 X68.338 Y161.700 E0.02837
G1 X67.809 Y160.921 E0.02954
G1 X67.623 Y160.000 E0.02946
G1 X67.623 Y49.985 E3.44945
G1 X67.802 Y49.094 E0.02849
G1 X68.267 Y48.389 E0.02649
; printing object CuttingTemplate110.stl id:0 copy 0
;WIPE_START
G1 F8640.000
G1 X69.072 Y47.812 E-0.22870
G1 X69.984 Y47.623 E-0.21496
G1 X73.822 Y47.623 E-0.88634
;WIPE_END
G1 E-0.07000 F2100.000
G1 Z0.400 F10800.000
G1 X125.000 Y110.958
G1 Z0.200
G1 E1.40000 F2100.000
;TYPE:Perimeter
G1 F1200.000
G1 X163.857 Y149.815 E1.72300
G1 X163.455 Y150.787 E0.03298
G1 X86.545 Y150.787 E2.41145
G1 X86.143 Y149.815 E0.03298
G1 X124.958 Y111.000 E1.72112
G1 X125.000 Y111.491 F10800.000
;TYPE:External perimeter
G1 F1200.000
G1 X163.413 Y149.904 E1.70328
G1 X163.203 Y150.410 E0.01718
G1 X86.797 Y150.410 E2.39565
G1 X86.587 Y149.904 E0.01718
G1 X124.958 Y111.534 E1.70140
G1 X125.282 Y111.208 F10800.000
;WIPE_START
G1 F8640.000
G1 X129.035 Y115.602 E-1.33000
;WIPE_END
G1 E-0.07000 F2100.000
G1 Z0.400 F10800.000
G1 X169.815 Y66.143
G1 Z0.200
G1 E1.40000 F2100.000
;TYPE:Perimeter
G1 F1200.000
G1 X170.787 Y66.545 E0.03298
G1 X170.787 Y143.455 E2.41145
G1 X169.815 Y143.857 E0.03298
G1 X130.958 Y105.000 E1.72300
M73 Q0 S119
G1 X169.773 Y66.185 E1.72112
G1 X169.904 Y66.587 F10800.000
;TYPE:External perimeter
G1 F1200.000
G1 X170.410 Y66.797 E0.01718
G1 X170.410 Y143.203 E2.39565
G1 X169.904 Y143.413 E0.01718
G1 X131.491 Y105.000 E1.70328
G1 X169.861 Y66.630 E1.70140
G1 X170.007 Y66.201 F10800.000
;WIPE_START
G1 F8640.000
G1 X170.410 Y66.797 E-0.13243
G1 X170.410 Y71.984 E-1.19757
;WIPE_END
G1 E-0.07000 F2100.000
G1 Z0.400 F10800.000
G1 X86.545 Y59.213
G1 Z0.200
G1 E1.40000 F2100.000
;TYPE:Perimeter
G1 F1200.000
G1 X163.455 Y59.213 E2.41145
M73 P1 R119
M73 Q1 S119
G1 X163.857 Y60.185 E0.03298
G1 X125.000 Y99.042 E1.72300
G1 X86.143 Y60.185 E1.72300
G1 X86.522 Y59.268 E0.03110
G1 X86.797 Y59.590 F10800.000
;TYPE:External perimeter
G1 F1200.000
G1 X163.203 Y59.590 E2.39565
M73 P1 R118
G1 X163.413 Y60.096 E0.01718
G1 X125.000 Y98.509 E1.70328
G1 X86.587 Y60.096 E1.70328
G1 X86.774 Y59.645 E0.01530
G1 X86.695 Y59.203 F10800.000
;WIPE_START
G1 F8640.000
G1 X92.534 Y59.641 E-1.33000
;WIPE_END
G1 E-0.07000 F2100.000
G1 Z0.400 F10800.000
G1 X80.231 Y66.189
G1 Z0.200
G1 E1.40000 F2100.000
;TYPE:Perimeter
G1 F1200.000
G1 X119.042 Y105.000 E1.72095
G1 X80.185 Y143.857 E1.72300
G1 X79.213 Y143.455 E0.03298
G1 X79.213 Y66.545 E2.41145
G1 X80.188 Y66.146 E0.03304
G1 X80.096 Y66.587 F10800.000
;TYPE:External perimeter
G1 F1200.000
G1 X118.509 Y105.000 E1.70328
G1 X80.096 Y143.413 E1.70328
G1 X79.590 Y143.203 E0.01718
G1 X79.590 Y66.797 E2.39565
G1 X80.041 Y66.610 E0.01530
G1 X80.297 Y66.241 F10800.000
;WIPE_START
G1 F8640.000
G1 X84.118 Y70.679 E-1.33000
;WIPE_END
G1 E-0.07000 F2100.000
G1 Z0.400 F10800.000
G1 X70.787 Y50.787
G1 Z0.200
G1 E1.40000 F2100.000
;TYPE:Perimeter
G1 F1200.000
G1 X179.213 Y50.787 E3.39962
G1 X179.213 Y159.213 E3.39962
M73 Q1 S118
G1 X70.787 Y159.213 E3.39962
G1 X70.787 Y50.847 E3.39773
G1 X70.410 Y50.410 F10800.000
;TYPE:External perimeter
G1 F1200.000
G1 X179.590 Y50.410 E3.42326
G1 X179.590 Y159.590 E3.42326
M73 P1 R117
G1 X70.410 Y159.590 E3.42326
M73 P2 R117
M73 Q2 S118
G1 X70.410 Y50.470 E3.42138
G1 X70.796 Y50.514 F10800.000
;WIPE_START
G1 F8640.000
G1 X76.170 Y50.467 E-1.33000
;WIPE_END
G1 E-0.07000 F2100.000
G1 Z0.400 F10800.000
G1 X178.336 Y50.900
G1 Z0.200
G1 E1.40000 F2100.000
;TYPE:Solid infill
;WIDTH:0.420872
G1 F1200.000
G1 X178.930 Y51.495 E0.02642
G1 X178.930 Y52.029 E0.01680
G1 X177.971 Y51.070 E0.04263
G1 X177.436 Y51.070 E0.01680
G1 X178.930 Y52.564 E0.06639
G1 X178.930 Y53.098 E0.01680
G1 X176.902 Y51.070 E0.09014
G1 X176.367 Y51.070 E0.01680
G1 X178.930 Y53.633 E0.11390
G1 X178.930 Y54.167 E0.01680
G1 X175.833 Y51.070 E0.13766
G1 X175.298 Y51.070 E0.01680
G1 X178.930 Y54.702 E0.16141
G1 X178.930 Y55.236 E0.01680
G1 X174.764 Y51.070 E0.18517
G1 X174.229 Y51.070 E0.01680
G1 X178.930 Y55.771 E0.20892
G1 X178.930 Y56.305 E0.01680
G1 X173.695 Y51.070 E0.23268
G1 X173.160 Y51.070 E0.01680
G1 X178.930 Y56.840 E0.25643
G1 X178.930 Y57.374 E0.01680
G1 X172.626 Y51.070 E0.28019
G1 X172.091 Y51.070 E0.01680
G1 X178.930 Y57.909 E0.30395
G1 X178.930 Y58.443 E0.01680
G1 X171.557 Y51.070 E0.32770
G1 X171.022 Y51.070 E0.01680
G1 X178.930 Y58.978 E0.35146
G1 X178.930 Y59.512 E0.01680
G1 X170.488 Y51.070 E0.37521
G1 X169.953 Y51.070 E0.01680
G1 X178.930 Y60.047 E0.39897
G1 X178.930 Y60.581 E0.01680
G1 X169.419 Y51.070 E0.42272
G1 X168.884 Y51.070 E0.01680
G1 X178.930 Y61.116 E0.44648
G1 X178.930 Y61.650 E0.01680
G1 X168.350 Y51.070 E0.47024
G1 X167.815 Y51.070 E0.01680
G1 X178.930 Y62.185 E0.49399
G1 X178.930 Y62.719 E0.01680
G1 X167.281 Y51.070 E0.51775
G1 X166.746 Y51.070 E0.01680
G1 X178.930 Y63.254 E0.54150
G1 X178.930 Y63.788 E0.01680
G1 X166.212 Y51.070 E0.56526
G1 X165.677 Y51.070 E0.01680
G1 X178.930 Y64.323 E0.58901
G1 X178.930 Y64.857 E0.01680
G1 X165.143 Y51.070 E0.61277
G1 X164.608 Y51.070 E0.01680
G1 X178.930 Y65.392 E0.63653
G1 X178.930 Y65.926 E0.01680
G1 X164.074 Y51.070 E0.66028
G1 X163.539 Y51.070 E0.01680
G1 X178.930 Y66.461 E0.68404
G1 X178.930 Y66.995 E0.01680
G1 X163.005 Y51.070 E0.70779
G1 X162.470 Y51.070 E0.01680
G1 X178.930 Y67.530 E0.73155
G1 X178.930 Y68.064 E0.01680
G1 X161.936 Y51.070 E0.75530
G1 X161.401 Y51.070 E0.01680
G1 X178.930 Y68.599 E0.77906
M73 Q2 S117
G1 X178.930 Y69.133 E0.01680
G1 X160.867 Y51.070 E0.80281
G1 X160.332 Y51.070 E0.01680
G1 X178.930 Y69.668 E0.82657
G1 X178.930 Y70.202 E0.01680
G1 X159.798 Y51.070 E0.85033
G1 X159.263 Y51.070 E0.01680
G1 X178.930 Y70.737 E0.87408
G1 X178.930 Y71.271 E0.01680
G1 X158.729 Y51.070 E0.89784
G1 X158.194 Y51.070 E0.01680
G1 X178.930 Y71.806 E0.92159
G1 X178.930 Y72.340 E0.01680
G1 X157.660 Y51.070 E0.94535
G1 X157.125 Y51.070 E0.01680
G1 X178.930 Y72.875 E0.96910
G1 X178.930 Y73.409 E0.01680
G1 X156.591 Y51.070 E0.99286
G1 X156.056 Y51.070 E0.01680
G1 X178.930 Y73.944 E1.01662
G1 X178.930 Y74.478 E0.01680
G1 X155.522 Y51.070 E1.04037
G1 X154.987 Y51.070 E0.01680
G1 X162.847 Y58.930 E0.34934
G1 X162.313 Y58.930 E0.01680
G1 X154.453 Y51.070 E0.34934
G1 X153.918 Y51.070 E0.01680
G1 X161.778 Y58.930 E0.34934
G1 X161.244 Y58.930 E0.01680
G1 X153.384 Y51.070 E0.34934
G1 X152.849 Y51.070 E0.01680
G1 X160.709 Y58.930 E0.34934
G1 X160.175 Y58.930 E0.01680
G1 X152.315 Y51.070 E0.34934
G1 X151.780 Y51.070 E0.01680
G1 X159.640 Y58.930 E0.34934
G1 X159.106 Y58.930 E0.01680
G1 X151.246 Y51.070 E0.34934
G1 X150.711 Y51.070 E0.01680
G1 X158.571 Y58.930 E0.34934
G1 X158.037 Y58.930 E0.01680
G1 X150.177 Y51.070 E0.34934
G1 X149.642 Y51.070 E0.01680
G1 X157.502 Y58.930 E0.34934
G1 X156.968 Y58.930 E0.01680
G1 X149.108 Y51.070 E0.34934
G1 X148.573 Y51.070 E0.01680
G1 X156.433 Y58.930 E0.34934
G1 X155.899 Y58.930 E0.01680
G1 X148.039 Y51.070 E0.34934
G1 X147.504 Y51.070 E0.01680
G1 X155.364 Y58.930 E0.34934
M73 P2 R116
G1 X154.830 Y58.930 E0.01680
G1 X146.970 Y51.070 E0.34934
G1 X146.435 Y51.070 E0.01680
G1 X154.295 Y58.930 E0.34934
G1 X153.761 Y58.930 E0.01680
G1 X145.901 Y51.070 E0.34934
G1 X145.366 Y51.070 E0.01680
G1 X153.226 Y58.930 E0.34934
G1 X152.692 Y58.930 E0.01680
G1 X144.832 Y51.070 E0.34934
G1 X144.297 Y51.070 E0.01680
G1 X152.157 Y58.930 E0.34934
G1 X151.623 Y58.930 E0.01680
G1 X143.763 Y51.070 E0.34934
G1 X143.228 Y51.070 E0.01680
G1 X151.088 Y58.930 E0.34934
G1 X150.554 Y58.930 E0.01680
G1 X142.694 Y51.070 E0.34934
G1 X142.159 Y51.070 E0.01680
G1 X150.019 Y58.930 E0.34934
G1 X149.485 Y58.930 E0.01680
G1 X141.625 Y51.070 E0.34934
G1 X141.090 Y51.070 E0.01680
G1 X148.950 Y58.930 E0.34934
G1 X148.416 Y58.930 E0.01680
G1 X140.556 Y51.070 E0.34934
G1 X140.021 Y51.070 E0.01680
G1 X147.881 Y58.930 E0.34934
G1 X147.347 Y58.930 E0.01680
G1 X139.487 Y51.070 E0.34934
G1 X138.952 Y51.070 E0.01680
G1 X146.812 Y58.930 E0.34934
G1 X146.278 Y58.930 E0.01680
G1 X138.418 Y51.070 E0.34934
G1 X137.883 Y51.070 E0.01680
G1 X145.743 Y58.930 E0.34934
G1 X145.209 Y58.930 E0.01680
G1 X137.348 Y51.070 E0.34934
G1 X136.814 Y51.070 E0.01680
G1 X144.674 Y58.930 E0.34934
G1 X144.140 Y58.930 E0.01680
G1 X136.279 Y51.070 E0.34934
G1 X135.745 Y51.070 E0.01680
G1 X143.605 Y58.930 E0.34934
G1 X143.071 Y58.930 E0.01680
G1 X135.210 Y51.070 E0.34934
G1 X134.676 Y51.070 E0.01680
G1 X142.536 Y58.930 E0.34934
G1 X142.002 Y58.930 E0.01680
G1 X134.141 Y51.070 E0.34934
M73 P3 R116
M73 Q3 S117
G1 X133.607 Y51.070 E0.01680
G1 X141.467 Y58.930 E0.34934
G1 X140.933 Y58.930 E0.01680
G1 X133.072 Y51.070 E0.34934
G1 X132.538 Y51.070 E0.01680
G1 X140.398 Y58.930 E0.34934
G1 X139.864 Y58.930 E0.01680
G1 X132.003 Y51.070 E0.34934
G1 X131.469 Y51.070 E0.01680
G1 X139.329 Y58.930 E0.34934
G1 X138.795 Y58.930 E0.01680
G1 X130.934 Y51.070 E0.34934
G1 X130.400 Y51.070 E0.01680
G1 X138.260 Y58.930 E0.34934
G1 X137.726 Y58.930 E0.01680
G1 X129.865 Y51.070 E0.34934
G1 X129.331 Y51.070 E0.01680
G1 X137.191 Y58.930 E0.34934
G1 X136.657 Y58.930 E0.01680
G1 X128.796 Y51.070 E0.34934
G1 X128.262 Y51.070 E0.01680
G1 X136.122 Y58.930 E0.34934
G1 X135.588 Y58.930 E0.01680
G1 X127.727 Y51.070 E0.34934
G1 X127.193 Y51.070 E0.01680
G1 X135.053 Y58.930 E0.34934
G1 X134.519 Y58.930 E0.01680
G1 X126.658 Y51.070 E0.34934
G1 X126.124 Y51.070 E0.01680
G1 X133.984 Y58.930 E0.34934
G1 X133.450 Y58.930 E0.01680
G1 X125.589 Y51.070 E0.34934
G1 X125.055 Y51.070 E0.01680
G1 X132.915 Y58.930 E0.34934
G1 X132.381 Y58.930 E0.01680
G1 X124.520 Y51.070 E0.34934
G1 X123.986 Y51.070 E0.01680
G1 X131.846 Y58.930 E0.34934
G1 X131.312 Y58.930 E0.01680
G1 X123.451 Y51.070 E0.34934
G1 X122.917 Y51.070 E0.01680
G1 X130.777 Y58.930 E0.34934
G1 X130.243 Y58.930 E0.01680
G1 X122.382 Y51.070 E0.34934
G1 X121.848 Y51.070 E0.01680
G1 X129.708 Y58.930 E0.34934
G1 X129.174 Y58.930 E0.01680
G1 X121.313 Y51.070 E0.34934
G1 X120.779 Y51.070 E0.01680
G1 X128.639 Y58.930 E0.34934
G1 X128.105 Y58.930 E0.01680
G1 X120.244 Y51.070 E0.34934
G1 X119.710 Y51.070 E0.01680
G1 X127.570 Y58.930 E0.34934
G1 X127.036 Y58.930 E0.01680
G1 X119.175 Y51.070 E0.34934
G1 X118.641 Y51.070 E0.01680
G1 X126.501 Y58.930 E0.34934
G1 X125.967 Y58.930 E0.01680
G1 X118.106 Y51.070 E0.34934
G1 X117.572 Y51.070 E0.01680
G1 X125.432 Y58.930 E0.34934
G1 X124.898 Y58.930 E0.01680
G1 X117.037 Y51.070 E0.34934
G1 X116.503 Y51.070 E0.01680
G1 X124.363 Y58.930 E0.34934
M73 Q3 S116
G1 X123.829 Y58.930 E0.01680
G1 X115.968 Y51.070 E0.34934
G1 X115.434 Y51.070 E0.01680
G1 X123.294 Y58.930 E0.34934
G1 X122.760 Y58.930 E0.01680
G1 X114.899 Y51.070 E0.34934
G1 X114.365 Y51.070 E0.01680
G1 X122.225 Y58.930 E0.34934
G1 X121.691 Y58.930 E0.01680
G1 X113.830 Y51.070 E0.34934
G1 X113.296 Y51.070 E0.01680
G1 X121.156 Y58.930 E0.34934
G1 X120.622 Y58.930 E0.01680
G1 X112.761 Y51.070 E0.34934
G1 X112.227 Y51.070 E0.01680
G1 X120.087 Y58.930 E0.34934
G1 X119.553 Y58.930 E0.01680
G1 X111.692 Y51.070 E0.34934
G1 X111.158 Y51.070 E0.01680
G1 X119.018 Y58.930 E0.34934
G1 X118.484 Y58.930 E0.01680
G1 X110.623 Y51.070 E0.34934
G1 X110.089 Y51.070 E0.01680
G1 X117.949 Y58.930 E0.34934
G1 X117.414 Y58.930 E0.01680
G1 X109.554 Y51.070 E0.34934
G1 X109.020 Y51.070 E0.01680
G1 X116.880 Y58.930 E0.34934
G1 X116.345 Y58.930 E0.01680
G1 X108.485 Y51.070 E0.34934
G1 X107.951 Y51.070 E0.01680
G1 X115.811 Y58.930 E0.34934
G1 X115.276 Y58.930 E0.01680
G1 X107.416 Y51.070 E0.34934
G1 X106.882 Y51.070 E0.01680
G1 X114.742 Y58.930 E0.34934
G1 X114.207 Y58.930 E0.01680
G1 X106.347 Y51.070 E0.34934
G1 X105.813 Y51.070 E0.01680
G1 X113.673 Y58.930 E0.34934
G1 X113.138 Y58.930 E0.01680
G1 X105.278 Y51.070 E0.34934
G1 X104.744 Y51.070 E0.01680
G1 X112.604 Y58.930 E0.34934
G1 X112.069 Y58.930 E0.01680
G1 X104.209 Y51.070 E0.34934
G1 X103.675 Y51.070 E0.01680
G1 X111.535 Y58.930 E0.34934
G1 X111.000 Y58.930 E0.01680
G1 X103.140 Y51.070 E0.34934
G1 X102.606 Y51.070 E0.01680
G1 X110.466 Y58.930 E0.34934
G1 X109.931 Y58.930 E0.01680
G1 X102.071 Y51.070 E0.34934
G1 X101.537 Y51.070 E0.01680
G1 X109.397 Y58.930 E0.34934
G1 X108.862 Y58.930 E0.01680
G1 X101.002 Y51.070 E0.34934
G1 X100.468 Y51.070 E0.01680
G1 X108.328 Y58.930 E0.34934
G1 X107.793 Y58.930 E0.01680
G1 X99.933 Y51.070 E0.34934
G1 X99.399 Y51.070 E0.01680
G1 X107.259 Y58.930 E0.34934
G1 X106.724 Y58.930 E0.01680
G1 X98.864 Y51.070 E0.34934
G1 X98.330 Y51.070 E0.01680
G1 X106.190 Y58.930 E0.34934
G1 X105.655 Y58.930 E0.01680
G1 X97.795 Y51.070 E0.34934
G1 X97.261 Y51.070 E0.01680
G1 X105.121 Y58.930 E0.34934
G1 X104.586 Y58.930 E0.01680
G1 X96.726 Y51.070 E0.34934
G1 X96.192 Y51.070 E0.01680
G1 X104.052 Y58.930 E0.34934
G1 X103.517 Y58.930 E0.01680
G1 X95.657 Y51.070 E0.34934
G1 X95.123 Y51.070 E0.01680
G1 X102.983 Y58.930 E0.34934
G1 X102.448 Y58.930 E0.01680
G1 X94.588 Y51.070 E0.34934
G1 X94.054 Y51.070 E0.01680
G1 X101.914 Y58.930 E0.34934
G1 X101.379 Y58.930 E0.01680
G1 X93.519 Y51.070 E0.34934
M73 P3 R115
G1 X92.985 Y51.070 E0.01680
G1 X100.845 Y58.930 E0.34934
G1 X100.310 Y58.930 E0.01680
G1 X92.450 Y51.070 E0.34934
G1 X91.916 Y51.070 E0.01680
G1 X99.776 Y58.930 E0.34934
G1 X99.241 Y58.930 E0.01680
G1 X91.381 Y51.070 E0.34934
G1 X90.847 Y51.070 E0.01680
G1 X98.707 Y58.930 E0.34934
G1 X98.172 Y58.930 E0.01680
G1 X90.312 Y51.070 E0.34934
G1 X89.778 Y51.070 E0.01680
G1 X97.638 Y58.930 E0.34934
G1 X97.103 Y58.930 E0.01680
G1 X89.243 Y51.070 E0.34934
G1 X88.709 Y51.070 E0.01680
G1 X96.569 Y58.930 E0.34934
G1 X96.034 Y58.930 E0.01680
G1 X88.174 Y51.070 E0.34934
G1 X87.640 Y51.070 E0.01680
G1 X95.500 Y58.930 E0.34934
G1 X94.965 Y58.930 E0.01680
G1 X87.105 Y51.070 E0.34934
G1 X86.571 Y51.070 E0.01680
G1 X94.431 Y58.930 E0.34934
G1 X93.896 Y58.930 E0.01680
G1 X86.036 Y51.070 E0.34934
G1 X85.502 Y51.070 E0.01680
G1 X93.362 Y58.930 E0.34934
G1 X92.827 Y58.930 E0.01680
G1 X84.967 Y51.070 E0.34934
G1 X84.433 Y51.070 E0.01680
G1 X92.293 Y58.930 E0.34934
G1 X91.758 Y58.930 E0.01680
G1 X83.898 Y51.070 E0.34934
G1 X83.364 Y51.070 E0.01680
G1 X91.224 Y58.930 E0.34934
