; generated by PrusaSlicer 2.2.0+win64 on 2020-08-24 at 19:23:29 UTC

; 

; external perimeters extrusion width = 0.45mm
; perimeters extrusion width = 0.45mm
; infill extrusion width = 0.45mm
; solid infill extrusion width = 0.45mm
; top infill extrusion width = 0.40mm
; first layer extrusion width = 0.42mm

M73 P0 R125
M73 Q0 S126
M201 X1000 Y1000 Z200 E5000 ; sets maximum accelerations, mm/sec^2
M203 X200 Y200 Z12 E120 ; sets maximum feedrates, mm/sec
M204 P1250 R1250 T1250 ; sets acceleration (P, T) and retract acceleration (R), mm/sec^2
M205 X8.00 Y8.00 Z0.40 E4.50 ; sets the jerk limits, mm/sec
M205 S0 T0 ; sets the minimum extruding and travel feed rate, mm/sec
M107
M862.3 P "MK3S" ; printer model check
M862.1 P0.4 ; nozzle diameter check
M115 U3.9.0 ; tell printer latest fw version
G90 ; use absolute coordinates
M83 ; extruder relative mode
M104 S215 ; set extruder temp
M140 S60 ; set bed temp
M190 S60 ; wait for bed temp
M109 S215 ; wait for extruder temp
G28 W ; home all without mesh bed level
G80 ; mesh bed leveling
G1 Y-3.0 F1000.0 ; go outside print area
G92 E0.0
G1 X60.0 E9.0 F1000.0 ; intro line
M73 Q0 S125
M73 P0 R125
G1 X100.0 E12.5 F1000.0 ; intro line
G92 E0.0
M221 S95

; Don't change E values below. Excessive value can damage the printer.
M907 E430 ; set extruder motor current
G21 ; set units to millimeters
G90 ; use absolute coordinates
M83 ; use relative distances for extrusion
M900 K0.06 ; Filament gcode LA 1.5
M900 K30 ; Filament gcode LA 1.0
;BEFORE_LAYER_CHANGE
G92 E0.0
;0.2


G1 E-0.80000 F2100.00000
G1 Z0.600 F10800.000
;AFTER_LAYER_CHANGE
;0.2
G1 X22.919 Y67.944
G1 Z0.200
G1 E0.80000 F2100.00000
M204 S1000
G1 F1200.000
G1 X23.540 Y66.445 E0.05088
G1 X24.070 Y65.617 E0.03084
G1 X24.765 Y64.802 E0.03359
G1 X25.492 Y64.161 E0.03038
G1 X26.309 Y63.613 E0.03085
G1 X27.192 Y63.178 E0.03085
G1 X28.073 Y62.879 E0.02918
G1 X28.884 Y62.711 E0.02596
G1 X29.993 Y62.623 E0.03489
G1 X220.004 Y62.623 E5.95766
G1 X220.945 Y62.684 E0.02956
G1 X221.758 Y62.839 E0.02596
G1 X222.824 Y63.185 E0.03513
G1 X223.818 Y63.692 E0.03501
G1 X224.506 Y64.159 E0.02608
G1 X225.209 Y64.776 E0.02930
G1 X225.942 Y65.633 E0.03537
G1 X226.397 Y66.325 E0.02596
G1 X226.810 Y67.163 E0.02930
G1 X227.158 Y68.228 E0.03513
G1 X227.315 Y69.045 E0.02608
G1 X227.376 Y69.921 E0.02751
G1 X227.373 Y140.141 E2.20171
G1 X227.289 Y141.116 E0.03070
G1 X226.870 Y142.678 E0.05068
G1 X226.413 Y143.646 E0.03358
G1 X225.930 Y144.383 E0.02763
G1 X225.235 Y145.198 E0.03359
G1 X224.508 Y145.839 E0.03038
G1 X223.691 Y146.387 E0.03085
G1 X222.808 Y146.822 E0.03085
G1 X221.927 Y147.121 E0.02918
G1 X221.116 Y147.289 E0.02596
G1 X220.007 Y147.377 E0.03489
G1 X29.950 Y147.377 E5.95909
G1 X29.003 Y147.309 E0.02980
G1 X27.955 Y147.085 E0.03358
G1 X27.035 Y146.751 E0.03068
G1 X25.626 Y145.937 E0.05103
G1 X24.805 Y145.237 E0.03382
G1 X24.161 Y144.508 E0.03049
G1 X23.613 Y143.691 E0.03085
G1 X23.178 Y142.808 E0.03085
G1 X22.839 Y141.758 E0.03462
G1 X22.684 Y140.947 E0.02588
G1 X22.623 Y140.018 E0.02918
G1 X22.626 Y69.882 E2.19908
G1 X22.693 Y68.991 E0.02801
G1 X22.906 Y68.003 E0.03170
G1 F8640.000
G1 X23.540 Y66.445 E-0.38831
G1 X24.070 Y65.617 E-0.22711
G1 X24.476 Y65.141 E-0.14458
G1 E-0.04000 F2100.00000
G1 Z0.800 F10800.000
G1 X141.602 Y138.616
G1 Z0.200
G1 E0.80000 F2100.00000
G1 F1200.000
G1 X141.879 Y138.220 E0.01513
G1 X142.220 Y137.879 E0.01513
G1 X142.616 Y137.602 E0.01513
G1 X143.053 Y137.398 E0.01513
G1 X143.519 Y137.273 E0.01513
G1 X143.955 Y137.235 E0.01373
G1 X144.472 Y137.271 E0.01625
G1 X144.947 Y137.398 E0.01541
G1 X145.384 Y137.602 E0.01513
G1 X145.780 Y137.879 E0.01513
G1 X146.121 Y138.220 E0.01513
G1 X146.398 Y138.616 E0.01513
G1 X146.602 Y139.053 E0.01513
G1 X146.727 Y139.519 E0.01513
G1 X146.769 Y140.000 E0.01513
G1 X146.727 Y140.481 E0.01513
G1 X146.602 Y140.947 E0.01513
G1 X146.398 Y141.384 E0.01513
G1 X146.121 Y141.780 E0.01513
G1 X145.780 Y142.121 E0.01513
G1 X145.384 Y142.398 E0.01513
G1 X144.947 Y142.602 E0.01513
G1 X144.481 Y142.727 E0.01513
G1 X144.000 Y142.769 E0.01513
G1 X143.519 Y142.727 E0.01513
G1 X143.053 Y142.602 E0.01513
G1 X142.616 Y142.398 E0.01513
G1 X142.220 Y142.121 E0.01513
G1 X141.879 Y141.780 E0.01513
G1 X141.602 Y141.384 E0.01513
G1 X141.398 Y140.947 E0.01513
G1 X141.273 Y140.481 E0.01513
G1 X141.231 Y140.000 E0.01513
G1 X141.273 Y139.519 E0.01513
G1 X141.398 Y139.053 E0.01513
G1 X141.577 Y138.670 E0.01325
G1 X141.919 Y138.829 F10800.000
G1 F1200.000
G1 X142.169 Y138.464 E0.01390
G1 X142.464 Y138.169 E0.01306
G1 X142.805 Y137.930 E0.01306
G1 X143.183 Y137.754 E0.01306
G1 X143.585 Y137.646 E0.01306
G1 X143.959 Y137.614 E0.01176
G1 X144.410 Y137.645 E0.01418
G1 X144.817 Y137.754 E0.01323
G1 X145.195 Y137.930 E0.01306
G1 X145.536 Y138.169 E0.01306
G1 X145.831 Y138.464 E0.01306
G1 X146.070 Y138.805 E0.01306
G1 X146.246 Y139.183 E0.01306
G1 X146.354 Y139.585 E0.01306
G1 X146.390 Y140.000 E0.01306
G1 X146.354 Y140.415 E0.01306
G1 X146.246 Y140.817 E0.01306
G1 X146.070 Y141.195 E0.01306
G1 X145.831 Y141.536 E0.01306
G1 X145.536 Y141.831 E0.01306
G1 X145.195 Y142.070 E0.01306
G1 X144.817 Y142.246 E0.01306
G1 X144.415 Y142.354 E0.01306
G1 X144.000 Y142.390 E0.01306
G1 X143.585 Y142.354 E0.01306
G1 X143.183 Y142.246 E0.01306
G1 X142.805 Y142.070 E0.01306
G1 X142.464 Y141.831 E0.01306
G1 X142.169 Y141.536 E0.01306
G1 X141.930 Y141.195 E0.01306
G1 X141.754 Y140.817 E0.01306
G1 X141.646 Y140.415 E0.01306
G1 X141.610 Y140.000 E0.01306
G1 X141.646 Y139.585 E0.01306
G1 X141.754 Y139.183 E0.01306
G1 X141.893 Y138.884 E0.01033
G1 X142.258 Y138.994 F10800.000
G1 F1200.000
G1 X142.459 Y138.707 E0.01099
G1 X142.707 Y138.459 E0.01099
G1 X142.994 Y138.258 E0.01099
G1 X143.312 Y138.110 E0.01099
G1 X143.651 Y138.019 E0.01099
G1 X143.962 Y137.992 E0.00980
G1 X144.347 Y138.019 E0.01211
G1 X144.688 Y138.110 E0.01105
G1 X145.006 Y138.258 E0.01099
G1 X145.293 Y138.459 E0.01099
G1 X145.541 Y138.707 E0.01099
G1 X145.742 Y138.994 E0.01099
G1 X145.890 Y139.312 E0.01099
G1 X145.981 Y139.651 E0.01099
G1 X146.012 Y140.000 E0.01099
G1 X145.981 Y140.349 E0.01099
G1 X145.890 Y140.688 E0.01099
G1 X145.742 Y141.006 E0.01099
G1 X145.541 Y141.293 E0.01099
G1 X145.293 Y141.541 E0.01099
G1 X145.006 Y141.742 E0.01099
G1 X144.688 Y141.890 E0.01099
G1 X144.349 Y141.981 E0.01099
G1 X144.000 Y142.012 E0.01099
G1 X143.651 Y141.981 E0.01099
G1 X143.312 Y141.890 E0.01099
G1 X142.994 Y141.742 E0.01099
G1 X142.707 Y141.541 E0.01099
G1 X142.459 Y141.293 E0.01099
G1 X142.258 Y141.006 E0.01099
G1 X142.110 Y140.688 E0.01099
G1 X142.019 Y140.349 E0.01099
G1 X141.988 Y140.000 E0.01099
G1 X142.019 Y139.651 E0.01099
G1 X142.110 Y139.312 E0.01099
G1 X142.233 Y139.049 E0.00911
G1 X142.083 Y138.691 F10800.000
G1 F8640.000
G1 X142.459 Y138.707 E-0.09464
G1 X142.707 Y138.459 E-0.08096
G1 X142.994 Y138.258 E-0.08096
G1 X143.312 Y138.110 E-0.08096
G1 X143.651 Y138.019 E-0.08096
G1 X143.962 Y137.992 E-0.07219
G1 X144.347 Y138.019 E-0.08918
G1 X144.688 Y138.110 E-0.08140
G1 X145.006 Y138.258 E-0.08096
G1 X145.069 Y138.302 E-0.01777
G1 E-0.04000 F2100.00000
G1 Z0.800 F10800.000
G1 X108.769 Y140.000
G1 Z0.200
G1 E0.80000 F2100.00000
G1 F1200.000
G1 X108.727 Y140.481 E0.01513
G1 X108.602 Y140.947 E0.01513
G1 X108.398 Y141.384 E0.01513
G1 X108.121 Y141.780 E0.01513
G1 X107.780 Y142.121 E0.01513
G1 X107.384 Y142.398 E0.01513
G1 X106.947 Y142.602 E0.01513
G1 X106.481 Y142.727 E0.01513
G1 X106.000 Y142.769 E0.01513
G1 X105.519 Y142.727 E0.01513
G1 X105.053 Y142.602 E0.01513
G1 X104.616 Y142.398 E0.01513
G1 X104.220 Y142.121 E0.01513
G1 X103.879 Y141.780 E0.01513
G1 X103.602 Y141.384 E0.01513
G1 X103.398 Y140.947 E0.01513
G1 X103.273 Y140.481 E0.01513
G1 X103.231 Y140.000 E0.01513
G1 X103.273 Y139.519 E0.01513
G1 X103.398 Y139.053 E0.01513
G1 X103.602 Y138.616 E0.01513
G1 X103.879 Y138.220 E0.01513
G1 X104.220 Y137.879 E0.01513
G1 X104.616 Y137.602 E0.01513
G1 X105.053 Y137.398 E0.01513
G1 X105.519 Y137.273 E0.01513
G1 X105.955 Y137.235 E0.01373
G1 X106.472 Y137.271 E0.01625
G1 X106.947 Y137.398 E0.01541
G1 X107.384 Y137.602 E0.01513
G1 X107.780 Y137.879 E0.01513
G1 X108.121 Y138.220 E0.01513
G1 X108.398 Y138.616 E0.01513
G1 X108.602 Y139.053 E0.01513
G1 X108.727 Y139.519 E0.01513
G1 X108.763 Y139.940 E0.01325
G1 X108.388 Y139.973 F10800.000
G1 F1200.000
G1 X108.354 Y140.415 E0.01390
G1 X108.246 Y140.817 E0.01306
G1 X108.070 Y141.195 E0.01306
G1 X107.831 Y141.536 E0.01306
G1 X107.536 Y141.831 E0.01306
G1 X107.195 Y142.070 E0.01306
G1 X106.817 Y142.246 E0.01306
G1 X106.415 Y142.354 E0.01306
G1 X106.000 Y142.390 E0.01306
G1 X105.585 Y142.354 E0.01306
G1 X105.183 Y142.246 E0.01306
G1 X104.805 Y142.070 E0.01306
G1 X104.464 Y141.831 E0.01306
G1 X104.169 Y141.536 E0.01306
G1 X103.930 Y141.195 E0.01306
G1 X103.754 Y140.817 E0.01306
G1 X103.646 Y140.415 E0.01306
G1 X103.610 Y140.000 E0.01306
G1 X103.646 Y139.585 E0.01306
G1 X103.754 Y139.183 E0.01306
G1 X103.930 Y138.805 E0.01306
G1 X104.169 Y138.464 E0.01306
G1 X104.464 Y138.169 E0.01306
G1 X104.805 Y137.930 E0.01306
G1 X105.183 Y137.754 E0.01306
G1 X105.585 Y137.646 E0.01306
G1 X105.959 Y137.614 E0.01176
G1 X106.410 Y137.645 E0.01418
G1 X106.817 Y137.754 E0.01323
G1 X107.195 Y137.930 E0.01306
G1 X107.536 Y138.169 E0.01306
G1 X107.831 Y138.464 E0.01306
G1 X108.070 Y138.805 E0.01306
G1 X108.246 Y139.183 E0.01306
G1 X108.354 Y139.585 E0.01306
G1 X108.382 Y139.913 E0.01033
G1 X108.012 Y140.000 F10800.000
G1 F1200.000
G1 X107.981 Y140.349 E0.01099
G1 X107.890 Y140.688 E0.01099
G1 X107.742 Y141.006 E0.01099
G1 X107.541 Y141.293 E0.01099
G1 X107.293 Y141.541 E0.01099
G1 X107.006 Y141.742 E0.01099
G1 X106.688 Y141.890 E0.01099
G1 X106.349 Y141.981 E0.01099
G1 X106.000 Y142.012 E0.01099
G1 X105.651 Y141.981 E0.01099
G1 X105.312 Y141.890 E0.01099
G1 X104.994 Y141.742 E0.01099
G1 X104.707 Y141.541 E0.01099
G1 X104.459 Y141.293 E0.01099
G1 X104.258 Y141.006 E0.01099
G1 X104.110 Y140.688 E0.01099
G1 X104.019 Y140.349 E0.01099
G1 X103.988 Y140.000 E0.01099
G1 X104.019 Y139.651 E0.01099
G1 X104.110 Y139.312 E0.01099
G1 X104.258 Y138.994 E0.01099
G1 X104.459 Y138.707 E0.01099
G1 X104.707 Y138.459 E0.01099
G1 X104.994 Y138.258 E0.01099
G1 X105.312 Y138.110 E0.01099
G1 X105.651 Y138.019 E0.01099
G1 X105.962 Y137.992 E0.00980
G1 X106.347 Y138.019 E0.01211
G1 X106.688 Y138.110 E0.01105
G1 X107.006 Y138.258 E0.01099
G1 X107.293 Y138.459 E0.01099
G1 X107.541 Y138.707 E0.01099
G1 X107.742 Y138.994 E0.01099
G1 X107.890 Y139.312 E0.01099
G1 X107.981 Y139.651 E0.01099
G1 X108.006 Y139.940 E0.00911
G1 X108.315 Y140.175 F10800.000
G1 F8640.000
G1 X107.981 Y140.349 E-0.09464
G1 X107.890 Y140.688 E-0.08096
G1 X107.742 Y141.006 E-0.08096
G1 X107.541 Y141.293 E-0.08096
G1 X107.293 Y141.541 E-0.08096
G1 X107.006 Y141.742 E-0.08096
G1 X106.688 Y141.890 E-0.08096
G1 X106.349 Y141.981 E-0.08096
G1 X106.000 Y142.012 E-0.08096
G1 X105.924 Y142.005 E-0.01766
G1 E-0.04000 F2100.00000
G1 Z0.800 F10800.000
G1 X70.769 Y140.000
G1 Z0.200
G1 E0.80000 F2100.00000
G1 F1200.000
G1 X70.727 Y140.481 E0.01513
G1 X70.602 Y140.947 E0.01513
G1 X70.398 Y141.384 E0.01513
G1 X70.121 Y141.780 E0.01513
G1 X69.780 Y142.121 E0.01513
G1 X69.384 Y142.398 E0.01513
G1 X68.947 Y142.602 E0.01513
G1 X68.481 Y142.727 E0.01513
G1 X68.000 Y142.769 E0.01513
G1 X67.519 Y142.727 E0.01513
G1 X67.053 Y142.602 E0.01513
G1 X66.616 Y142.398 E0.01513
G1 X66.220 Y142.121 E0.01513
G1 X65.879 Y141.780 E0.01513
G1 X65.602 Y141.384 E0.01513
G1 X65.398 Y140.947 E0.01513
G1 X65.273 Y140.481 E0.01513
G1 X65.231 Y140.000 E0.01513
G1 X65.273 Y139.519 E0.01513
G1 X65.398 Y139.053 E0.01513
G1 X65.602 Y138.616 E0.01513
G1 X65.879 Y138.220 E0.01513
G1 X66.220 Y137.879 E0.01513
G1 X66.616 Y137.602 E0.01513
G1 X67.053 Y137.398 E0.01513
G1 X67.519 Y137.273 E0.01513
G1 X67.955 Y137.235 E0.01373
G1 X68.472 Y137.271 E0.01625
G1 X68.947 Y137.398 E0.01541
G1 X69.384 Y137.602 E0.01513
G1 X69.780 Y137.879 E0.01513
G1 X70.121 Y138.220 E0.01513
G1 X70.398 Y138.616 E0.01513
G1 X70.602 Y139.053 E0.01513
G1 X70.727 Y139.519 E0.01513
G1 X70.763 Y139.940 E0.01325
G1 X70.388 Y139.973 F10800.000
G1 F1200.000
G1 X70.354 Y140.415 E0.01390
G1 X70.246 Y140.817 E0.01306
G1 X70.070 Y141.195 E0.01306
G1 X69.831 Y141.536 E0.01306
G1 X69.536 Y141.831 E0.01306
G1 X69.195 Y142.070 E0.01306
G1 X68.817 Y142.246 E0.01306
G1 X68.415 Y142.354 E0.01306
G1 X68.000 Y142.390 E0.01306
G1 X67.585 Y142.354 E0.01306
G1 X67.183 Y142.246 E0.01306
G1 X66.805 Y142.070 E0.01306
G1 X66.464 Y141.831 E0.01306
G1 X66.169 Y141.536 E0.01306
G1 X65.930 Y141.195 E0.01306
G1 X65.754 Y140.817 E0.01306
G1 X65.646 Y140.415 E0.01306
G1 X65.610 Y140.000 E0.01306
G1 X65.646 Y139.585 E0.01306
G1 X65.754 Y139.183 E0.01306
G1 X65.930 Y138.805 E0.01306
G1 X66.169 Y138.464 E0.01306
G1 X66.464 Y138.169 E0.01306
G1 X66.805 Y137.930 E0.01306
G1 X67.183 Y137.754 E0.01306
G1 X67.585 Y137.646 E0.01306
G1 X67.959 Y137.614 E0.01176
G1 X68.410 Y137.645 E0.01418
G1 X68.817 Y137.754 E0.01323
G1 X69.195 Y137.930 E0.01306
G1 X69.536 Y138.169 E0.01306
G1 X69.831 Y138.464 E0.01306
G1 X70.070 Y138.805 E0.01306
G1 X70.246 Y139.183 E0.01306
G1 X70.354 Y139.585 E0.01306
G1 X70.382 Y139.913 E0.01033
G1 X70.012 Y140.000 F10800.000
G1 F1200.000
G1 X69.981 Y140.349 E0.01099
G1 X69.890 Y140.688 E0.01099
G1 X69.742 Y141.006 E0.01099
G1 X69.541 Y141.293 E0.01099
G1 X69.293 Y141.541 E0.01099
G1 X69.006 Y141.742 E0.01099
G1 X68.688 Y141.890 E0.01099
G1 X68.349 Y141.981 E0.01099
G1 X68.000 Y142.012 E0.01099
G1 X67.651 Y141.981 E0.01099
G1 X67.312 Y141.890 E0.01099
G1 X66.994 Y141.742 E0.01099
G1 X66.707 Y141.541 E0.01099
G1 X66.459 Y141.293 E0.01099
G1 X66.258 Y141.006 E0.01099
G1 X66.110 Y140.688 E0.01099
G1 X66.019 Y140.349 E0.01099
G1 X65.988 Y140.000 E0.01099
G1 X66.019 Y139.651 E0.01099
G1 X66.110 Y139.312 E0.01099
G1 X66.258 Y138.994 E0.01099
G1 X66.459 Y138.707 E0.01099
G1 X66.707 Y138.459 E0.01099
G1 X66.994 Y138.258 E0.01099
G1 X67.312 Y138.110 E0.01099
G1 X67.651 Y138.019 E0.01099
G1 X67.962 Y137.992 E0.00980
G1 X68.347 Y138.019 E0.01211
G1 X68.688 Y138.110 E0.01105
G1 X69.006 Y138.258 E0.01099
G1 X69.293 Y138.459 E0.01099
G1 X69.541 Y138.707 E0.01099
G1 X69.742 Y138.994 E0.01099
G1 X69.890 Y139.312 E0.01099
G1 X69.981 Y139.651 E0.01099
G1 X70.006 Y139.940 E0.00911
G1 X70.315 Y140.175 F10800.000
G1 F8640.000
G1 X69.981 Y140.349 E-0.09464
G1 X69.890 Y140.688 E-0.08096
G1 X69.742 Y141.006 E-0.08096
G1 X69.541 Y141.293 E-0.08096
G1 X69.293 Y141.541 E-0.08096
G1 X69.006 Y141.742 E-0.08096
G1 X68.688 Y141.890 E-0.08096
G1 X68.349 Y141.981 E-0.08096
G1 X68.000 Y142.012 E-0.08096
G1 X67.924 Y142.005 E-0.01766
G1 E-0.04000 F2100.00000
G1 Z0.800 F10800.000
G1 X32.769 Y140.000
G1 Z0.200
G1 E0.80000 F2100.00000
G1 F1200.000
G1 X32.727 Y140.481 E0.01513
G1 X32.602 Y140.947 E0.01513
G1 X32.398 Y141.384 E0.01513
G1 X32.121 Y141.780 E0.01513
G1 X31.780 Y142.121 E0.01513
G1 X31.384 Y142.398 E0.01513
G1 X30.947 Y142.602 E0.01513
G1 X30.481 Y142.727 E0.01513
G1 X30.000 Y142.769 E0.01513
G1 X29.519 Y142.727 E0.01513
G1 X29.053 Y142.602 E0.01513
G1 X28.616 Y142.398 E0.01513
G1 X28.220 Y142.121 E0.01513
G1 X27.879 Y141.780 E0.01513
G1 X27.602 Y141.384 E0.01513
G1 X27.398 Y140.947 E0.01513
G1 X27.273 Y140.481 E0.01513
G1 X27.231 Y140.000 E0.01513
G1 X27.273 Y139.519 E0.01513
G1 X27.398 Y139.053 E0.01513
G1 X27.602 Y138.616 E0.01513
G1 X27.879 Y138.220 E0.01513
G1 X28.220 Y137.879 E0.01513
G1 X28.616 Y137.602 E0.01513
G1 X29.053 Y137.398 E0.01513
G1 X29.519 Y137.273 E0.01513
G1 X29.955 Y137.235 E0.01373
G1 X30.472 Y137.271 E0.01625
G1 X30.947 Y137.398 E0.01541
G1 X31.384 Y137.602 E0.01513
G1 X31.780 Y137.879 E0.01513
G1 X32.121 Y138.220 E0.01513
G1 X32.398 Y138.616 E0.01513
G1 X32.602 Y139.053 E0.01513
G1 X32.727 Y139.519 E0.01513
G1 X32.763 Y139.940 E0.01325
G1 X32.388 Y139.973 F10800.000
G1 F1200.000
G1 X32.354 Y140.415 E0.01390
G1 X32.246 Y140.817 E0.01306
G1 X32.070 Y141.195 E0.01306
G1 X31.831 Y141.536 E0.01306
G1 X31.536 Y141.831 E0.01306
G1 X31.195 Y142.070 E0.01306
G1 X30.817 Y142.246 E0.01306
G1 X30.415 Y142.354 E0.01306
G1 X30.000 Y142.390 E0.01306
G1 X29.585 Y142.354 E0.01306
G1 X29.183 Y142.246 E0.01306
