; generated by PrusaSlicer 2.3.0+win64 on 2021-02-16 at 19:32:58 UTC

; 

; external perimeters extrusion width = 0.45mm
; perimeters extrusion width = 0.45mm
; infill extrusion width = 0.45mm
; solid infill extrusion width = 0.45mm
; top infill extrusion width = 0.40mm
; first layer extrusion width = 0.42mm

M73 P0 R33
M73 Q0 S34
M201 X1000 Y1000 Z200 E5000 ; sets maximum accelerations, mm/sec^2
M203 X200 Y200 Z12 E120 ; sets maximum feedrates, mm/sec
M204 P1250 R1250 T1250 ; sets acceleration (P, T) and retract acceleration (R), mm/sec^2
M205 X8.00 Y8.00 Z0.40 E4.50 ; sets the jerk limits, mm/sec
M205 S0 T0 ; sets the minimum extruding and travel feed rate, mm/sec
M107
;TYPE:Custom
M862.3 P "MK3S" ; printer model check
M862.1 P0.4 ; nozzle diameter check
M115 U3.9.3 ; tell printer latest fw version
G90 ; use absolute coordinates
M83 ; extruder relative mode
M104 S240 ; set extruder temp
M140 S85 ; set bed temp
M190 S85 ; wait for bed temp
M109 S240 ; wait for extruder temp
G28 W ; home all without mesh bed level
G80 ; mesh bed leveling
G1 Y-3.0 F1000.0 ; go outside print area
G92 E0.0
G1 X60.0 E9.0 F1000.0 ; intro line
M73 Q0 S33
G1 X100.0 E12.5 F1000.0 ; intro line
G92 E0.0
M221 S95

; Don't change E values below. Excessive value can damage the printer.
M907 E430 ; set extruder motor current
G21 ; set units to millimeters
G90 ; use absolute coordinates
M83 ; use relative distances for extrusion
M900 K0.08 ; Filament gcode LA 1.5
M900 K45 ; Filament gcode LA 1.0
;LAYER_CHANGE
;Z:0.2
;HEIGHT:0.2
;BEFORE_LAYER_CHANGE
G92 E0.0
;0.2


G1 E-1.40000 F2100.000
G1 Z0.200 F10800.000
;AFTER_LAYER_CHANGE
;0.2
G1 Z0.400
G1 X104.297 Y99.890
G1 Z0.200
G1 E1.40000 F2100.000
M204 S1000
;TYPE:Skirt
;WIDTH:0.42
G1 F1200.000
G1 X104.846 Y99.340 E0.02435
G1 X105.416 Y98.956 E0.02154
G1 X106.128 Y98.658 E0.02420
G1 X106.810 Y98.518 E0.02185
G1 X142.788 Y98.496 E1.12804
G1 X143.867 Y98.657 E0.03423
G1 X144.917 Y99.161 E0.03650
G1 X145.714 Y99.903 E0.03414
G1 X146.263 Y100.845 E0.03418
G1 X146.526 Y101.967 E0.03615
G1 X146.447 Y103.070 E0.03468
G1 X146.056 Y104.087 E0.03416
G1 X145.328 Y105.010 E0.03687
G1 X144.212 Y105.810 E0.04304
G1 X142.109 Y107.074 E0.07695
G1 X139.964 Y108.171 E0.07553
G1 X137.716 Y109.131 E0.07663
G1 X135.416 Y109.930 E0.07637
G1 X133.093 Y110.562 E0.07547
G1 X131.439 Y110.911 E0.05300
G1 X129.026 Y111.273 E0.07650
G1 X126.658 Y111.465 E0.07451
G1 X124.999 Y111.504 E0.05203
G1 X123.344 Y111.465 E0.05190
G1 X120.974 Y111.273 E0.07457
G1 X117.701 Y110.740 E0.10397
G1 X115.394 Y110.170 E0.07450
G1 X113.801 Y109.678 E0.05229
G1 X111.523 Y108.826 E0.07624
G1 X109.302 Y107.816 E0.07650
G1 X107.156 Y106.655 E0.07650
G1 X105.096 Y105.348 E0.07650
G1 X104.475 Y104.814 E0.02570
G1 X103.996 Y104.176 E0.02501
G1 X103.660 Y103.450 E0.02509
G1 X103.481 Y102.623 E0.02652
G1 X103.476 Y101.939 E0.02146
G1 X103.621 Y101.172 E0.02447
G1 X103.871 Y100.550 E0.02103
G1 X104.265 Y99.940 E0.02275
;WIPE_START
G1 F8640.000
G1 X104.846 Y99.340 E-0.19290
G1 X105.416 Y98.956 E-0.15861
G1 X106.128 Y98.658 E-0.17819
G1 X106.810 Y98.518 E-0.16090
G1 X109.579 Y98.516 E-0.63939
;WIPE_END
G1 E-0.07000 F2100.000
G1 Z0.400 F10800.000
G1 X103.987 Y101.264
G1 Z0.200
G1 E1.40000 F2100.000
G1 F1200.000
G1 X104.264 Y100.613 E0.02219
G1 X104.599 Y100.116 E0.01878
G1 X105.094 Y99.624 E0.02189
G1 X105.608 Y99.281 E0.01939
G1 X106.254 Y99.014 E0.02190
G1 X106.872 Y98.891 E0.01976
G1 X142.787 Y98.873 E1.12609
G1 X143.773 Y99.022 E0.03127
G1 X144.747 Y99.503 E0.03405
G1 X145.460 Y100.192 E0.03109
G1 X145.966 Y101.123 E0.03324
G1 X146.157 Y102.103 E0.03132
G1 X146.053 Y103.092 E0.03118
G1 X145.630 Y104.066 E0.03330
G1 X144.954 Y104.837 E0.03212
G1 X143.335 Y105.919 E0.06105
G1 X141.236 Y107.117 E0.07580
G1 X139.073 Y108.162 E0.07532
G1 X136.843 Y109.055 E0.07532
G1 X134.560 Y109.791 E0.07520
G1 X132.949 Y110.209 E0.05218
G1 X130.609 Y110.673 E0.07480
G1 X128.219 Y110.978 E0.07556
G1 X124.973 Y111.127 E0.10189
G1 X122.615 Y111.045 E0.07396
G1 X120.986 Y110.895 E0.05129
G1 X119.364 Y110.669 E0.05134
G1 X117.051 Y110.209 E0.07396
G1 X113.908 Y109.316 E0.10244
G1 X111.669 Y108.479 E0.07496
G1 X109.472 Y107.479 E0.07568
G1 X107.349 Y106.331 E0.07568
G1 X105.326 Y105.049 E0.07508
G1 X104.757 Y104.563 E0.02346
G1 X104.319 Y103.983 E0.02281
G1 X104.011 Y103.312 E0.02315
G1 X103.854 Y102.562 E0.02400
G1 X103.853 Y101.953 E0.01910
G1 X103.975 Y101.323 E0.02012
; printing object CapoHolder.stl id:0 copy 0
;WIPE_START
G1 F8640.000
G1 X104.264 Y100.613 E-0.17697
G1 X104.599 Y100.116 E-0.13833
G1 X105.094 Y99.624 E-0.16122
G1 X105.608 Y99.281 E-0.14282
G1 X106.254 Y99.014 E-0.16126
G1 X106.872 Y98.891 E-0.14553
G1 X108.621 Y98.890 E-0.40386
;WIPE_END
G1 E-0.07000 F2100.000
G1 Z0.400 F10800.000
G1 X107.020 Y102.176
G1 Z0.200
G1 E1.40000 F2100.000
;TYPE:Perimeter
G1 F1200.000
G1 X107.107 Y102.070 E0.00429
G1 X107.191 Y102.044 E0.00277
G1 X112.190 Y102.026 E0.15675
G1 X112.761 Y101.962 E0.01799
G1 X113.117 Y101.865 E0.01159
G1 X113.042 Y102.435 E0.01800
G1 X113.028 Y105.519 E0.09672
G1 X136.972 Y105.519 E0.75075
G1 X136.958 Y102.435 E0.09672
G1 X136.883 Y101.865 E0.01800
G1 X137.239 Y101.962 E0.01159
G1 X137.805 Y102.026 E0.01783
G1 X142.823 Y102.044 E0.15735
M73 Q1 S33
G1 X142.897 Y102.073 E0.00250
G1 X142.945 Y102.119 E0.00207
G1 X142.980 Y102.176 E0.00209
G1 X142.991 Y102.241 E0.00207
G1 X142.986 Y102.306 E0.00207
G1 X142.956 Y102.366 E0.00207
G1 X142.891 Y102.434 E0.00297
G1 X141.674 Y103.225 E0.04550
M73 P1 R33
G1 X141.053 Y103.600 E0.02273
G1 X139.772 Y104.312 E0.04599
G1 X138.461 Y104.964 E0.04588
G1 X137.119 Y105.556 E0.04599
G1 X136.446 Y105.825 E0.02273
G1 X135.063 Y106.324 E0.04609
G1 X134.373 Y106.546 E0.02273
G1 X132.959 Y106.948 E0.04609
G1 X132.256 Y107.122 E0.02273
G1 X130.820 Y107.424 E0.04599
G1 X129.376 Y107.659 E0.04588
G1 X127.923 Y107.828 E0.04588
G1 X126.460 Y107.929 E0.04599
G1 X125.003 Y107.963 E0.04567
G1 X123.537 Y107.929 E0.04599
G1 X122.077 Y107.828 E0.04588
G1 X120.624 Y107.659 E0.04588
G1 X119.180 Y107.424 E0.04588
G1 X117.748 Y107.122 E0.04588
G1 X116.331 Y106.755 E0.04588
G1 X114.933 Y106.323 E0.04588
G1 X113.557 Y105.826 E0.04588
G1 X112.205 Y105.267 E0.04588
G1 X110.880 Y104.646 E0.04588
G1 X109.585 Y103.964 E0.04588
G1 X108.323 Y103.224 E0.04588
G1 X107.109 Y102.434 E0.04539
G1 X107.020 Y102.319 E0.00456
G1 X107.010 Y102.235 E0.00266
;WIPE_START
G1 F8640.000
G1 X107.107 Y102.070 E-0.04417
G1 X107.191 Y102.044 E-0.02040
G1 X112.190 Y102.026 E-1.15433
G1 X112.669 Y101.972 E-0.11110
;WIPE_END
G1 E-0.07000 F2100.000
G1 Z0.400 F10800.000
G1 X113.407 Y105.142
G1 Z0.200
G1 E1.40000 F2100.000
;TYPE:External perimeter
G1 F1200.000
G1 X136.593 Y105.142 E0.72700
G1 X136.582 Y102.459 E0.08415
G1 X136.522 Y101.977 E0.01522
G1 X136.370 Y101.460 E0.01690
G1 X136.828 Y101.460 E0.01437
G1 X137.310 Y101.591 E0.01567
G1 X137.830 Y101.649 E0.01639
G1 X142.864 Y101.667 E0.15786
G1 X143.076 Y101.739 E0.00701
G1 X143.240 Y101.880 E0.00678
G1 X143.322 Y102.012 E0.00490
G1 X143.371 Y102.223 E0.00679
G1 X143.358 Y102.378 E0.00487
G1 X143.272 Y102.577 E0.00680
G1 X143.110 Y102.741 E0.00724
G1 X141.874 Y103.545 E0.04622
G1 X141.242 Y103.926 E0.02314
G1 X139.947 Y104.646 E0.04646
G1 X138.621 Y105.305 E0.04643
G1 X137.265 Y105.903 E0.04646
G1 X136.580 Y106.178 E0.02314
G1 X135.185 Y106.681 E0.04650
G1 X134.483 Y106.907 E0.02314
G1 X133.056 Y107.312 E0.04650
G1 X132.340 Y107.489 E0.02314
G1 X130.890 Y107.795 E0.04646
G1 X129.428 Y108.033 E0.04643
G1 X127.957 Y108.203 E0.04643
G1 X126.479 Y108.306 E0.04646
G1 X125.001 Y108.340 E0.04635
G1 X123.520 Y108.306 E0.04646
G1 X122.043 Y108.203 E0.04643
G1 X120.572 Y108.033 E0.04643
G1 X119.110 Y107.795 E0.04643
G1 X117.661 Y107.490 E0.04643
G1 X116.228 Y107.118 E0.04643
G1 X114.814 Y106.680 E0.04643
G1 X113.421 Y106.178 E0.04643
G1 X112.053 Y105.612 E0.04643
G1 X110.712 Y104.984 E0.04643
G1 X109.402 Y104.294 E0.04643
G1 X108.125 Y103.544 E0.04643
G1 X106.830 Y102.694 E0.04857
G1 X106.728 Y102.577 E0.00487
G1 X106.662 Y102.444 E0.00465
G1 X106.628 Y102.230 E0.00680
G1 X106.678 Y102.012 E0.00700
G1 X106.760 Y101.880 E0.00490
G1 X106.872 Y101.772 E0.00488
G1 X106.992 Y101.706 E0.00427
G1 X107.142 Y101.667 E0.00489
G1 X112.169 Y101.649 E0.15759
G1 X112.690 Y101.591 E0.01645
G1 X113.172 Y101.460 E0.01567
G1 X113.630 Y101.460 E0.01437
G1 X113.478 Y101.977 E0.01690
G1 X113.418 Y102.459 E0.01522
G1 X113.407 Y105.082 E0.08227
G1 X113.404 Y105.542 F10800.000
G1 X113.904 Y105.729
;TYPE:Gap fill
;WIDTH:0.1365
G1 F1200.000
G1 X114.059 Y105.756 E0.00122
;WIDTH:0.17968
G1 X114.214 Y105.783 E0.00179
;WIDTH:0.222859
G1 X114.368 Y105.810 E0.00235
;WIDTH:0.266039
G1 X114.523 Y105.837 E0.00291
;WIDTH:0.309218
G1 X114.678 Y105.864 E0.00348
;WIPE_START
G1 F8640.000
G1 X114.523 Y105.837 E-0.03626
;WIPE_END
G1 E-1.36374 F2100.000
G1 Z0.400 F10800.000
G1 X112.294 Y102.128
G1 Z0.200
G1 E1.40000 F2100.000
;TYPE:Solid infill
;WIDTH:0.441657
G1 F1200.000
G1 X112.758 Y102.592 E0.02175
G1 X112.756 Y103.154 E0.01861
G1 X111.912 Y102.310 E0.03956
G1 X111.350 Y102.312 E0.01863
G1 X112.753 Y103.715 E0.06579
G1 X112.751 Y104.276 E0.01861
G1 X110.788 Y102.314 E0.09202
G1 X110.226 Y102.316 E0.01863
G1 X112.748 Y104.838 E0.11826
G1 X112.747 Y105.185 E0.01151
G1 X112.380 Y105.033 E0.01317
G1 X109.664 Y102.318 E0.12732
G1 X109.102 Y102.320 E0.01863
G1 X111.324 Y104.542 E0.10419
G1 X110.172 Y103.954 E0.04288
G1 X108.540 Y102.322 E0.07653
G1 X107.978 Y102.324 E0.01863
G1 X109.350 Y103.695 E0.06430
;WIPE_START
G1 F8640.000
G1 X107.978 Y102.324 E-0.44779
G1 X108.540 Y102.322 E-0.12975
G1 X110.172 Y103.954 E-0.53297
G1 X111.019 Y104.386 E-0.21949
;WIPE_END
G1 E-0.07000 F2100.000
G1 Z0.400 F10800.000
G1 X134.394 Y105.633
G1 Z0.200
G1 E1.40000 F2100.000
;WIDTH:0.423528
G1 F1200.000
G1 X134.855 Y106.094 E0.02064
G1 X134.448 Y106.225 E0.01354
G1 X134.026 Y105.802 E0.01891
G1 X133.487 Y105.802 E0.01703
G1 X134.034 Y106.348 E0.02445
G1 X133.615 Y106.468 E0.01379
G1 X132.949 Y105.802 E0.02978
G1 X132.411 Y105.802 E0.01703
G1 X133.195 Y106.587 E0.03511
G1 X132.773 Y106.703 E0.01386
G1 X131.873 Y105.802 E0.04029
G1 X131.334 Y105.802 E0.01703
G1 X132.341 Y106.809 E0.04507
G1 X131.901 Y106.907 E0.01427
G1 X130.796 Y105.802 E0.04946
G1 X130.258 Y105.802 E0.01703
G1 X131.457 Y107.001 E0.05365
G1 X131.012 Y107.095 E0.01438
G1 X129.720 Y105.802 E0.05785
G1 X129.181 Y105.802 E0.01703
G1 X130.559 Y107.180 E0.06167
G1 X130.096 Y107.255 E0.01484
G1 X128.643 Y105.802 E0.06504
G1 X128.105 Y105.802 E0.01703
G1 X129.634 Y107.331 E0.06842
G1 X129.164 Y107.399 E0.01503
G1 X127.567 Y105.802 E0.07148
G1 X127.028 Y105.802 E0.01703
G1 X128.681 Y107.455 E0.07398
G1 X128.199 Y107.511 E0.01537
G1 X126.490 Y105.802 E0.07648
G1 X125.952 Y105.802 E0.01703
G1 X127.709 Y107.559 E0.07863
G1 X127.205 Y107.594 E0.01597
G1 X125.414 Y105.802 E0.08020
G1 X124.875 Y105.802 E0.01703
G1 X126.702 Y107.629 E0.08176
G1 X126.446 Y107.647 E0.00811
G1 X126.187 Y107.653 E0.00820
G1 X124.337 Y105.802 E0.08282
G1 X123.799 Y105.802 E0.01703
G1 X125.661 Y107.665 E0.08336
G1 X125.135 Y107.677 E0.01665
G1 X123.260 Y105.802 E0.08390
G1 X122.722 Y105.802 E0.01703
G1 X124.590 Y107.670 E0.08361
G1 X124.039 Y107.658 E0.01744
G1 X122.184 Y105.802 E0.08305
G1 X121.646 Y105.802 E0.01703
G1 X123.485 Y107.642 E0.08234
G1 X122.907 Y107.602 E0.01835
G1 X121.107 Y105.802 E0.08054
G1 X120.569 Y105.802 E0.01703
G1 X122.329 Y107.562 E0.07875
G1 X121.732 Y107.503 E0.01898
G1 X120.031 Y105.802 E0.07612
G1 X119.493 Y105.802 E0.01703
G1 X121.123 Y107.433 E0.07297
G1 X120.506 Y107.354 E0.01969
G1 X118.954 Y105.802 E0.06943
G1 X118.416 Y105.802 E0.01703
G1 X119.863 Y107.249 E0.06475
G1 X119.219 Y107.143 E0.02064
G1 X117.878 Y105.802 E0.06002
G1 X117.340 Y105.802 E0.01703
G1 X118.537 Y107.000 E0.05359
G1 X117.855 Y106.856 E0.02206
G1 X116.801 Y105.802 E0.04716
G1 X116.263 Y105.802 E0.01703
G1 X117.131 Y106.670 E0.03885
G1 X116.404 Y106.481 E0.02377
G1 X115.725 Y105.802 E0.03040
G1 X115.187 Y105.802 E0.01703
G1 X115.882 Y106.498 E0.03112
;WIPE_START
G1 F8640.000
G1 X115.187 Y105.802 E-0.22706
G1 X115.725 Y105.802 E-0.12429
G1 X116.404 Y106.481 E-0.22180
G1 X117.131 Y106.670 E-0.17346
G1 X116.263 Y105.802 E-0.28346
G1 X116.801 Y105.802 E-0.12429
G1 X117.339 Y106.340 E-0.17565
;WIPE_END
G1 E-0.07000 F2100.000
G1 Z0.400 F10800.000
G1 X135.322 Y105.864
G1 Z0.200
G1 E1.40000 F2100.000
;TYPE:Gap fill
;WIDTH:0.266039
G1 F1200.000
G1 X135.632 Y105.810 E0.00583
;WIDTH:0.1365
G1 X136.096 Y105.729 E0.00367
;WIPE_START
G1 F8640.000
G1 X135.632 Y105.810 E-0.10880
;WIPE_END
G1 E-1.29120 F2100.000
G1 Z0.400 F10800.000
G1 X142.239 Y102.156
G1 Z0.200
G1 E1.40000 F2100.000
;TYPE:Solid infill
;WIDTH:0.430384
G1 F1200.000
G1 X142.460 Y102.377 E0.01007
G1 X142.128 Y102.593 E0.01276
G1 X141.860 Y102.325 E0.01220
G1 X141.311 Y102.324 E0.01768
G1 X141.796 Y102.809 E0.02209
G1 X141.462 Y103.023 E0.01278
G1 X140.762 Y102.323 E0.03189
G1 X140.214 Y102.322 E0.01768
G1 X141.120 Y103.229 E0.04131
G1 X140.774 Y103.431 E0.01291
G1 X139.665 Y102.321 E0.05056
G1 X139.116 Y102.320 E0.01768
G1 X140.422 Y103.627 E0.05952
G1 X140.070 Y103.823 E0.01298
G1 X138.567 Y102.320 E0.06849
G1 X138.012 Y102.313 E0.01788
G1 X139.718 Y104.019 E0.07772
G1 X139.355 Y104.204 E0.01312
G1 X137.418 Y102.267 E0.08825
G1 X137.218 Y102.244 E0.00648
G1 X137.242 Y102.639 E0.01273
G1 X138.989 Y104.386 E0.07960
G1 X138.623 Y104.568 E0.01317
G1 X137.245 Y103.189 E0.06282
G1 X137.247 Y103.739 E0.01773
G1 X138.254 Y104.746 E0.04588
G1 X137.874 Y104.914 E0.01339
G1 X137.249 Y104.290 E0.02845
G1 X137.252 Y104.840 E0.01773
G1 X137.622 Y105.210 E0.01687
; stop printing object CapoHolder.stl id:0 copy 0
;LAYER_CHANGE
;Z:0.4
;HEIGHT:0.2
;BEFORE_LAYER_CHANGE
G92 E0.0
;0.4


;WIPE_START
G1 F8640.000
G1 X137.252 Y104.840 E-0.12093
G1 X137.249 Y104.290 E-0.12708
G1 X137.874 Y104.914 E-0.20387
G1 X138.254 Y104.746 E-0.09596
G1 X137.247 Y103.739 E-0.32883
G1 X137.245 Y103.189 E-0.12708
G1 X138.244 Y104.188 E-0.32625
;WIPE_END
G1 E-0.07000 F2100.000
G1 Z0.400 F10800.000
;AFTER_LAYER_CHANGE
;0.4
M104 S250 ; set temperature
M140 S90 ; set bed temperature
G1 Z0.600
G1 X146.056 Y104.087
G1 Z0.400
G1 E1.40000 F2100.000
;TYPE:Skirt
;WIDTH:0.42
G1 F2593
G1 X145.328 Y105.010 E0.03687
G1 X144.212 Y105.810 E0.04304
G1 X142.109 Y107.074 E0.07695
G1 X139.964 Y108.171 E0.07553
G1 X137.716 Y109.131 E0.07663
G1 X135.416 Y109.930 E0.07637
G1 X133.093 Y110.562 E0.07547
G1 X131.439 Y110.911 E0.05300
G1 X129.026 Y111.273 E0.07650
G1 X126.658 Y111.465 E0.07451
G1 X124.999 Y111.504 E0.05203
G1 X123.344 Y111.465 E0.05190
G1 X120.974 Y111.273 E0.07457
G1 X117.701 Y110.740 E0.10397
G1 X115.394 Y110.170 E0.07450
G1 X113.801 Y109.678 E0.05229
G1 X111.523 Y108.826 E0.07624
G1 X109.302 Y107.816 E0.07650
G1 X107.156 Y106.655 E0.07650
G1 X105.096 Y105.348 E0.07650
G1 X104.475 Y104.814 E0.02570
G1 X103.996 Y104.176 E0.02501
G1 X103.660 Y103.450 E0.02509
G1 X103.481 Y102.623 E0.02652
G1 X103.476 Y101.939 E0.02146
G1 X103.621 Y101.172 E0.02447
G1 X103.871 Y100.550 E0.02103
G1 X104.297 Y99.890 E0.02463
G1 X104.846 Y99.340 E0.02435
G1 X105.416 Y98.956 E0.02154
G1 X106.128 Y98.658 E0.02420
G1 X106.810 Y98.518 E0.02185
G1 X142.788 Y98.496 E1.12804
G1 X143.867 Y98.657 E0.03423
G1 X144.917 Y99.161 E0.03650
G1 X145.714 Y99.903 E0.03414
G1 X146.263 Y100.845 E0.03418
G1 X146.526 Y101.967 E0.03615
G1 X146.447 Y103.070 E0.03468
G1 X146.078 Y104.031 E0.03228
G1 X145.630 Y104.066 F10800.000
M73 Q2 S33
G1 F2593
G1 X144.954 Y104.837 E0.03212
G1 X143.335 Y105.919 E0.06105
G1 X141.236 Y107.117 E0.07580
G1 X139.073 Y108.162 E0.07532
G1 X136.843 Y109.055 E0.07532
G1 X134.560 Y109.791 E0.07520
M73 P2 R33
G1 X132.949 Y110.209 E0.05218
G1 X130.609 Y110.673 E0.07480
G1 X128.219 Y110.978 E0.07556
G1 X124.973 Y111.127 E0.10189
G1 X122.615 Y111.045 E0.07396
G1 X120.986 Y110.895 E0.05129
G1 X119.364 Y110.669 E0.05134
G1 X117.051 Y110.209 E0.07396
G1 X113.908 Y109.316 E0.10244
G1 X111.669 Y108.479 E0.07496
G1 X109.472 Y107.479 E0.07568
G1 X107.349 Y106.331 E0.07568
G1 X105.326 Y105.049 E0.07508
G1 X104.757 Y104.563 E0.02346
G1 X104.319 Y103.983 E0.02281
