; generated by PrusaSlicer 2.3.0+win64 on 2021-03-27 at 19:50:08 UTC

; 

; external perimeters extrusion width = 0.45mm
; perimeters extrusion width = 0.45mm
; infill extrusion width = 0.45mm
; solid infill extrusion width = 0.45mm
; top infill extrusion width = 0.40mm
; first layer extrusion width = 0.42mm

M73 P0 R26
M73 Q0 S26
M201 X1000 Y1000 Z200 E5000 ; sets maximum accelerations, mm/sec^2
M203 X200 Y200 Z12 E120 ; sets maximum feedrates, mm/sec
M204 P1250 R1250 T1250 ; sets acceleration (P, T) and retract acceleration (R), mm/sec^2
M205 X8.00 Y8.00 Z0.40 E4.50 ; sets the jerk limits, mm/sec
M205 S0 T0 ; sets the minimum extruding and travel feed rate, mm/sec
M107
;TYPE:Custom
M862.3 P "MK3S" ; printer model check
M862.1 P0.4 ; nozzle diameter check
M115 U3.9.3 ; tell printer latest fw version
G90 ; use absolute coordinates
M83 ; extruder relative mode
M104 S260 ; set extruder temp
M140 S105 ; set bed temp
M190 S105 ; wait for bed temp
M109 S260 ; wait for extruder temp
G28 W ; home all without mesh bed level
G80 ; mesh bed leveling
G1 Y-3.0 F1000.0 ; go outside print area
G92 E0.0
G1 X60.0 E9.0 F1000.0 ; intro line
G1 X100.0 E12.5 F1000.0 ; intro line
G92 E0.0
M221 S95

; Don't change E values below. Excessive value can damage the printer.
M907 E430 ; set extruder motor current
G21 ; set units to millimeters
G90 ; use absolute coordinates
M83 ; use relative distances for extrusion
M900 K0.04 ; Filament gcode LA 1.5
M900 K20 ; Filament gcode LA 1.0
;LAYER_CHANGE
;Z:0.2
;HEIGHT:0.2
;BEFORE_LAYER_CHANGE
G92 E0.0
;0.2


G1 E-0.80000 F2100.000
G1 Z0.400 F10800.000
;AFTER_LAYER_CHANGE
;0.2
G1 X69.632 Y42.361
G1 Z0.200
G1 E0.80000 F2100.000
M204 S1000
;TYPE:Skirt
;WIDTH:0.42
G1 F1200.000
G1 X70.526 Y41.147 E0.04727
G1 X71.527 Y40.185 E0.04355
G1 X73.422 Y38.989 E0.07026
G1 X74.702 Y38.516 E0.04279
G1 X76.029 Y38.252 E0.04240
G1 X96.962 Y36.949 E0.65761
G1 X98.783 Y36.944 E0.05711
G1 X100.173 Y37.174 E0.04418
G1 X101.532 Y37.653 E0.04517
G1 X103.388 Y38.799 E0.06839
G1 X103.953 Y39.269 E0.02303
G1 X104.732 Y40.106 E0.03584
G1 X105.431 Y41.106 E0.03828
G1 X106.278 Y42.958 E0.06386
G1 X106.578 Y44.163 E0.03891
G1 X106.702 Y45.776 E0.05074
G1 X106.433 Y47.744 E0.06226
G1 X106.129 Y48.761 E0.03329
G1 X105.681 Y49.747 E0.03395
G1 X105.158 Y50.595 E0.03125
G1 X103.794 Y52.157 E0.06502
G1 X102.754 Y52.959 E0.04117
G1 X101.637 Y53.581 E0.04008
G1 X99.531 Y54.239 E0.06918
G1 X98.651 Y54.366 E0.02788
G1 X77.620 Y55.676 E0.66069
G1 X76.258 Y55.652 E0.04270
G1 X75.539 Y55.543 E0.02282
G1 X73.664 Y54.988 E0.06129
G1 X72.828 Y54.584 E0.02913
G1 X72.039 Y54.086 E0.02924
G1 X71.193 Y53.400 E0.03416
G1 X69.942 Y51.967 E0.05963
G1 X69.155 Y50.633 E0.04856
G1 X68.647 Y49.237 E0.04657
G1 X68.342 Y47.136 E0.06658
G1 X68.434 Y45.640 E0.04699
G1 X68.753 Y44.284 E0.04368
G1 X69.607 Y42.415 E0.06442
G1 X69.950 Y42.573 F10800.000
G1 F1200.000
G1 X70.892 Y41.304 E0.04956
G1 X71.779 Y40.468 E0.03821
G1 X73.687 Y39.283 E0.07043
G1 X74.819 Y38.875 E0.03771
G1 X76.067 Y38.627 E0.03989
G1 X96.984 Y37.325 E0.65712
G1 X98.783 Y37.322 E0.05639
G1 X100.091 Y37.542 E0.04160
G1 X101.404 Y38.009 E0.04368
G1 X103.185 Y39.117 E0.06576
G1 X103.702 Y39.551 E0.02117
G1 X104.438 Y40.342 E0.03387
G1 X105.102 Y41.290 E0.03631
G1 X105.925 Y43.092 E0.06211
G1 X106.210 Y44.247 E0.03730
G1 X106.324 Y45.768 E0.04783
G1 X106.060 Y47.691 E0.06085
G1 X105.773 Y48.637 E0.03099
G1 X105.340 Y49.586 E0.03271
G1 X104.858 Y50.367 E0.02878
G1 X103.521 Y51.895 E0.06366
G1 X102.533 Y52.653 E0.03904
G1 X101.394 Y53.277 E0.04074
G1 X99.419 Y53.879 E0.06472
G1 X98.613 Y53.991 E0.02553
G1 X77.598 Y55.299 E0.66018
M73 P1 R26
M73 Q1 S26
G1 X76.291 Y55.277 E0.04097
G1 X75.628 Y55.176 E0.02102
G1 X73.776 Y54.628 E0.06056
G1 X72.989 Y54.242 E0.02749
G1 X72.153 Y53.705 E0.03116
G1 X71.443 Y53.116 E0.02891
G1 X70.208 Y51.696 E0.05901
G1 X69.439 Y50.346 E0.04874
G1 X69.009 Y49.127 E0.04052
G1 X68.717 Y47.090 E0.06452
G1 X68.809 Y45.683 E0.04422
G1 X69.119 Y44.381 E0.04194
G1 X69.924 Y42.628 E0.06051
; printing object Vložka.stl id:0 copy 1
;WIPE_START
G1 F8640.000
G1 X70.892 Y41.304 E-0.37857
G1 X71.779 Y40.468 E-0.28139
G1 X72.147 Y40.240 E-0.10004
;WIPE_END
G1 E-0.04000 F2100.000
G1 Z0.600 F10800.000
G1 X74.492 Y44.420
G1 Z0.200
G1 E0.80000 F2100.000
;TYPE:Perimeter
G1 F1200.000
G1 X74.978 Y44.002 E0.02010
G1 X75.344 Y43.772 E0.01354
G1 X75.732 Y43.586 E0.01349
G1 X76.345 Y43.397 E0.02013
G1 X76.983 Y43.323 E0.02013
G1 X77.413 Y43.336 E0.01349
G1 X77.840 Y43.400 E0.01354
G1 X78.454 Y43.586 E0.02010
G1 X79.024 Y43.882 E0.02016
G1 X79.373 Y44.133 E0.01348
G1 X79.692 Y44.425 E0.01356
G1 X80.095 Y44.922 E0.02005
G1 X80.403 Y45.481 E0.02001
G1 X80.606 Y46.087 E0.02006
G1 X80.681 Y46.511 E0.01349
G1 X80.707 Y46.942 E0.01354
G1 X80.652 Y47.581 E0.02010
G1 X80.480 Y48.200 E0.02016
G1 X80.306 Y48.593 E0.01348
G1 X80.086 Y48.965 E0.01356
G1 X79.692 Y49.451 E0.01959
G1 X79.373 Y49.742 E0.01356
G1 X79.024 Y49.994 E0.01348
G1 X78.454 Y50.290 E0.02016
G1 X77.826 Y50.480 E0.02056
G1 X77.194 Y50.554 E0.01996
G1 X76.554 Y50.514 E0.02010
G1 X76.134 Y50.425 E0.01345
G1 X75.724 Y50.286 E0.01359
G1 X75.168 Y50.001 E0.01959
G1 X74.817 Y49.749 E0.01356
G1 X74.499 Y49.459 E0.01348
G1 X74.092 Y48.962 E0.02016
G1 X73.783 Y48.400 E0.02010
G1 X73.633 Y47.995 E0.01354
G1 X73.531 Y47.577 E0.01349
G1 X73.473 Y46.940 E0.02007
G1 X73.529 Y46.304 E0.02000
G1 X73.697 Y45.687 E0.02005
M73 P1 R25
G1 X73.872 Y45.291 E0.01356
G1 X74.089 Y44.921 E0.01348
G1 X74.455 Y44.467 E0.01828
G1 X74.748 Y44.703 F10800.000
G1 F1200.000
G1 X75.203 Y44.306 E0.01892
G1 X75.526 Y44.103 E0.01198
G1 X75.870 Y43.938 E0.01193
G1 X76.423 Y43.768 E0.01817
G1 X76.999 Y43.701 E0.01817
G1 X77.379 Y43.712 E0.01193
G1 X77.757 Y43.769 E0.01198
G1 X78.311 Y43.937 E0.01814
G1 X78.826 Y44.204 E0.01820
G1 X79.135 Y44.426 E0.01192
G1 X79.417 Y44.684 E0.01199
G1 X79.781 Y45.133 E0.01811
G1 X80.056 Y45.633 E0.01788
G1 X80.240 Y46.181 E0.01813
G1 X80.306 Y46.556 E0.01194
G1 X80.329 Y46.937 E0.01197
G1 X80.279 Y47.513 E0.01814
G1 X80.124 Y48.073 E0.01820
G1 X79.970 Y48.420 E0.01192
G1 X79.775 Y48.750 E0.01199
G1 X79.417 Y49.191 E0.01783
G1 X79.135 Y49.449 E0.01199
G1 X78.826 Y49.672 E0.01192
G1 X78.311 Y49.939 E0.01820
G1 X77.749 Y50.110 E0.01842
G1 X77.184 Y50.176 E0.01784
G1 X76.605 Y50.139 E0.01817
G1 X76.234 Y50.061 E0.01190
G1 X75.871 Y49.938 E0.01202
G1 X75.365 Y49.678 E0.01783
G1 X75.054 Y49.455 E0.01199
G1 X74.773 Y49.199 E0.01192
G1 X74.405 Y48.750 E0.01821
G1 X74.127 Y48.243 E0.01814
G1 X73.994 Y47.885 E0.01198
G1 X73.904 Y47.515 E0.01193
G1 X73.851 Y46.939 E0.01814
G1 X73.901 Y46.371 E0.01788
G1 X74.054 Y45.814 E0.01811
G1 X74.208 Y45.464 E0.01199
G1 X74.400 Y45.136 E0.01192
G1 X74.711 Y44.750 E0.01553
G1 X75.005 Y44.986 F10800.000
;TYPE:External perimeter
G1 F1200.000
G1 X75.428 Y44.611 E0.01774
G1 X75.709 Y44.433 E0.01042
G1 X76.007 Y44.291 E0.01037
G1 X76.501 Y44.138 E0.01621
G1 X77.015 Y44.078 E0.01621
G1 X77.346 Y44.089 E0.01038
G1 X77.674 Y44.137 E0.01042
G1 X78.168 Y44.287 E0.01618
G1 X78.628 Y44.526 E0.01625
G1 X78.896 Y44.719 E0.01037
G1 X79.142 Y44.944 E0.01043
G1 X79.467 Y45.344 E0.01618
G1 X79.709 Y45.785 E0.01576
G1 X79.873 Y46.274 E0.01619
G1 X79.931 Y46.600 E0.01038
G1 X79.951 Y46.932 E0.01041
G1 X79.906 Y47.446 E0.01618
G1 X79.768 Y47.945 E0.01625
G1 X79.634 Y48.247 E0.01037
G1 X79.465 Y48.534 E0.01043
G1 X79.142 Y48.932 E0.01608
G1 X78.896 Y49.156 E0.01043
G1 X78.628 Y49.350 E0.01037
G1 X78.168 Y49.588 E0.01625
G1 X77.671 Y49.739 E0.01628
G1 X77.173 Y49.797 E0.01572
G1 X76.657 Y49.765 E0.01623
G1 X76.334 Y49.696 E0.01034
G1 X76.018 Y49.590 E0.01045
G1 X75.562 Y49.356 E0.01608
G1 X75.292 Y49.162 E0.01043
G1 X75.047 Y48.939 E0.01037
G1 X74.719 Y48.538 E0.01625
G1 X74.471 Y48.086 E0.01618
G1 X74.355 Y47.774 E0.01042
G1 X74.277 Y47.453 E0.01037
G1 X74.230 Y46.938 E0.01620
G1 X74.274 Y46.438 E0.01575
G1 X74.410 Y45.940 E0.01618
G1 X74.544 Y45.636 E0.01043
G1 X74.711 Y45.351 E0.01037
G1 X74.967 Y45.033 E0.01278
G1 X74.895 Y44.602 F10800.000
;WIPE_START
G1 F8640.000
G1 X75.428 Y44.611 E-0.14430
G1 X75.709 Y44.433 E-0.07674
G1 X76.007 Y44.291 E-0.07639
G1 X76.501 Y44.138 E-0.11940
G1 X77.015 Y44.078 E-0.11938
G1 X77.346 Y44.089 E-0.07642
G1 X77.674 Y44.137 E-0.07671
G1 X77.967 Y44.226 E-0.07066
;WIPE_END
G1 E-0.04000 F2100.000
G1 Z0.600 F10800.000
G1 X74.275 Y43.512
G1 Z0.200
G1 E0.80000 F2100.000
;TYPE:Perimeter
G1 F1200.000
G1 X74.419 Y43.468 E0.00471
G1 X74.748 Y43.293 E0.01170
G1 X75.044 Y43.066 E0.01171
G1 X75.135 Y42.964 E0.00425
G1 X75.449 Y42.818 E0.01087
G1 X75.754 Y42.709 E0.01016
G1 X76.082 Y42.619 E0.01066
G1 X76.576 Y42.534 E0.01571
G1 X76.719 Y42.574 E0.00467
G1 X77.091 Y42.606 E0.01170
G1 X77.460 Y42.574 E0.01161
G1 X77.594 Y42.538 E0.00437
G1 X77.936 Y42.584 E0.01081
G1 X78.259 Y42.660 E0.01041
G1 X78.742 Y42.822 E0.01597
G1 X79.041 Y42.961 E0.01035
G1 X79.149 Y43.074 E0.00489
G1 X79.433 Y43.293 E0.01125
G1 X79.763 Y43.468 E0.01170
G1 X79.906 Y43.512 E0.00471
G1 X80.155 Y43.732 E0.01043
G1 X80.497 Y44.097 E0.01567
G1 X80.700 Y44.360 E0.01042
G1 X80.885 Y44.653 E0.01085
G1 X80.906 Y44.787 E0.00425
G1 X81.032 Y45.138 E0.01170
G1 X81.215 Y45.463 E0.01170
G1 X81.311 Y45.577 E0.00467
G1 X81.438 Y46.062 E0.01571
G1 X81.493 Y46.397 E0.01066
G1 X81.520 Y46.720 E0.01016
G1 X81.518 Y47.054 E0.01047
G1 X81.380 Y47.541 E0.01589
G1 X81.357 Y47.927 E0.01210
G1 X81.376 Y48.075 E0.00467
G1 X81.222 Y48.551 E0.01571
G1 X81.086 Y48.863 E0.01066
G1 X80.935 Y49.149 E0.01016
G1 X80.753 Y49.428 E0.01046
G1 X80.430 Y49.702 E0.01328
G1 X80.151 Y50.065 E0.01434
G1 X80.083 Y50.208 E0.00495
G1 X79.964 Y50.317 E0.00507
G1 X79.701 Y50.523 E0.01047
G1 X79.411 Y50.717 E0.01094
G1 X79.129 Y50.876 E0.01016
G1 X78.825 Y51.013 E0.01046
G1 X78.405 Y51.069 E0.01328
G1 X77.974 Y51.223 E0.01434
G1 X77.840 Y51.306 E0.00495
G1 X77.690 Y51.332 E0.00479
G1 X77.182 Y51.371 E0.01597
G1 X76.666 Y51.352 E0.01618
G1 X76.333 Y51.301 E0.01057
G1 X76.206 Y51.222 E0.00470
G1 X75.764 Y51.065 E0.01469
G1 X75.347 Y51.013 E0.01319
G1 X74.922 Y50.806 E0.01482
G1 X74.480 Y50.522 E0.01646
G1 X74.101 Y50.213 E0.01534
G1 X74.036 Y50.077 E0.00473
G1 X73.817 Y49.775 E0.01171
G1 X73.549 Y49.515 E0.01170
G1 X73.436 Y49.440 E0.00425
G1 X73.247 Y49.149 E0.01087
G1 X73.095 Y48.863 E0.01016
G1 X72.960 Y48.550 E0.01068
G1 X72.805 Y48.077 E0.01562
G1 X72.824 Y47.927 E0.00474
G1 X72.802 Y47.542 E0.01210
G1 X72.660 Y47.046 E0.01618
G1 X72.671 Y46.572 E0.01487
G1 X72.746 Y46.052 E0.01645
G1 X72.870 Y45.578 E0.01537
G1 X72.967 Y45.463 E0.00471
G1 X73.150 Y45.138 E0.01170
G1 X73.276 Y44.787 E0.01171
G1 X73.297 Y44.653 E0.00425
G1 X73.482 Y44.360 E0.01087
G1 X73.680 Y44.103 E0.01016
G1 X73.908 Y43.850 E0.01067
G1 X74.231 Y43.553 E0.01377
G1 X74.043 Y43.214 F10800.000
G1 F1200.000
G1 X74.093 Y43.174 E0.00201
G1 X74.274 Y43.118 E0.00593
G1 X74.544 Y42.975 E0.00959
G1 X74.786 Y42.788 E0.00960
G1 X74.905 Y42.655 E0.00558
G1 X75.306 Y42.469 E0.01385
G1 X75.641 Y42.349 E0.01116
G1 X76.000 Y42.251 E0.01168
G1 X76.552 Y42.155 E0.01757
G1 X76.603 Y42.150 E0.00162
G1 X76.786 Y42.201 E0.00594
G1 X77.091 Y42.227 E0.00959
G1 X77.394 Y42.201 E0.00954
G1 X77.570 Y42.154 E0.00571
G1 X78.004 Y42.213 E0.01376
G1 X78.362 Y42.297 E0.01152
G1 X78.882 Y42.471 E0.01718
G1 X79.265 Y42.649 E0.01326
G1 X79.402 Y42.793 E0.00623
G1 X79.638 Y42.975 E0.00932
G1 X79.908 Y43.118 E0.00959
G1 X80.090 Y43.174 E0.00595
G1 X80.125 Y43.202 E0.00143
G1 X80.419 Y43.462 E0.01228
G1 X80.784 Y43.853 E0.01678
G1 X81.009 Y44.144 E0.01153
G1 X81.245 Y44.517 E0.01384
G1 X81.273 Y44.693 E0.00558
G1 X81.376 Y44.981 E0.00959
G1 X81.526 Y45.247 E0.00959
G1 X81.648 Y45.392 E0.00594
G1 X81.665 Y45.441 E0.00162
G1 X81.807 Y45.983 E0.01757
G1 X81.867 Y46.351 E0.01168
G1 X81.898 Y46.705 E0.01116
G1 X81.894 Y47.139 E0.01361
G1 X81.847 Y47.240 E0.00348
G1 X81.754 Y47.600 E0.01167
G1 X81.736 Y47.914 E0.00985
G1 X81.760 Y48.102 E0.00595
G1 X81.748 Y48.152 E0.00162
G1 X81.575 Y48.685 E0.01757
G1 X81.426 Y49.026 E0.01168
G1 X81.260 Y49.341 E0.01116
G1 X81.023 Y49.704 E0.01360
G1 X80.706 Y49.961 E0.01280
G1 X80.474 Y50.263 E0.01193
G1 X80.392 Y50.436 E0.00601
G1 X80.208 Y50.604 E0.00782
G1 X79.923 Y50.828 E0.01136
G1 X79.609 Y51.039 E0.01185
G1 X79.299 Y51.213 E0.01116
G1 X78.903 Y51.391 E0.01360
G1 X78.498 Y51.436 E0.01280
G1 X78.139 Y51.564 E0.01193
G1 X77.977 Y51.666 E0.00601
G1 X77.736 Y51.707 E0.00765
G1 X77.189 Y51.749 E0.01719
G1 X76.631 Y51.728 E0.01752
G1 X76.200 Y51.662 E0.01367
G1 X76.041 Y51.564 E0.00586
G1 X75.673 Y51.433 E0.01226
G1 X75.272 Y51.391 E0.01263
G1 X74.733 Y51.133 E0.01874
G1 X74.258 Y50.828 E0.01770
G1 X73.844 Y50.490 E0.01678
G1 X73.792 Y50.441 E0.00224
G1 X73.711 Y50.270 E0.00592
G1 X73.531 Y50.022 E0.00960
G1 X73.311 Y49.809 E0.00959
G1 X73.163 Y49.711 E0.00558
G1 X72.922 Y49.341 E0.01385
G1 X72.755 Y49.026 E0.01116
G1 X72.607 Y48.684 E0.01169
G1 X72.439 Y48.170 E0.01696
G1 X72.422 Y48.101 E0.00224
G1 X72.446 Y47.914 E0.00592
G1 X72.428 Y47.600 E0.00984
G1 X72.335 Y47.242 E0.01160
G1 X72.285 Y47.134 E0.00373
G1 X72.295 Y46.536 E0.01876
G1 X72.376 Y45.977 E0.01769
G1 X72.513 Y45.453 E0.01700
G1 X72.534 Y45.392 E0.00201
G1 X72.656 Y45.247 E0.00593
G1 X72.806 Y44.981 E0.00959
G1 X72.909 Y44.693 E0.00960
G1 X72.937 Y44.517 E0.00558
G1 X73.173 Y44.143 E0.01385
G1 X73.390 Y43.862 E0.01116
G1 X73.639 Y43.584 E0.01169
G1 X73.998 Y43.254 E0.01529
G1 X73.914 Y42.835 F10800.000
;TYPE:External perimeter
G1 F1200.000
G1 X74.128 Y42.768 E0.00704
G1 X74.339 Y42.657 E0.00748
G1 X74.529 Y42.511 E0.00749
M73 Q1 S25
G1 X74.676 Y42.346 E0.00692
G1 X75.162 Y42.120 E0.01683
G1 X75.527 Y41.989 E0.01216
G1 X75.918 Y41.882 E0.01270
G1 X76.636 Y41.768 E0.02281
G1 X76.853 Y41.828 E0.00705
G1 X77.091 Y41.849 E0.00748
G1 X77.328 Y41.828 E0.00747
G1 X77.545 Y41.770 E0.00704
G1 X78.073 Y41.842 E0.01671
G1 X78.466 Y41.933 E0.01264
G1 X79.021 Y42.121 E0.01839
G1 X79.489 Y42.337 E0.01617
G1 X79.656 Y42.513 E0.00757
G1 X79.842 Y42.656 E0.00739
G1 X80.053 Y42.768 E0.00748
G1 X80.268 Y42.835 E0.00705
G1 X80.682 Y43.191 E0.01713
G1 X81.072 Y43.608 E0.01789
G1 X81.318 Y43.927 E0.01264
G1 X81.605 Y44.381 E0.01683
G1 X81.640 Y44.599 E0.00692
G1 X81.720 Y44.824 E0.00748
G1 X81.837 Y45.032 E0.00748
G1 X81.982 Y45.204 E0.00705
G1 X82.177 Y45.905 E0.02281
G1 X82.242 Y46.304 E0.01270
G1 X82.275 Y46.691 E0.01216
G1 X82.271 Y47.225 E0.01674
G1 X82.203 Y47.368 E0.00497
G1 X82.128 Y47.659 E0.00941
G1 X82.114 Y47.900 E0.00759
G1 X82.143 Y48.123 E0.00705
G1 X81.928 Y48.818 E0.02281
G1 X81.767 Y49.190 E0.01270
G1 X81.585 Y49.532 E0.01216
G1 X81.293 Y49.980 E0.01674
G1 X81.164 Y50.061 E0.00479
G1 X80.983 Y50.220 E0.00757
G1 X80.798 Y50.461 E0.00952
G1 X80.701 Y50.665 E0.00707
G1 X80.452 Y50.892 E0.01058
G1 X80.145 Y51.134 E0.01225
G1 X79.807 Y51.360 E0.01276
G1 X79.469 Y51.550 E0.01216
G1 X78.982 Y51.769 E0.01674
G1 X78.829 Y51.767 E0.00478
G1 X78.590 Y51.803 E0.00757
G1 X78.305 Y51.906 E0.00952
G1 X78.113 Y52.025 E0.00707
G1 X77.782 Y52.081 E0.01051
G1 X77.197 Y52.126 E0.01841
G1 X76.596 Y52.104 E0.01887
G1 X76.067 Y52.024 E0.01677
G1 X75.877 Y51.906 E0.00701
G1 X75.582 Y51.801 E0.00982
G1 X75.351 Y51.767 E0.00733
G1 X75.198 Y51.769 E0.00479
G1 X74.890 Y51.638 E0.01048
G1 X74.545 Y51.460 E0.01219
G1 X74.037 Y51.133 E0.01893
G1 X73.481 Y50.666 E0.02275
G1 X73.385 Y50.463 E0.00704
G1 X73.245 Y50.270 E0.00749
G1 X73.074 Y50.104 E0.00748
G1 X72.890 Y49.982 E0.00692
G1 X72.596 Y49.532 E0.01683
G1 X72.415 Y49.190 E0.01216
G1 X72.254 Y48.818 E0.01270
G1 X72.076 Y48.274 E0.01794
G1 X72.039 Y48.123 E0.00488
G1 X72.067 Y47.900 E0.00704
G1 X72.053 Y47.659 E0.00759
G1 X71.979 Y47.370 E0.00935
G1 X71.910 Y47.223 E0.00510
G1 X71.901 Y46.890 E0.01043
G1 X71.920 Y46.500 E0.01224
G1 X72.006 Y45.903 E0.01893
G1 X72.152 Y45.344 E0.01810
G1 X72.200 Y45.203 E0.00466
G1 X72.344 Y45.032 E0.00704
G1 X72.462 Y44.824 E0.00748
G1 X72.542 Y44.599 E0.00749
G1 X72.577 Y44.381 E0.00692
G1 X72.864 Y43.927 E0.01683
G1 X73.100 Y43.620 E0.01216
G1 X73.371 Y43.319 E0.01270
G1 X73.867 Y42.872 E0.02094
G1 X74.100 Y42.960 F10800.000
;WIPE_START
G1 F8640.000
G1 X74.128 Y42.768 E-0.06497
