; generated by PrusaSlicer 2.3.0+win64 on 2021-03-26 at 12:52:15 UTC

; 

; external perimeters extrusion width = 0.45mm
; perimeters extrusion width = 0.45mm
; infill extrusion width = 0.45mm
; solid infill extrusion width = 0.45mm
; top infill extrusion width = 0.40mm
; first layer extrusion width = 0.42mm

M73 P0 R33
M73 Q0 S33
M201 X1000 Y1000 Z200 E5000 ; sets maximum accelerations, mm/sec^2
M203 X200 Y200 Z12 E120 ; sets maximum feedrates, mm/sec
M204 P1250 R1250 T1250 ; sets acceleration (P, T) and retract acceleration (R), mm/sec^2
M205 X8.00 Y8.00 Z0.40 E4.50 ; sets the jerk limits, mm/sec
M205 S0 T0 ; sets the minimum extruding and travel feed rate, mm/sec
M107
;TYPE:Custom
M862.3 P "MK3S" ; printer model check
M862.1 P0.4 ; nozzle diameter check
M115 U3.9.3 ; tell printer latest fw version
G90 ; use absolute coordinates
M83 ; extruder relative mode
M104 S215 ; set extruder temp
M140 S60 ; set bed temp
M190 S60 ; wait for bed temp
M109 S215 ; wait for extruder temp
G28 W ; home all without mesh bed level
G80 ; mesh bed leveling
G1 Y-3.0 F1000.0 ; go outside print area
G92 E0.0
G1 X60.0 E9.0 F1000.0 ; intro line
G1 X100.0 E12.5 F1000.0 ; intro line
G92 E0.0
M221 S95

; Don't change E values below. Excessive value can damage the printer.
M907 E430 ; set extruder motor current
G21 ; set units to millimeters
G90 ; use absolute coordinates
M83 ; use relative distances for extrusion
M900 K0.05 ; Filament gcode LA 1.5
M900 K30 ; Filament gcode LA 1.0
;LAYER_CHANGE
;Z:0.2
;HEIGHT:0.2
;BEFORE_LAYER_CHANGE
G92 E0.0
;0.2


G1 E-0.80000 F2100.000
G1 Z0.400 F10800.000
;AFTER_LAYER_CHANGE
;0.2
G1 X125.001 Y77.238
G1 Z0.200
G1 E0.80000 F2100.000
M204 S1000
;TYPE:Skirt
;WIDTH:0.42
G1 F1200.000
G1 X125.939 Y77.351 E0.02963
G1 X126.762 Y77.639 E0.02732
G1 X127.657 Y78.160 E0.03248
G1 X128.437 Y78.814 E0.03192
G1 X129.051 Y79.522 E0.02938
G1 X129.618 Y80.386 E0.03239
G1 X130.766 Y82.836 E0.08485
G1 X137.048 Y99.107 E0.54687
G1 X138.361 Y102.699 E0.11993
G1 X139.490 Y106.121 E0.11298
G1 X140.593 Y110.031 E0.12737
G1 X141.365 Y113.477 E0.11072
G1 X141.802 Y116.289 E0.08923
G1 X141.989 Y119.150 E0.08990
G1 X141.950 Y120.563 E0.04432
G1 X141.777 Y122.090 E0.04816
G1 X141.584 Y123.028 E0.03005
G1 X141.099 Y124.528 E0.04943
G1 X140.601 Y125.577 E0.03640
G1 X139.918 Y126.643 E0.03969
G1 X139.055 Y127.653 E0.04167
G1 X138.016 Y128.573 E0.04351
G1 X136.893 Y129.328 E0.04241
G1 X135.665 Y129.963 E0.04335
G1 X134.241 Y130.524 E0.04799
G1 X132.574 Y131.005 E0.05439
G1 X130.895 Y131.353 E0.05377
G1 X128.806 Y131.667 E0.06623
G1 X126.784 Y131.858 E0.06370
G1 X124.999 Y131.919 E0.05598
G1 X123.215 Y131.858 E0.05599
G1 X121.189 Y131.667 E0.06381
G1 X119.102 Y131.353 E0.06616
G1 X117.428 Y131.006 E0.05362
G1 X115.760 Y130.525 E0.05440
G1 X114.332 Y129.963 E0.04812
G1 X113.104 Y129.327 E0.04335
G1 X111.982 Y128.573 E0.04240
G1 X110.944 Y127.654 E0.04347
G1 X110.079 Y126.640 E0.04178
G1 X109.398 Y125.576 E0.03962
G1 X108.899 Y124.528 E0.03638
G1 X108.589 Y123.655 E0.02906
G1 X108.224 Y122.091 E0.05035
G1 X108.050 Y120.566 E0.04813
G1 X108.010 Y119.151 E0.04437
G1 X108.171 Y116.521 E0.08263
G1 X108.634 Y113.477 E0.09654
G1 X109.407 Y110.032 E0.11071
G1 X110.509 Y106.121 E0.12738
G1 X112.586 Y100.074 E0.20048
G1 X119.232 Y82.837 E0.57924
G1 X120.381 Y80.386 E0.08488
G1 X120.948 Y79.521 E0.03243
G1 X121.563 Y78.812 E0.02943
G1 X122.343 Y78.159 E0.03188
G1 X123.241 Y77.637 E0.03258
G1 X124.063 Y77.350 E0.02729
G1 X124.942 Y77.245 E0.02775
; printing object penguin_orange.stl_3 id:0 copy 0
;WIPE_START
G1 F8640.000
G1 X125.939 Y77.351 E-0.23168
G1 X126.762 Y77.639 E-0.20117
G1 X127.657 Y78.160 E-0.23923
G1 X127.949 Y78.405 E-0.08793
;WIPE_END
G1 E-0.04000 F2100.000
G1 Z0.600 F10800.000
G1 X125.015 Y80.499
G1 Z0.200
G1 E0.80000 F2100.000
;TYPE:Perimeter
G1 F1200.000
G1 X125.195 Y80.525 E0.00571
G1 X125.491 Y80.635 E0.00989
G1 X125.812 Y80.826 E0.01171
G1 X126.246 Y81.187 E0.01770
G1 X126.480 Y81.454 E0.01111
G1 X126.697 Y81.751 E0.01155
G1 X126.927 Y82.128 E0.01384
G1 X127.277 Y82.805 E0.02390
G1 X127.648 Y83.640 E0.02864
G1 X128.312 Y85.323 E0.05674
G1 X132.632 Y96.729 E0.38242
G1 X134.526 Y101.850 E0.17118
G1 X135.357 Y104.253 E0.07974
G1 X135.777 Y105.533 E0.04223
G1 X136.290 Y107.199 E0.05465
G1 X137.096 Y110.087 E0.09401
G1 X137.537 Y111.889 E0.05819
G1 X137.972 Y113.954 E0.06615
G1 X138.132 Y114.853 E0.02864
G1 X138.309 Y116.019 E0.03698
G1 X138.442 Y117.165 E0.03618
G1 X138.515 Y118.118 E0.02995
G1 X138.552 Y119.310 E0.03738
G1 X138.511 Y120.468 E0.03635
G1 X138.457 Y121.046 E0.01821
G1 X138.376 Y121.611 E0.01788
G1 X138.261 Y122.187 E0.01841
G1 X138.110 Y122.743 E0.01808
G1 X137.807 Y123.554 E0.02714
G1 X137.435 Y124.268 E0.02523
G1 X137.195 Y124.634 E0.01374
G1 X136.945 Y124.963 E0.01295
G1 X136.626 Y125.324 E0.01510
G1 X136.336 Y125.612 E0.01280
G1 X135.989 Y125.910 E0.01434
G1 X135.628 Y126.183 E0.01421
G1 X135.144 Y126.496 E0.01807
G1 X134.748 Y126.720 E0.01426
G1 X133.968 Y127.090 E0.02707
G1 X132.955 Y127.471 E0.03393
G1 X132.383 Y127.650 E0.01880
G1 X131.545 Y127.869 E0.02716
G1 X130.715 Y128.048 E0.02661
G1 X129.961 Y128.184 E0.02404
G1 X128.231 Y128.431 E0.05479
G1 X127.478 Y128.511 E0.02374
G1 X126.406 Y128.593 E0.03372
G1 X124.999 Y128.637 E0.04412
G1 X123.593 Y128.593 E0.04412
G1 X122.520 Y128.511 E0.03372
G1 X121.768 Y128.431 E0.02374
G1 X120.038 Y128.184 E0.05479
G1 X119.280 Y128.047 E0.02414
G1 X118.453 Y127.869 E0.02653
G1 X117.614 Y127.650 E0.02717
G1 X117.043 Y127.471 E0.01876
G1 X116.030 Y127.090 E0.03393
G1 X115.251 Y126.720 E0.02705
G1 X114.854 Y126.496 E0.01429
G1 X114.371 Y126.183 E0.01805
G1 X114.008 Y125.909 E0.01426
G1 X113.663 Y125.612 E0.01426
G1 X113.371 Y125.323 E0.01289
G1 X113.054 Y124.964 E0.01500
G1 X112.803 Y124.633 E0.01304
G1 X112.564 Y124.268 E0.01366
G1 X112.191 Y123.554 E0.02526
G1 X111.889 Y122.743 E0.02716
G1 X111.735 Y122.178 E0.01835
G1 X111.619 Y121.598 E0.01856
G1 X111.534 Y120.989 E0.01926
G1 X111.483 Y120.431 E0.01757
G1 X111.445 Y119.194 E0.03883
G1 X111.462 Y118.490 E0.02208
G1 X111.509 Y117.692 E0.02504
G1 X111.586 Y116.859 E0.02623
G1 X111.700 Y115.935 E0.02921
G1 X112.010 Y114.040 E0.06019
G1 X112.447 Y111.953 E0.06687
G1 X112.772 Y110.606 E0.04343
G1 X113.160 Y109.119 E0.04820
G1 X113.877 Y106.642 E0.08085
G1 X114.791 Y103.801 E0.09357
G1 X115.630 Y101.407 E0.07953
G1 X116.936 Y97.870 E0.11822
G1 X121.686 Y85.323 E0.42065
M73 P1 R33
M73 Q1 S33
G1 X122.351 Y83.639 E0.05676
G1 X122.722 Y82.804 E0.02867
G1 X123.073 Y82.126 E0.02394
G1 X123.299 Y81.757 E0.01356
G1 X123.639 Y81.308 E0.01765
G1 X123.877 Y81.069 E0.01059
G1 X124.179 Y80.830 E0.01207
G1 X124.530 Y80.624 E0.01278
G1 X124.810 Y80.522 E0.00934
G1 X124.955 Y80.501 E0.00459
G1 X124.882 Y80.126 F10800.000
;TYPE:External perimeter
G1 F1200.000
G1 X125.036 Y80.121 E0.00483
G1 X125.289 Y80.158 E0.00801
G1 X125.654 Y80.294 E0.01220
G1 X126.030 Y80.516 E0.01372
G1 X126.510 Y80.916 E0.01957
G1 X126.774 Y81.218 E0.01257
G1 X127.010 Y81.542 E0.01258
G1 X127.255 Y81.943 E0.01473
G1 X127.617 Y82.641 E0.02467
G1 X127.996 Y83.494 E0.02925
G1 X128.664 Y85.187 E0.05707
G1 X132.986 Y96.597 E0.38255
G1 X134.881 Y101.723 E0.17135
G1 X135.715 Y104.133 E0.07996
G1 X136.137 Y105.418 E0.04243
G1 X136.652 Y107.092 E0.05492
G1 X137.461 Y109.991 E0.09436
G1 X137.905 Y111.806 E0.05857
G1 X138.342 Y113.882 E0.06653
G1 X138.504 Y114.792 E0.02898
G1 X138.683 Y115.969 E0.03734
G1 X138.817 Y117.129 E0.03661
G1 X138.892 Y118.098 E0.03045
G1 X138.929 Y119.310 E0.03804
G1 X138.888 Y120.492 E0.03709
G1 X138.831 Y121.091 E0.01884
G1 X138.748 Y121.675 E0.01849
G1 X138.629 Y122.273 E0.01914
G1 X138.469 Y122.859 E0.01902
G1 X138.155 Y123.702 E0.02823
G1 X137.973 Y124.079 E0.01312
G1 X137.758 Y124.463 E0.01380
G1 X137.503 Y124.852 E0.01456
G1 X137.237 Y125.202 E0.01379
G1 X136.901 Y125.584 E0.01594
G1 X136.592 Y125.889 E0.01362
G1 X136.226 Y126.203 E0.01512
G1 X135.844 Y126.492 E0.01501
G1 X135.339 Y126.819 E0.01886
G1 X134.922 Y127.055 E0.01503
G1 X134.116 Y127.438 E0.02799
G1 X133.078 Y127.828 E0.03476
G1 X132.487 Y128.013 E0.01941
G1 X131.632 Y128.236 E0.02770
G1 X130.788 Y128.418 E0.02707
G1 X130.021 Y128.556 E0.02445
G1 X128.278 Y128.805 E0.05521
G1 X127.513 Y128.887 E0.02413
G1 X126.426 Y128.970 E0.03417
G1 X124.999 Y129.014 E0.04475
G1 X123.573 Y128.970 E0.04475
G1 X122.486 Y128.887 E0.03417
G1 X121.721 Y128.805 E0.02413
G1 X119.978 Y128.556 E0.05521
G1 X119.207 Y128.417 E0.02455
G1 X118.365 Y128.236 E0.02699
G1 X117.510 Y128.012 E0.02771
G1 X116.921 Y127.828 E0.01937
G1 X115.883 Y127.438 E0.03476
G1 X115.077 Y127.055 E0.02797
G1 X114.659 Y126.819 E0.01506
G1 X114.154 Y126.492 E0.01884
G1 X113.771 Y126.202 E0.01506
G1 X113.407 Y125.890 E0.01505
G1 X113.096 Y125.582 E0.01371
G1 X112.762 Y125.203 E0.01584
G1 X112.495 Y124.850 E0.01388
G1 X112.241 Y124.464 E0.01448
G1 X112.025 Y124.078 E0.01388
G1 X111.844 Y123.703 E0.01307
G1 X111.529 Y122.858 E0.02824
G1 X111.368 Y122.265 E0.01930
G1 X111.248 Y121.661 E0.01931
G1 X111.159 Y121.033 E0.01988
G1 X111.107 Y120.454 E0.01821
G1 X111.068 Y119.195 E0.03951
G1 X111.085 Y118.474 E0.02261
G1 X111.133 Y117.664 E0.02544
G1 X111.211 Y116.819 E0.02660
G1 X111.326 Y115.881 E0.02963
G1 X111.639 Y113.971 E0.06069
G1 X112.079 Y111.870 E0.06731
G1 X112.406 Y110.514 E0.04372
G1 X112.796 Y109.019 E0.04847
G1 X113.516 Y106.532 E0.08118
G1 X114.434 Y103.681 E0.09390
G1 X115.275 Y101.280 E0.07978
G1 X116.583 Y97.738 E0.11837
G1 X121.334 Y85.187 E0.42078
G1 X122.003 Y83.494 E0.05709
G1 X122.382 Y82.640 E0.02928
G1 X122.745 Y81.940 E0.02472
G1 X122.987 Y81.544 E0.01457
G1 X123.354 Y81.060 E0.01904
G1 X123.626 Y80.787 E0.01209
G1 X123.966 Y80.518 E0.01359
G1 X124.369 Y80.281 E0.01468
G1 X124.712 Y80.156 E0.01143
G1 X124.823 Y80.136 E0.00355
G1 X124.975 Y80.249 F10800.000
;WIPE_START
G1 F8640.000
G1 X125.036 Y80.121 E-0.04935
G1 X125.289 Y80.158 E-0.05898
G1 X125.654 Y80.294 E-0.08987
G1 X126.030 Y80.516 E-0.10101
G1 X126.510 Y80.916 E-0.14413
G1 X126.774 Y81.218 E-0.09255
G1 X127.010 Y81.542 E-0.09261
G1 X127.255 Y81.943 E-0.10847
G1 X127.301 Y82.031 E-0.02303
;WIPE_END
G1 E-0.04000 F2100.000
G1 Z0.600 F10800.000
G1 X126.808 Y82.151
G1 Z0.200
G1 E0.80000 F2100.000
;TYPE:Solid infill
;WIDTH:0.421445
G1 F1200.000
G1 X126.046 Y81.389 E0.03395
G1 X125.649 Y81.057 E0.01628
G1 X125.368 Y80.892 E0.01025
G1 X125.133 Y80.804 E0.00791
G1 X124.912 Y80.791 E0.00694
G1 X126.994 Y82.872 E0.09265
G1 X127.421 Y83.835 E0.03313
G1 X124.535 Y80.949 E0.12845
G1 X124.339 Y81.064 E0.00716
G1 X124.214 Y81.163 E0.00502
G1 X127.770 Y84.719 E0.15829
G1 X128.115 Y85.599 E0.02974
G1 X123.931 Y81.416 E0.18621
G1 X123.690 Y81.709 E0.01197
G1 X128.441 Y86.461 E0.21149
G1 X128.767 Y87.322 E0.02900
G1 X123.468 Y82.023 E0.23590
G1 X123.270 Y82.360 E0.01232
G1 X129.094 Y88.184 E0.25922
G1 X129.420 Y89.046 E0.02900
G1 X123.087 Y82.713 E0.28188
G1 X122.912 Y83.073 E0.01260
G1 X129.746 Y89.907 E0.30422
G1 X130.073 Y90.769 E0.02900
G1 X122.747 Y83.443 E0.32607
G1 X122.585 Y83.817 E0.01280
G1 X130.399 Y91.631 E0.34782
G1 X130.725 Y92.492 E0.02900
G1 X122.433 Y84.200 E0.36909
G1 X122.282 Y84.584 E0.01299
G1 X131.052 Y93.354 E0.39036
G1 X131.378 Y94.216 E0.02900
G1 X122.130 Y84.968 E0.41163
G1 X121.979 Y85.352 E0.01299
G1 X131.704 Y95.077 E0.43290
G1 X132.031 Y95.939 E0.02900
G1 X121.831 Y85.739 E0.45401
G1 X121.684 Y86.127 E0.01307
G1 X132.357 Y96.801 E0.47508
G1 X132.672 Y97.650 E0.02852
G1 X121.537 Y86.516 E0.49562
G1 X121.390 Y86.904 E0.01307
G1 X132.986 Y98.500 E0.51615
G1 X133.300 Y99.349 E0.02850
G1 X121.243 Y87.292 E0.53667
G1 X121.096 Y87.681 E0.01307
G1 X133.614 Y100.199 E0.55719
G1 X133.928 Y101.048 E0.02850
G1 X120.949 Y88.069 E0.57772
M73 P2 R33
M73 Q2 S33
G1 X120.802 Y88.457 E0.01307
G1 X134.242 Y101.898 E0.59824
G1 X134.527 Y102.718 E0.02733
G1 X120.655 Y88.846 E0.61747
G1 X120.508 Y89.234 E0.01307
G1 X134.810 Y103.536 E0.63661
G1 X135.093 Y104.354 E0.02725
G1 X120.361 Y89.622 E0.65575
G1 X120.214 Y90.011 E0.01307
G1 X135.354 Y105.151 E0.67393
M73 P2 R32
G1 X135.606 Y105.938 E0.02601
G1 X120.067 Y90.399 E0.69168
G1 X119.920 Y90.787 E0.01307
G1 X135.844 Y106.712 E0.70882
G1 X136.074 Y107.477 E0.02515
G1 X119.773 Y91.176 E0.72559
G1 X119.626 Y91.564 E0.01307
G1 X136.281 Y108.219 E0.74136
G1 X136.489 Y108.962 E0.02426
G1 X119.479 Y91.952 E0.75713
G1 X119.332 Y92.341 E0.01307
G1 X136.696 Y109.704 E0.77289
G1 X136.890 Y110.434 E0.02375
G1 X119.185 Y92.729 E0.78807
G1 X119.038 Y93.117 E0.01307
G1 X137.063 Y111.142 E0.80232
G1 X137.236 Y111.851 E0.02296
G1 X118.891 Y93.505 E0.81658
M73 Q2 S32
G1 X118.744 Y93.894 E0.01307
G1 X137.383 Y112.533 E0.82967
G1 X137.526 Y113.211 E0.02181
G1 X118.597 Y94.282 E0.84257
G1 X118.450 Y94.670 E0.01307
G1 X137.669 Y113.889 E0.85546
M73 P3 R32
M73 Q3 S32
G1 X137.790 Y114.545 E0.02100
G1 X118.303 Y95.059 E0.86739
G1 X118.156 Y95.447 E0.01307
G1 X137.897 Y115.188 E0.87868
G1 X137.992 Y115.819 E0.02009
G1 X118.009 Y95.835 E0.88949
G1 X117.862 Y96.224 E0.01307
G1 X138.072 Y116.434 E0.89959
G1 X138.142 Y117.039 E0.01919
G1 X117.715 Y96.612 E0.90926
G1 X117.568 Y97.000 E0.01307
G1 X138.194 Y117.626 E0.91808
G1 X138.235 Y118.203 E0.01820
G1 X117.421 Y97.389 E0.92646
G1 X117.274 Y97.777 E0.01307
G1 X138.252 Y118.755 E0.93375
G1 X138.269 Y119.307 E0.01738
G1 X117.128 Y98.167 E0.94098
G1 X116.984 Y98.558 E0.01312
G1 X138.251 Y119.824 E0.94662
G1 X138.233 Y120.342 E0.01629
G1 X116.840 Y98.949 E0.95224
G1 X116.695 Y99.339 E0.01312
G1 X138.193 Y120.837 E0.95688
G1 X138.133 Y121.313 E0.01510
G1 X116.551 Y99.730 E0.96066
M73 P4 R32
M73 Q4 S32
G1 X116.407 Y100.121 E0.01312
G1 X138.056 Y121.771 E0.96365
G1 X137.961 Y122.212 E0.01419
G1 X116.262 Y100.512 E0.96587
G1 X116.118 Y100.903 E0.01312
G1 X137.847 Y122.632 E0.96720
G1 X137.840 Y122.656 E0.00078
G1 X137.703 Y123.024 E0.01235
G1 X115.973 Y101.294 E0.96723
G1 X115.832 Y101.688 E0.01316
G1 X137.558 Y123.414 E0.96707
G1 X137.377 Y123.768 E0.01252
G1 X115.693 Y102.084 E0.96519
G1 X115.554 Y102.480 E0.01322
G1 X137.193 Y124.120 E0.96321
G1 X136.981 Y124.443 E0.01217
G1 X115.415 Y102.877 E0.95997
G1 X115.276 Y103.273 E0.01322
G1 X136.752 Y124.750 E0.95595
G1 X136.504 Y125.036 E0.01194
G1 X115.137 Y103.670 E0.95107
G1 X115.002 Y104.070 E0.01329
G1 X136.241 Y125.309 E0.94537
G1 X135.959 Y125.563 E0.01193
G1 X114.871 Y104.475 E0.93865
G1 X114.741 Y104.880 E0.01339
G1 X135.663 Y125.802 E0.93127
M73 P5 R32
M73 Q5 S32
G1 X135.351 Y126.025 E0.01207
G1 X114.611 Y105.285 E0.92319
G1 X114.481 Y105.690 E0.01339
G1 X135.026 Y126.236 E0.91453
G1 X134.686 Y126.430 E0.01235
G1 X114.350 Y106.095 E0.90517
M73 P5 R31
G1 X114.220 Y106.500 E0.01339
G1 X134.327 Y126.607 E0.89500
G1 X133.964 Y126.779 E0.01265
G1 X114.094 Y106.909 E0.88444
G1 X113.974 Y107.324 E0.01360
G1 X133.583 Y126.933 E0.87281
G1 X133.193 Y127.079 E0.01308
G1 X113.854 Y107.739 E0.86085
G1 X113.733 Y108.155 E0.01360
G1 X132.802 Y127.223 E0.84876
G1 X132.394 Y127.350 E0.01345
G1 X113.613 Y108.570 E0.83596
G1 X113.493 Y108.985 E0.01360
G1 X131.973 Y127.465 E0.82259
G1 X131.549 Y127.576 E0.01380
G1 X113.377 Y109.405 E0.80885
G1 X113.267 Y109.829 E0.01381
G1 X131.111 Y127.674 E0.79428
M73 Q5 S31
G1 X130.671 Y127.768 E0.01418
G1 X113.156 Y110.254 E0.77960
G1 X113.045 Y110.678 E0.01381
G1 X130.217 Y127.850 E0.76435
M73 P6 R31
G1 X129.759 Y127.927 E0.01463
G1 X112.941 Y111.110 E0.74857
M73 Q6 S31
G1 X112.837 Y111.541 E0.01396
G1 X129.290 Y127.994 E0.73236
G1 X128.822 Y128.061 E0.01489
G1 X112.733 Y111.972 E0.71614
G1 X112.639 Y112.414 E0.01421
G1 X128.353 Y128.128 E0.69946
G1 X127.875 Y128.185 E0.01517
G1 X112.547 Y112.856 E0.68229
G1 X112.454 Y113.299 E0.01423
G1 X127.389 Y128.234 E0.66480
G1 X126.892 Y128.272 E0.01570
G1 X112.361 Y113.742 E0.64679
G1 X112.272 Y114.188 E0.01432
G1 X126.395 Y128.310 E0.62862
G1 X125.876 Y128.327 E0.01635
G1 X112.197 Y114.648 E0.60887
G1 X112.122 Y115.108 E0.01467
G1 X125.356 Y128.343 E0.58910
G1 X124.827 Y128.348 E0.01667
G1 X112.046 Y115.568 E0.56888
G1 X111.973 Y116.030 E0.01472
G1 X124.275 Y128.331 E0.54756
G1 X123.722 Y128.314 E0.01739
G1 X111.914 Y116.506 E0.52559
G1 X111.858 Y116.986 E0.01519
