; generated by PrusaSlicer 2.1.0+win64 on 2019-11-09 at 09:48:23 UTC

; 

; external perimeters extrusion width = 0.45mm
; perimeters extrusion width = 0.45mm
; infill extrusion width = 0.45mm
; solid infill extrusion width = 0.45mm
; top infill extrusion width = 0.40mm
; first layer extrusion width = 0.42mm

M73 P0 R58
M73 Q0 S59
M201 X1000 Y1000 Z1000 E5000 ; sets maximum accelerations, mm/sec^2
M203 X200 Y200 Z12 E120 ; sets maximum feedrates, mm/sec
M204 P1250 R1250 T1250 ; sets acceleration (P, T) and retract acceleration (R), mm/sec^2
M205 X8.00 Y8.00 Z0.40 E1.50 ; sets the jerk limits, mm/sec
M205 S0 T0 ; sets the minimum extruding and travel feed rate, mm/sec
M107
M862.3 P "MK3" ; printer model check
M862.1 P0.4 ; nozzle diameter check
M115 U3.8.1 ; tell printer latest fw version
G90 ; use absolute coordinates
M83 ; extruder relative mode
M104 S215 ; set extruder temp
M140 S60 ; set bed temp
M190 S60 ; wait for bed temp
M109 S215 ; wait for extruder temp
G28 W ; home all without mesh bed level
G80 ; mesh bed leveling
G1 Y-3.0 F1000.0 ; go outside print area
G92 E0.0
G1 X60.0 E9.0 F1000.0 ; intro line
M73 Q0 S58
M73 P0 R58
G1 X100.0 E12.5 F1000.0 ; intro line
G92 E0.0
M221 S95
G21 ; set units to millimeters
G90 ; use absolute coordinates
M83 ; use relative distances for extrusion
M900 K30 ; Filament gcode
;BEFORE_LAYER_CHANGE
G92 E0.0
;0.2


G1 E-0.80000 F2100.00000
G1 Z0.600 F10800.000
;AFTER_LAYER_CHANGE
;0.2
G1 X149.819 Y112.097
G1 Z0.200
G1 E0.80000 F2100.00000
M204 S1000
G1 F1200
G1 X90.338 Y109.617 E1.86660
G1 X89.744 Y109.504 E0.01896
G1 X88.951 Y109.149 E0.02726
G1 X88.315 Y108.676 E0.02484
G1 X77.290 Y96.645 E0.51164
G1 X76.856 Y95.940 E0.02597
G1 X76.580 Y95.146 E0.02634
G1 X76.516 Y94.574 E0.01805
G1 X77.233 Y78.173 E0.51474
G1 X77.335 Y77.654 E0.01658
G1 X77.604 Y77.035 E0.02116
G1 X77.856 Y76.569 E0.01661
G1 X78.181 Y76.194 E0.01555
G1 X90.273 Y65.117 E0.51416
G1 X90.683 Y64.845 E0.01544
G1 X91.239 Y64.622 E0.01878
G1 X91.761 Y64.456 E0.01718
G1 X92.232 Y64.405 E0.01487
G1 X151.436 Y66.902 E1.85795
G1 X152.030 Y67.015 E0.01896
G1 X152.823 Y67.371 E0.02726
G1 X153.460 Y67.843 E0.02484
G1 X164.504 Y79.896 E0.51256
G1 X164.833 Y80.385 E0.01851
G1 X165.137 Y81.180 E0.02669
G1 X165.257 Y81.974 E0.02518
G1 X164.544 Y98.310 E0.51267
G1 X164.430 Y98.893 E0.01862
G1 X164.076 Y99.679 E0.02703
G1 X163.604 Y100.315 E0.02484
G1 X151.532 Y111.376 E0.51336
G1 X150.942 Y111.744 E0.02179
G1 X149.876 Y112.079 E0.03504
G1 F8640
G1 X146.588 Y111.943 E-0.76000
G1 E-0.04000 F2100.00000
G1 Z0.800 F10800.000
G1 X149.148 Y107.978
G1 Z0.200
G1 E0.80000 F2100.00000
G1 F1200
G1 X147.048 Y105.528 E0.10118
G1 X145.547 Y103.660 E0.07513
G1 X145.816 Y103.341 E0.01310
G1 X146.181 Y103.524 E0.01280
G1 X146.386 Y103.599 E0.00683
G1 X146.772 Y103.671 E0.01231
G1 X147.160 Y103.659 E0.01216
G1 X147.542 Y103.565 E0.01234
G1 X147.895 Y103.392 E0.01234
G1 X148.199 Y103.151 E0.01216
G1 X148.447 Y102.851 E0.01219
G1 X148.620 Y102.521 E0.01168
G1 X148.715 Y102.284 E0.00803
G1 X149.131 Y102.356 E0.01323
G1 X149.182 Y104.751 E0.07513
G1 X149.149 Y107.918 E0.09930
G1 X148.931 Y108.314 F10800.000
G1 F8640
G1 X147.048 Y105.528 E-0.73476
G1 X146.979 Y105.443 E-0.02524
G1 E-0.04000 F2100.00000
G1 Z0.800 F10800.000
G1 X147.755 Y102.636
G1 Z0.200
G1 E0.80000 F2100.00000
G1 F1200
G1 X147.610 Y102.766 E0.00612
G1 X147.289 Y102.938 E0.01143
G1 X146.929 Y102.998 E0.01143
G1 X146.726 Y102.983 E0.00639
G1 X146.380 Y102.870 E0.01143
G1 X146.086 Y102.653 E0.01144
G1 X145.954 Y102.491 E0.00655
G1 X145.798 Y102.168 E0.01125
G1 X145.752 Y101.807 E0.01142
G1 X145.774 Y101.612 E0.00614
G1 X145.830 Y101.420 E0.00628
G1 X146.003 Y101.115 E0.01098
G1 X146.143 Y100.967 E0.00639
G1 X146.443 Y100.775 E0.01116
G1 X146.628 Y100.712 E0.00614
G1 X146.826 Y100.679 E0.00628
G1 X147.175 Y100.706 E0.01098
G1 X147.369 Y100.769 E0.00639
G1 X147.678 Y100.962 E0.01143
G1 X147.911 Y101.242 E0.01143
G1 X147.999 Y101.426 E0.00639
G1 X148.074 Y101.782 E0.01143
G1 X148.032 Y102.153 E0.01170
G1 X147.878 Y102.483 E0.01143
G1 X147.793 Y102.589 E0.00424
G1 X147.816 Y102.821 F10800.000
G1 F8640
G1 X147.610 Y102.766 E-0.05882
G1 X147.289 Y102.938 E-0.08414
G1 X146.929 Y102.998 E-0.08414
G1 X146.726 Y102.983 E-0.04708
G1 X146.380 Y102.870 E-0.08414
G1 X146.086 Y102.653 E-0.08427
G1 X145.954 Y102.491 E-0.04823
G1 X145.798 Y102.168 E-0.08289
G1 X145.752 Y101.807 E-0.08411
G1 X145.774 Y101.612 E-0.04523
G1 X145.830 Y101.420 E-0.04626
G1 X145.853 Y101.379 E-0.01069
G1 E-0.04000 F2100.00000
G1 Z0.800 F10800.000
G1 X153.698 Y95.668
G1 Z0.200
G1 E0.80000 F2100.00000
G1 F1200
G1 X153.489 Y95.369 E0.01143
G1 X153.415 Y95.179 E0.00639
G1 X153.370 Y94.826 E0.01117
G1 X153.395 Y94.618 E0.00655
G1 X153.520 Y94.282 E0.01125
G1 X153.754 Y93.991 E0.01169
G1 X154.061 Y93.795 E0.01143
G1 X154.246 Y93.731 E0.00614
G1 X154.444 Y93.699 E0.00628
G1 X154.793 Y93.725 E0.01098
G1 X154.987 Y93.788 E0.00639
G1 X155.296 Y93.981 E0.01143
G1 X155.528 Y94.262 E0.01143
G1 X155.617 Y94.445 E0.00639
G1 X155.692 Y94.802 E0.01143
G1 X155.650 Y95.173 E0.01170
G1 X155.496 Y95.503 E0.01143
G1 X155.373 Y95.655 E0.00612
G1 X155.234 Y95.780 E0.00587
G1 X155.065 Y95.888 E0.00628
G1 X154.733 Y96.000 E0.01098
G1 X154.538 Y96.017 E0.00614
G1 X154.338 Y96.002 E0.00628
G1 X153.997 Y95.890 E0.01125
G1 X153.746 Y95.703 E0.00981
G1 X153.344 Y95.757 F10800.000
G1 F8640
G1 X153.489 Y95.369 E-0.09738
G1 X153.415 Y95.179 E-0.04708
G1 X153.370 Y94.826 E-0.08227
G1 X153.395 Y94.618 E-0.04823
G1 X153.520 Y94.282 E-0.08288
G1 X153.754 Y93.991 E-0.08610
G1 X154.061 Y93.795 E-0.08414
G1 X154.246 Y93.731 E-0.04523
G1 X154.444 Y93.699 E-0.04626
G1 X154.793 Y93.725 E-0.08089
G1 X154.987 Y93.788 E-0.04704
G1 X155.033 Y93.817 E-0.01248
G1 E-0.04000 F2100.00000
G1 Z0.800 F10800.000
G1 X154.819 Y96.695
G1 Z0.200
G1 E0.80000 F2100.00000
G1 F1200
G1 X155.206 Y96.567 E0.01280
G1 X155.404 Y96.475 E0.00683
G1 X155.728 Y96.253 E0.01231
G1 X155.994 Y95.971 E0.01216
G1 X156.197 Y95.634 E0.01234
G1 X156.325 Y95.261 E0.01234
G1 X156.370 Y94.876 E0.01216
G1 X156.332 Y94.485 E0.01231
G1 X156.275 Y94.275 E0.00683
G1 X156.125 Y93.895 E0.01280
G1 X156.466 Y93.655 E0.01307
G1 X157.668 Y94.796 E0.05198
G1 X158.702 Y95.817 E0.04553
G1 X160.450 Y97.618 E0.07872
G1 X157.211 Y97.369 E0.10187
G1 X154.854 Y97.112 E0.07432
G1 X154.824 Y96.755 E0.01121
G1 X154.578 Y96.376 F10800.000
G1 F8640
G1 X155.206 Y96.567 E-0.09846
G1 X155.404 Y96.475 E-0.05027
G1 X155.728 Y96.253 E-0.09068
G1 X155.994 Y95.971 E-0.08959
G1 X156.197 Y95.634 E-0.09087
G1 X156.325 Y95.261 E-0.09087
G1 X156.370 Y94.876 E-0.08959
G1 X156.332 Y94.485 E-0.09068
G1 X156.275 Y94.275 E-0.05027
G1 X156.245 Y94.199 E-0.01874
G1 E-0.04000 F2100.00000
G1 Z0.800 F10800.000
G1 X135.430 Y101.347
G1 Z0.200
G1 E0.80000 F2100.00000
G1 F1200
G1 X135.452 Y101.161 E0.00587
G1 X135.507 Y100.969 E0.00628
G1 X135.681 Y100.664 E0.01098
G1 X135.821 Y100.517 E0.00639
G1 X136.120 Y100.324 E0.01116
G1 X136.306 Y100.261 E0.00614
G1 X136.503 Y100.229 E0.00628
G1 X136.853 Y100.255 E0.01098
G1 X137.046 Y100.318 E0.00639
G1 X137.348 Y100.506 E0.01116
G1 X137.485 Y100.647 E0.00614
G1 X137.599 Y100.811 E0.00628
G1 X137.725 Y101.138 E0.01098
G1 X137.751 Y101.340 E0.00639
G1 X137.710 Y101.694 E0.01116
G1 X137.639 Y101.885 E0.00639
G1 X137.434 Y102.186 E0.01143
G1 X137.144 Y102.407 E0.01143
G1 X136.957 Y102.488 E0.00639
G1 X136.606 Y102.548 E0.01117
G1 X136.398 Y102.531 E0.00655
G1 X136.057 Y102.420 E0.01125
G1 X135.764 Y102.203 E0.01142
G1 X135.639 Y102.052 E0.00614
G1 X135.539 Y101.878 E0.00628
G1 X135.439 Y101.542 E0.01098
G1 X135.433 Y101.407 E0.00424
G1 X135.269 Y101.252 F10800.000
G1 X134.752 Y101.674
G1 F1200
G1 X134.880 Y102.062 E0.01280
G1 X134.972 Y102.260 E0.00683
G1 X135.194 Y102.583 E0.01231
G1 X135.476 Y102.849 E0.01216
G1 X135.813 Y103.053 E0.01234
G1 X136.186 Y103.180 E0.01234
G1 X136.571 Y103.225 E0.01216
G1 X136.962 Y103.188 E0.01231
G1 X137.172 Y103.131 E0.00683
G1 X137.552 Y102.980 E0.01280
G1 X137.792 Y103.322 E0.01310
G1 X136.153 Y105.034 E0.07432
G1 X133.828 Y107.310 E0.10200
G1 X134.078 Y104.066 E0.10200
G1 X134.335 Y101.710 E0.07432
G1 X134.692 Y101.680 E0.01121
G1 X135.071 Y101.434 F10800.000
G1 F8640
G1 X134.880 Y102.062 E-0.09846
G1 X134.972 Y102.260 E-0.05027
G1 X135.194 Y102.583 E-0.09068
G1 X135.476 Y102.849 E-0.08959
G1 X135.813 Y103.053 E-0.09087
G1 X136.186 Y103.180 E-0.09087
G1 X136.571 Y103.225 E-0.08959
G1 X136.962 Y103.188 E-0.09068
G1 X137.172 Y103.131 E-0.05027
G1 X137.247 Y103.101 E-0.01874
G1 E-0.04000 F2100.00000
G1 Z0.800 F10800.000
G1 X130.313 Y94.692
G1 Z0.200
G1 E0.80000 F2100.00000
G1 F1200
G1 X130.144 Y94.799 E0.00628
G1 X129.812 Y94.912 E0.01098
G1 X129.609 Y94.930 E0.00639
G1 X129.249 Y94.874 E0.01143
G1 X128.925 Y94.707 E0.01143
G1 X128.778 Y94.578 E0.00614
G1 X128.651 Y94.423 E0.00628
G1 X128.495 Y94.099 E0.01125
G1 X128.449 Y93.738 E0.01142
G1 X128.471 Y93.543 E0.00614
G1 X128.527 Y93.351 E0.00628
G1 X128.700 Y93.047 E0.01098
G1 X128.840 Y92.899 E0.00639
G1 X129.140 Y92.707 E0.01116
G1 X129.325 Y92.643 E0.00614
G1 X129.523 Y92.611 E0.00628
G1 X129.872 Y92.637 E0.01098
G1 X130.066 Y92.700 E0.00639
G1 X130.375 Y92.893 E0.01143
G1 X130.607 Y93.174 E0.01143
G1 X130.696 Y93.357 E0.00639
G1 X130.771 Y93.714 E0.01143
G1 X130.730 Y94.076 E0.01144
G1 X130.656 Y94.272 E0.00655
G1 X130.459 Y94.561 E0.01098
G1 X130.358 Y94.652 E0.00426
G1 X130.343 Y94.890 F10800.000
G1 F8640
G1 X130.144 Y94.799 E-0.05997
G1 X129.812 Y94.912 E-0.08089
G1 X129.609 Y94.930 E-0.04704
G1 X129.249 Y94.874 E-0.08414
G1 X128.925 Y94.707 E-0.08414
G1 X128.778 Y94.578 E-0.04523
G1 X128.651 Y94.423 E-0.04626
G1 X128.495 Y94.099 E-0.08288
G1 X128.449 Y93.738 E-0.08411
G1 X128.471 Y93.543 E-0.04523
G1 X128.527 Y93.351 E-0.04626
G1 X128.642 Y93.148 E-0.05384
G1 E-0.04000 F2100.00000
G1 Z0.800 F10800.000
G1 X129.526 Y91.106
G1 Z0.200
G1 E0.80000 F2100.00000
G1 F1200
G1 X129.688 Y90.990 E0.00625
G1 X132.826 Y91.126 E0.09849
G1 X133.023 Y91.661 E0.01788
G1 X133.239 Y92.000 E0.01261
G1 X133.522 Y92.286 E0.01262
G1 X133.859 Y92.506 E0.01262
G1 X134.234 Y92.649 E0.01259
G1 X134.428 Y92.690 E0.00619
G1 X137.053 Y92.816 E0.08240
G1 X137.605 Y93.490 E0.02731
G1 X138.158 Y94.020 E0.02403
G1 X138.778 Y94.485 E0.02428
G1 X139.434 Y94.864 E0.02375
G1 X139.787 Y95.028 E0.01221
G1 X140.512 Y95.287 E0.02414
G1 X141.255 Y95.456 E0.02390
G1 X142.017 Y95.535 E0.02401
G1 X142.783 Y95.522 E0.02401
G1 X143.538 Y95.419 E0.02390
G1 X144.283 Y95.224 E0.02414
G1 X144.649 Y95.092 E0.01221
G1 X145.335 Y94.771 E0.02375
G1 X145.993 Y94.362 E0.02428
G1 X146.590 Y93.882 E0.02403
G1 X147.199 Y93.259 E0.02731
G1 X149.825 Y93.362 E0.08240
G1 X150.021 Y93.338 E0.00619
G1 X150.407 Y93.228 E0.01259
G1 X150.763 Y93.039 E0.01262
G1 X151.069 Y92.779 E0.01262
G1 X151.314 Y92.459 E0.01261
G1 X151.557 Y91.943 E0.01788
G1 X154.696 Y92.082 E0.09852
G1 X155.541 Y92.818 E0.03513
G1 X155.323 Y93.178 E0.01319
G1 X154.939 Y93.063 E0.01256
G1 X154.730 Y93.028 E0.00663
G1 X154.317 Y93.030 E0.01295
G1 X154.127 Y93.062 E0.00606
G1 X153.756 Y93.189 E0.01229
G1 X153.583 Y93.280 E0.00614
G1 X153.266 Y93.522 E0.01247
G1 X153.008 Y93.825 E0.01250
G1 X152.909 Y93.988 E0.00597
G1 X152.760 Y94.359 E0.01254
G1 X152.718 Y94.545 E0.00598
G1 X152.694 Y94.943 E0.01249
G1 X152.755 Y95.336 E0.01246
G1 X152.817 Y95.523 E0.00619
G1 X152.997 Y95.871 E0.01230
G1 X153.258 Y96.185 E0.01279
G1 X153.419 Y96.322 E0.00663
G1 X153.754 Y96.542 E0.01256
G1 X153.618 Y96.942 E0.01323
G1 X151.860 Y96.654 E0.05586
G1 X150.432 Y96.382 E0.04556
G1 X148.523 Y95.947 E0.06141
G1 X148.790 Y97.887 E0.06141
G1 X148.937 Y99.333 E0.04556
G1 X149.070 Y101.109 E0.05586
G1 X148.660 Y101.210 E0.01323
G1 X148.469 Y100.858 E0.01256
G1 X148.347 Y100.685 E0.00663
G1 X148.054 Y100.394 E0.01295
G1 X147.896 Y100.282 E0.00606
G1 X147.544 Y100.110 E0.01229
G1 X147.357 Y100.052 E0.00614
G1 X146.963 Y99.999 E0.01247
G1 X146.566 Y100.031 E0.01250
G1 X146.381 Y100.077 E0.00597
G1 X146.013 Y100.233 E0.01254
G1 X145.851 Y100.335 E0.00598
G1 X145.553 Y100.599 E0.01249
G1 X145.318 Y100.920 E0.01246
G1 X145.230 Y101.096 E0.00619
G1 X145.111 Y101.470 E0.01230
G1 X145.074 Y101.876 E0.01279
G1 X145.091 Y102.087 E0.00663
G1 X145.171 Y102.480 E0.01256
G1 X144.793 Y102.666 E0.01323
G1 X143.753 Y101.220 E0.05586
G1 X142.936 Y100.018 E0.04556
G1 X141.894 Y98.360 E0.06141
G1 X140.710 Y99.921 E0.06141
G1 X139.792 Y101.047 E0.04556
G1 X138.630 Y102.397 E0.05586
G1 X138.269 Y102.178 E0.01323
G1 X138.384 Y101.794 E0.01256
G1 X138.419 Y101.586 E0.00663
G1 X138.417 Y101.173 E0.01295
G1 X138.385 Y100.982 E0.00606
G1 X138.258 Y100.611 E0.01229
G1 X138.167 Y100.438 E0.00614
G1 X137.925 Y100.122 E0.01247
G1 X137.622 Y99.864 E0.01250
G1 X137.459 Y99.765 E0.00597
G1 X137.088 Y99.616 E0.01254
G1 X136.902 Y99.574 E0.00598
G1 X136.504 Y99.550 E0.01249
G1 X136.111 Y99.610 E0.01246
G1 X135.924 Y99.672 E0.00619
G1 X135.576 Y99.853 E0.01230
G1 X135.262 Y100.114 E0.01279
G1 X135.125 Y100.275 E0.00663
G1 X134.905 Y100.609 E0.01256
G1 X134.505 Y100.474 E0.01323
G1 X134.793 Y98.715 E0.05586
G1 X135.065 Y97.288 E0.04556
G1 X135.500 Y95.378 E0.06141
G1 X133.560 Y95.645 E0.06141
G1 X132.114 Y95.792 E0.04556
G1 X130.338 Y95.925 E0.05586
G1 X130.237 Y95.517 E0.01319
G1 X130.615 Y95.309 E0.01351
G1 X130.925 Y95.053 E0.01260
G1 X131.162 Y94.755 E0.01194
G1 X131.260 Y94.580 E0.00629
G1 X131.395 Y94.211 E0.01234
G1 X131.433 Y94.015 E0.00627
G1 X131.448 Y93.818 E0.00617
G1 X131.417 Y93.427 E0.01232
G1 X131.301 Y93.046 E0.01249
G1 X131.108 Y92.703 E0.01233
G1 X130.848 Y92.409 E0.01232
G1 X130.531 Y92.177 E0.01229
G1 X130.167 Y92.016 E0.01249
G1 X129.791 Y91.939 E0.01203
G1 X129.390 Y91.943 E0.01259
G1 X128.967 Y92.026 E0.01352
G1 X128.781 Y91.650 E0.01314
G1 X129.478 Y91.142 E0.02702
G1 X129.480 Y90.912 F10800.000
G1 F8640
G1 X129.688 Y90.990 E-0.05985
G1 X132.717 Y91.121 E-0.70015
G1 E-0.04000 F2100.00000
G1 Z0.800 F10800.000
G1 X128.303 Y91.532
G1 Z0.200
G1 E0.80000 F2100.00000
G1 F1200
G1 X128.756 Y92.452 E0.03214
G1 X128.875 Y92.428 E0.00381
G1 X128.598 Y92.606 E0.01033
G1 X128.519 Y92.689 E0.00360
G1 X128.576 Y92.575 E0.00400
G1 X127.799 Y91.920 E0.03190
G1 X125.678 Y93.613 E0.08510
G1 X122.462 Y96.370 E0.13281
G1 X126.698 Y96.415 E0.13281
G1 X129.409 Y96.357 E0.08505
G1 X129.585 Y95.347 E0.03215
G1 X129.443 Y95.286 E0.00484
G1 X129.596 Y95.310 E0.00485
G1 X129.877 Y95.285 E0.00883
G1 X129.802 Y95.326 E0.00267
G1 X130.047 Y96.325 E0.03225
G1 X132.147 Y96.168 E0.06603
G1 X133.604 Y96.020 E0.04592
G1 X135.011 Y95.826 E0.04452
G1 X134.696 Y97.211 E0.04452
G1 X134.421 Y98.649 E0.04592
G1 X134.082 Y100.728 E0.06603
G1 X135.059 Y101.060 E0.03237
G1 X135.111 Y100.981 E0.00297
G1 X135.081 Y101.087 E0.00347
G1 X135.055 Y101.391 E0.00957
G1 X135.016 Y101.273 E0.00390
G1 X133.994 Y101.361 E0.03215
G1 X133.702 Y104.031 E0.08423
G1 X133.375 Y108.281 E0.13364
G1 X136.421 Y105.299 E0.13364
G1 X138.279 Y103.359 E0.08423
G1 X137.689 Y102.520 E0.03215
G1 X137.542 Y102.578 E0.00497
G1 X137.712 Y102.449 E0.00669
G1 X137.860 Y102.231 E0.00828
G1 X137.825 Y102.350 E0.00389
G1 X138.708 Y102.885 E0.03237
G1 X140.081 Y101.289 E0.06603
G1 X141.007 Y100.154 E0.04592
G1 X141.865 Y99.022 E0.04452
G1 X142.621 Y100.224 E0.04452
G1 X143.444 Y101.436 E0.04592
G1 X144.673 Y103.145 E0.06603
G1 X145.599 Y102.689 E0.03237
G1 X145.576 Y102.576 E0.00362
G1 X145.634 Y102.696 E0.00416
G1 X145.817 Y102.920 E0.00908
G1 X145.720 Y102.871 E0.00342
G1 X145.059 Y103.655 E0.03215
G1 X146.758 Y105.769 E0.08505
G1 X149.515 Y108.985 E0.13281
G1 X149.560 Y104.749 E0.13281
G1 X149.502 Y102.038 E0.08505
G1 X148.479 Y101.860 E0.03253
G1 X148.432 Y101.979 E0.00401
G1 X148.456 Y101.765 E0.00676
G1 X148.408 Y101.536 E0.00732
G1 X148.467 Y101.645 E0.00389
G1 X149.470 Y101.400 E0.03237
G1 X149.312 Y99.300 E0.06603
G1 X149.164 Y97.842 E0.04592
G1 X148.971 Y96.436 E0.04452
G1 X150.355 Y96.751 E0.04452
G1 X151.794 Y97.026 E0.04592
G1 X153.872 Y97.365 E0.06603
G1 X154.205 Y96.388 E0.03237
G1 X154.104 Y96.321 E0.00379
G1 X154.264 Y96.374 E0.00528
G1 X154.528 Y96.395 E0.00830
G1 X154.418 Y96.431 E0.00363
