; generated by Slic3r Prusa Edition 1.41.2+win64 on 2019-05-01 at 21:26:03

; 

; external perimeters extrusion width = 0.45mm
; perimeters extrusion width = 0.45mm
; infill extrusion width = 0.45mm
; solid infill extrusion width = 0.45mm
; top infill extrusion width = 0.40mm
; first layer extrusion width = 0.42mm

M201 X9000 Y9000 Z500 E10000 ; sets maximum accelerations, mm/sec^2
M203 X500 Y500 Z12 E120 ; sets maximum feedrates, mm/sec
M204 P1500 R1500 T1500 ; sets acceleration (P, T) and retract acceleration (R), mm/sec^2
M205 X10.00 Y10.00 Z0.20 E2.50 ; sets the jerk limits, mm/sec
M205 S0 T0 ; sets the minimum extruding and travel feed rate, mm/sec
M107
M115 U3.2.1 ; tell printer latest fw version
M201 X1000 Y1000 Z200 E5000 ; sets maximum accelerations, mm/sec^2
M203 X200 Y200 Z12 E120 ; sets maximum feedrates, mm/sec
M204 S1250 T1250 ; sets acceleration (S) and retract acceleration (T)
M205 X10 Y10 Z0.4 E2.5 ; sets the jerk limits, mm/sec
M205 S0 T0 ; sets the minimum extruding and travel feed rate, mm/sec
M83  ; extruder relative mode
M104 S230 ; set extruder temp
M140 S85 ; set bed temp
M190 S85 ; wait for bed temp
M109 S230 ; wait for extruder temp
G28 W ; home all without mesh bed level
G80 ; mesh bed leveling
G1 Y-3.0 F1000.0 ; go outside print area
G92 E0.0
G1 X60.0 E9.0  F1000.0 ; intro line
G1 X100.0 E12.5  F1000.0 ; intro line
G92 E0.0
M221 S95
M900 K45; Filament gcode
G21 ; set units to millimeters
G90 ; use absolute coordinates
M83 ; use relative distances for extrusion
;BEFORE_LAYER_CHANGE
G92 E0.0
;0.2


G1 E-0.80000 F2100.00000
G1 Z0.600 F10800.000
;AFTER_LAYER_CHANGE
;0.2
G1 X64.246 Y51.119
G1 Z0.200
G1 E0.80000 F2100.00000
M204 S1000
G1 F1200
G1 X64.768 Y50.390 E0.02810
G1 X65.448 Y49.964 E0.02518
G1 X66.240 Y49.811 E0.02529
G1 X183.754 Y49.811 E3.68454
G1 X184.584 Y49.976 E0.02653
G1 X185.289 Y50.444 E0.02653
G1 X185.764 Y51.144 E0.02653
G1 X185.938 Y51.972 E0.02653
G1 X185.938 Y158.015 E3.32489
G1 X185.752 Y158.884 E0.02788
G1 X185.232 Y159.610 E0.02799
G1 X184.552 Y160.036 E0.02518
G1 X183.760 Y160.189 E0.02529
G1 X66.246 Y160.189 E3.68454
G1 X65.369 Y160.004 E0.02810
G1 X64.640 Y159.482 E0.02810
G1 X64.214 Y158.802 E0.02518
G1 X64.062 Y158.013 E0.02518
G1 X64.061 Y51.996 E3.32408
G1 X64.234 Y51.178 E0.02622
; PURGING FINISHED
G1 F8640
G1 X64.768 Y50.390 E-0.21973
G1 X65.448 Y49.964 E-0.18545
G1 X66.240 Y49.811 E-0.18628
G1 X66.970 Y49.811 E-0.16854
G1 E-0.04000 F2100.00000
G1 Z0.800 F10800.000
G1 X66.837 Y52.587
G1 Z0.200
G1 E0.80000 F2100.00000
G1 F1200
G1 X183.163 Y52.587 E3.64732
G1 X183.163 Y101.413 E1.53090
G1 X66.837 Y101.413 E3.64732
G1 X66.837 Y52.647 E1.52902
G1 X66.460 Y52.210 F10800.000
G1 F1200
G1 X183.540 Y52.210 E3.67096
G1 X183.540 Y101.790 E1.55455
G1 X66.460 Y101.790 E3.67096
G1 X66.460 Y52.270 E1.55266
G1 X66.856 Y52.263 F10800.000
G1 F8640
G1 X69.751 Y52.268 E-0.76000
G1 E-0.04000 F2100.00000
G1 Z0.800 F10800.000
G1 X67.715 Y101.300
G1 Z0.200
G1 E0.80000 F2100.00000
G1 F1200
G1 X67.120 Y100.704 E0.02649
G1 X67.120 Y100.169 E0.01683
G1 X68.081 Y101.130 E0.04274
G1 X68.616 Y101.130 E0.01683
G1 X67.120 Y99.634 E0.06653
G1 X67.120 Y99.099 E0.01683
G1 X69.151 Y101.130 E0.09033
G1 X69.686 Y101.130 E0.01683
G1 X67.120 Y98.564 E0.11413
G1 X67.120 Y98.029 E0.01683
G1 X70.221 Y101.130 E0.13793
G1 X70.755 Y101.130 E0.01683
G1 X67.120 Y97.495 E0.16173
G1 X67.120 Y96.960 E0.01683
G1 X71.290 Y101.130 E0.18552
G1 X71.825 Y101.130 E0.01683
G1 X67.120 Y96.425 E0.20932
G1 X67.120 Y95.890 E0.01683
G1 X72.360 Y101.130 E0.23312
G1 X72.895 Y101.130 E0.01683
G1 X67.120 Y95.355 E0.25692
G1 X67.120 Y94.820 E0.01683
G1 X73.430 Y101.130 E0.28072
G1 X73.965 Y101.130 E0.01683
G1 X67.120 Y94.285 E0.30451
G1 X67.120 Y93.750 E0.01683
G1 X74.500 Y101.130 E0.32831
G1 X75.035 Y101.130 E0.01683
G1 X67.120 Y93.215 E0.35211
G1 X67.120 Y92.680 E0.01683
G1 X75.570 Y101.130 E0.37591
G1 X76.105 Y101.130 E0.01683
G1 X67.120 Y92.145 E0.39971
G1 X67.120 Y91.610 E0.01683
G1 X76.640 Y101.130 E0.42351
G1 X77.175 Y101.130 E0.01683
G1 X67.120 Y91.075 E0.44730
G1 X67.120 Y90.540 E0.01683
G1 X77.710 Y101.130 E0.47110
G1 X78.245 Y101.130 E0.01683
G1 X67.120 Y90.005 E0.49490
G1 X67.120 Y89.470 E0.01683
G1 X78.780 Y101.130 E0.51870
G1 X79.315 Y101.130 E0.01683
G1 X67.120 Y88.935 E0.54250
G1 X67.120 Y88.400 E0.01683
G1 X79.850 Y101.130 E0.56629
G1 X80.385 Y101.130 E0.01683
G1 X67.120 Y87.865 E0.59009
G1 X67.120 Y87.330 E0.01683
G1 X80.920 Y101.130 E0.61389
G1 X81.455 Y101.130 E0.01683
G1 X67.120 Y86.795 E0.63769
G1 X67.120 Y86.260 E0.01683
G1 X81.990 Y101.130 E0.66149
G1 X82.525 Y101.130 E0.01683
G1 X67.120 Y85.725 E0.68528
G1 X67.120 Y85.190 E0.01683
G1 X83.060 Y101.130 E0.70908
G1 X83.595 Y101.130 E0.01683
G1 X67.120 Y84.655 E0.73288
G1 X67.120 Y84.120 E0.01683
G1 X84.130 Y101.130 E0.75668
G1 X84.665 Y101.130 E0.01683
G1 X67.120 Y83.585 E0.78048
G1 X67.120 Y83.050 E0.01683
G1 X85.200 Y101.130 E0.80427
G1 X85.735 Y101.130 E0.01683
G1 X67.120 Y82.515 E0.82807
G1 X67.120 Y81.980 E0.01683
G1 X86.270 Y101.130 E0.85187
G1 X86.805 Y101.130 E0.01683
G1 X67.120 Y81.445 E0.87567
G1 X67.120 Y80.910 E0.01683
G1 X87.340 Y101.130 E0.89947
G1 X87.875 Y101.130 E0.01683
G1 X67.120 Y80.375 E0.92326
G1 X67.120 Y79.840 E0.01683
G1 X88.410 Y101.130 E0.94706
G1 X88.945 Y101.130 E0.01683
G1 X67.120 Y79.305 E0.97086
G1 X67.120 Y78.770 E0.01683
G1 X89.480 Y101.130 E0.99466
G1 X90.015 Y101.130 E0.01683
G1 X67.120 Y78.235 E1.01846
G1 X67.120 Y77.700 E0.01683
G1 X90.550 Y101.130 E1.04225
G1 X91.085 Y101.130 E0.01683
G1 X67.120 Y77.165 E1.06605
G1 X67.120 Y76.630 E0.01683
G1 X91.620 Y101.130 E1.08985
G1 X92.155 Y101.130 E0.01683
G1 X67.120 Y76.095 E1.11365
G1 X67.120 Y75.560 E0.01683
G1 X92.690 Y101.130 E1.13745
G1 X93.225 Y101.130 E0.01683
G1 X67.120 Y75.025 E1.16124
G1 X67.120 Y74.490 E0.01683
G1 X93.760 Y101.130 E1.18504
G1 X94.295 Y101.130 E0.01683
G1 X67.120 Y73.955 E1.20884
G1 X67.120 Y73.420 E0.01683
G1 X94.830 Y101.130 E1.23264
G1 X95.365 Y101.130 E0.01683
G1 X67.120 Y72.885 E1.25644
G1 X67.120 Y72.350 E0.01683
G1 X95.900 Y101.130 E1.28024
G1 X96.435 Y101.130 E0.01683
G1 X67.120 Y71.815 E1.30403
G1 X67.120 Y71.280 E0.01683
G1 X96.970 Y101.130 E1.32783
G1 X97.505 Y101.130 E0.01683
G1 X67.120 Y70.745 E1.35163
G1 X67.120 Y70.210 E0.01683
G1 X98.040 Y101.130 E1.37543
G1 X98.575 Y101.130 E0.01683
G1 X67.120 Y69.675 E1.39923
G1 X67.120 Y69.140 E0.01683
G1 X99.110 Y101.130 E1.42302
G1 X99.644 Y101.130 E0.01683
G1 X67.120 Y68.606 E1.44682
G1 X67.120 Y68.071 E0.01683
G1 X100.179 Y101.130 E1.47062
G1 X100.714 Y101.130 E0.01683
G1 X67.120 Y67.536 E1.49442
G1 X67.120 Y67.001 E0.01683
G1 X101.249 Y101.130 E1.51822
G1 X101.784 Y101.130 E0.01683
G1 X67.120 Y66.466 E1.54201
G1 X67.120 Y65.931 E0.01683
G1 X102.319 Y101.130 E1.56581
G1 X102.854 Y101.130 E0.01683
G1 X67.120 Y65.396 E1.58961
G1 X67.120 Y64.861 E0.01683
G1 X103.389 Y101.130 E1.61341
G1 X103.924 Y101.130 E0.01683
G1 X67.120 Y64.326 E1.63721
G1 X67.120 Y63.791 E0.01683
G1 X104.459 Y101.130 E1.66100
G1 X104.994 Y101.130 E0.01683
G1 X67.120 Y63.256 E1.68480
G1 X67.120 Y62.721 E0.01683
G1 X105.529 Y101.130 E1.70860
G1 X106.064 Y101.130 E0.01683
G1 X67.120 Y62.186 E1.73240
G1 X67.120 Y61.651 E0.01683
G1 X106.599 Y101.130 E1.75620
G1 X107.134 Y101.130 E0.01683
G1 X67.120 Y61.116 E1.77999
G1 X67.120 Y60.581 E0.01683
G1 X107.669 Y101.130 E1.80379
G1 X108.204 Y101.130 E0.01683
G1 X67.120 Y60.046 E1.82759
G1 X67.120 Y59.511 E0.01683
G1 X108.739 Y101.130 E1.85139
G1 X109.274 Y101.130 E0.01683
G1 X67.120 Y58.976 E1.87519
G1 X67.120 Y58.441 E0.01683
G1 X109.809 Y101.130 E1.89898
G1 X110.344 Y101.130 E0.01683
G1 X67.120 Y57.906 E1.92278
G1 X67.120 Y57.371 E0.01683
G1 X110.879 Y101.130 E1.94658
G1 X111.414 Y101.130 E0.01683
G1 X67.120 Y56.836 E1.97038
G1 X67.120 Y56.301 E0.01683
G1 X111.949 Y101.130 E1.99418
G1 X112.484 Y101.130 E0.01683
G1 X67.120 Y55.766 E2.01797
G1 X67.120 Y55.231 E0.01683
G1 X113.019 Y101.130 E2.04177
G1 X113.554 Y101.130 E0.01683
G1 X67.120 Y54.696 E2.06557
G1 X67.120 Y54.161 E0.01683
G1 X114.089 Y101.130 E2.08937
G1 X114.624 Y101.130 E0.01683
G1 X67.120 Y53.626 E2.11317
G1 X67.120 Y53.091 E0.01683
G1 X115.159 Y101.130 E2.13697
G1 X115.694 Y101.130 E0.01683
G1 X67.434 Y52.870 E2.14680
G1 X67.969 Y52.870 E0.01683
G1 X116.229 Y101.130 E2.14680
G1 X116.764 Y101.130 E0.01683
G1 X68.504 Y52.870 E2.14680
G1 X69.039 Y52.870 E0.01683
G1 X117.299 Y101.130 E2.14680
G1 X117.834 Y101.130 E0.01683
G1 X69.574 Y52.870 E2.14680
G1 X70.109 Y52.870 E0.01683
G1 X118.369 Y101.130 E2.14680
G1 X118.904 Y101.130 E0.01683
G1 X70.644 Y52.870 E2.14680
G1 X71.179 Y52.870 E0.01683
G1 X119.439 Y101.130 E2.14680
G1 X119.974 Y101.130 E0.01683
G1 X71.714 Y52.870 E2.14680
G1 X72.248 Y52.870 E0.01683
G1 X120.509 Y101.130 E2.14680
G1 X121.044 Y101.130 E0.01683
G1 X72.783 Y52.870 E2.14680
G1 X73.318 Y52.870 E0.01683
G1 X121.579 Y101.130 E2.14680
G1 X122.114 Y101.130 E0.01683
G1 X73.853 Y52.870 E2.14680
G1 X74.388 Y52.870 E0.01683
G1 X122.649 Y101.130 E2.14680
G1 X123.184 Y101.130 E0.01683
G1 X74.923 Y52.870 E2.14680
G1 X75.458 Y52.870 E0.01683
G1 X123.719 Y101.130 E2.14680
G1 X124.254 Y101.130 E0.01683
G1 X75.993 Y52.870 E2.14680
G1 X76.528 Y52.870 E0.01683
G1 X124.789 Y101.130 E2.14680
G1 X125.324 Y101.130 E0.01683
G1 X77.063 Y52.870 E2.14680
G1 X77.598 Y52.870 E0.01683
G1 X125.859 Y101.130 E2.14680
G1 X126.394 Y101.130 E0.01683
G1 X78.133 Y52.870 E2.14680
G1 X78.668 Y52.870 E0.01683
G1 X126.929 Y101.130 E2.14680
G1 X127.464 Y101.130 E0.01683
G1 X79.203 Y52.870 E2.14680
G1 X79.738 Y52.870 E0.01683
G1 X127.999 Y101.130 E2.14680
G1 X128.533 Y101.130 E0.01683
G1 X80.273 Y52.870 E2.14680
G1 X80.808 Y52.870 E0.01683
G1 X129.068 Y101.130 E2.14680
G1 X129.603 Y101.130 E0.01683
G1 X81.343 Y52.870 E2.14680
G1 X81.878 Y52.870 E0.01683
G1 X130.138 Y101.130 E2.14680
G1 X130.673 Y101.130 E0.01683
G1 X82.413 Y52.870 E2.14680
G1 X82.948 Y52.870 E0.01683
G1 X131.208 Y101.130 E2.14680
G1 X131.743 Y101.130 E0.01683
G1 X83.483 Y52.870 E2.14680
G1 X84.018 Y52.870 E0.01683
G1 X132.278 Y101.130 E2.14680
G1 X132.813 Y101.130 E0.01683
G1 X84.553 Y52.870 E2.14680
G1 X85.088 Y52.870 E0.01683
G1 X133.348 Y101.130 E2.14680
G1 X133.883 Y101.130 E0.01683
G1 X85.623 Y52.870 E2.14680
G1 X86.158 Y52.870 E0.01683
G1 X134.418 Y101.130 E2.14680
G1 X134.953 Y101.130 E0.01683
G1 X86.693 Y52.870 E2.14680
G1 X87.228 Y52.870 E0.01683
G1 X135.488 Y101.130 E2.14680
G1 X136.023 Y101.130 E0.01683
G1 X87.763 Y52.870 E2.14680
G1 X88.298 Y52.870 E0.01683
G1 X136.558 Y101.130 E2.14680
G1 X137.093 Y101.130 E0.01683
G1 X88.833 Y52.870 E2.14680
G1 X89.368 Y52.870 E0.01683
G1 X137.628 Y101.130 E2.14680
G1 X138.163 Y101.130 E0.01683
G1 X89.903 Y52.870 E2.14680
G1 X90.438 Y52.870 E0.01683
G1 X138.698 Y101.130 E2.14680
G1 X139.233 Y101.130 E0.01683
G1 X90.973 Y52.870 E2.14680
G1 X91.508 Y52.870 E0.01683
G1 X139.768 Y101.130 E2.14680
G1 X140.303 Y101.130 E0.01683
G1 X92.043 Y52.870 E2.14680
G1 X92.578 Y52.870 E0.01683
G1 X140.838 Y101.130 E2.14680
G1 X141.373 Y101.130 E0.01683
G1 X93.113 Y52.870 E2.14680
G1 X93.648 Y52.870 E0.01683
G1 X141.908 Y101.130 E2.14680
G1 X142.443 Y101.130 E0.01683
G1 X94.183 Y52.870 E2.14680
G1 X94.718 Y52.870 E0.01683
G1 X142.978 Y101.130 E2.14680
G1 X143.513 Y101.130 E0.01683
G1 X95.253 Y52.870 E2.14680
G1 X95.788 Y52.870 E0.01683
G1 X144.048 Y101.130 E2.14680
G1 X144.583 Y101.130 E0.01683
G1 X96.323 Y52.870 E2.14680
G1 X96.858 Y52.870 E0.01683
G1 X145.118 Y101.130 E2.14680
G1 X145.653 Y101.130 E0.01683
G1 X97.393 Y52.870 E2.14680
G1 X97.928 Y52.870 E0.01683
G1 X146.188 Y101.130 E2.14680
G1 X146.723 Y101.130 E0.01683
G1 X98.463 Y52.870 E2.14680
G1 X98.998 Y52.870 E0.01683
G1 X147.258 Y101.130 E2.14680
G1 X147.793 Y101.130 E0.01683
G1 X99.533 Y52.870 E2.14680
G1 X100.068 Y52.870 E0.01683
G1 X148.328 Y101.130 E2.14680
G1 X148.863 Y101.130 E0.01683
G1 X100.603 Y52.870 E2.14680
G1 X101.137 Y52.870 E0.01683
G1 X149.398 Y101.130 E2.14680
G1 X149.933 Y101.130 E0.01683
G1 X101.672 Y52.870 E2.14680
G1 X102.207 Y52.870 E0.01683
G1 X150.468 Y101.130 E2.14680
G1 X151.003 Y101.130 E0.01683
G1 X102.742 Y52.870 E2.14680
G1 X103.277 Y52.870 E0.01683
G1 X151.538 Y101.130 E2.14680
G1 X152.073 Y101.130 E0.01683
G1 X103.812 Y52.870 E2.14680
G1 X104.347 Y52.870 E0.01683
G1 X152.608 Y101.130 E2.14680
G1 X153.143 Y101.130 E0.01683
G1 X104.882 Y52.870 E2.14680
G1 X105.417 Y52.870 E0.01683
G1 X153.678 Y101.130 E2.14680
G1 X154.213 Y101.130 E0.01683
G1 X105.952 Y52.870 E2.14680
G1 X106.487 Y52.870 E0.01683
G1 X154.748 Y101.130 E2.14680
G1 X155.283 Y101.130 E0.01683
G1 X107.022 Y52.870 E2.14680
G1 X107.557 Y52.870 E0.01683
G1 X155.818 Y101.130 E2.14680
G1 X156.353 Y101.130 E0.01683
G1 X108.092 Y52.870 E2.14680
G1 X108.627 Y52.870 E0.01683
G1 X156.887 Y101.130 E2.14680
G1 X157.422 Y101.130 E0.01683
G1 X109.162 Y52.870 E2.14680
G1 X109.697 Y52.870 E0.01683
G1 X157.957 Y101.130 E2.14680
G1 X158.492 Y101.130 E0.01683
G1 X110.232 Y52.870 E2.14680
G1 X110.767 Y52.870 E0.01683
G1 X159.027 Y101.130 E2.14680
G1 X159.562 Y101.130 E0.01683
G1 X111.302 Y52.870 E2.14680
G1 X111.837 Y52.870 E0.01683
G1 X160.097 Y101.130 E2.14680
G1 X160.632 Y101.130 E0.01683
G1 X112.372 Y52.870 E2.14680
G1 X112.907 Y52.870 E0.01683
G1 X161.167 Y101.130 E2.14680
G1 X161.702 Y101.130 E0.01683
G1 X113.442 Y52.870 E2.14680
G1 X113.977 Y52.870 E0.01683
G1 X162.237 Y101.130 E2.14680
G1 X162.772 Y101.130 E0.01683
G1 X114.512 Y52.870 E2.14680
G1 X115.047 Y52.870 E0.01683
G1 X163.307 Y101.130 E2.14680
G1 X163.842 Y101.130 E0.01683
G1 X115.582 Y52.870 E2.14680
G1 X116.117 Y52.870 E0.01683
G1 X164.377 Y101.130 E2.14680
G1 X164.912 Y101.130 E0.01683
G1 X116.652 Y52.870 E2.14680
G1 X117.187 Y52.870 E0.01683
G1 X165.447 Y101.130 E2.14680
G1 X165.982 Y101.130 E0.01683
G1 X117.722 Y52.870 E2.14680
G1 X118.257 Y52.870 E0.01683
G1 X166.517 Y101.130 E2.14680
G1 X167.052 Y101.130 E0.01683
G1 X118.792 Y52.870 E2.14680
G1 X119.327 Y52.870 E0.01683
G1 X167.587 Y101.130 E2.14680
G1 X168.122 Y101.130 E0.01683
G1 X119.862 Y52.870 E2.14680
G1 X120.397 Y52.870 E0.01683
G1 X168.657 Y101.130 E2.14680
G1 X169.192 Y101.130 E0.01683
G1 X120.932 Y52.870 E2.14680
G1 X121.467 Y52.870 E0.01683
G1 X169.727 Y101.130 E2.14680
G1 X170.262 Y101.130 E0.01683
G1 X122.002 Y52.870 E2.14680
G1 X122.537 Y52.870 E0.01683
G1 X170.797 Y101.130 E2.14680
G1 X171.332 Y101.130 E0.01683
G1 X123.072 Y52.870 E2.14680
G1 X123.607 Y52.870 E0.01683
G1 X171.867 Y101.130 E2.14680
G1 X172.402 Y101.130 E0.01683
G1 X124.142 Y52.870 E2.14680
G1 X124.677 Y52.870 E0.01683
G1 X172.937 Y101.130 E2.14680
G1 X173.472 Y101.130 E0.01683
G1 X125.212 Y52.870 E2.14680
G1 X125.747 Y52.870 E0.01683
G1 X174.007 Y101.130 E2.14680
G1 X174.542 Y101.130 E0.01683
G1 X126.282 Y52.870 E2.14680
G1 X126.817 Y52.870 E0.01683
G1 X175.077 Y101.130 E2.14680
G1 X175.612 Y101.130 E0.01683
G1 X127.352 Y52.870 E2.14680
G1 X127.887 Y52.870 E0.01683
G1 X176.147 Y101.130 E2.14680
G1 X176.682 Y101.130 E0.01683
G1 X128.422 Y52.870 E2.14680
G1 X128.957 Y52.870 E0.01683
G1 X177.217 Y101.130 E2.14680
G1 X177.752 Y101.130 E0.01683
G1 X129.492 Y52.870 E2.14680
G1 X130.026 Y52.870 E0.01683
G1 X178.287 Y101.130 E2.14680
G1 X178.822 Y101.130 E0.01683
G1 X130.561 Y52.870 E2.14680
G1 X131.096 Y52.870 E0.01683
G1 X179.357 Y101.130 E2.14680
G1 X179.892 Y101.130 E0.01683
G1 X131.631 Y52.870 E2.14680
G1 X132.166 Y52.870 E0.01683
G1 X180.427 Y101.130 E2.14680
G1 X180.962 Y101.130 E0.01683
G1 X132.701 Y52.870 E2.14680
G1 X133.236 Y52.870 E0.01683
G1 X181.497 Y101.130 E2.14680
G1 X182.032 Y101.130 E0.01683
G1 X133.771 Y52.870 E2.14680
G1 X134.306 Y52.870 E0.01683
G1 X182.567 Y101.130 E2.14680
G1 X182.880 Y101.130 E0.00986
G1 X182.880 Y100.909 E0.00697
G1 X134.841 Y52.870 E2.13695
G1 X135.376 Y52.870 E0.01683
G1 X182.880 Y100.374 E2.11316
G1 X182.880 Y99.839 E0.01683
G1 X135.911 Y52.870 E2.08936
G1 X136.446 Y52.870 E0.01683
G1 X182.880 Y99.304 E2.06556
G1 X182.880 Y98.769 E0.01683
G1 X136.981 Y52.870 E2.04176
G1 X137.516 Y52.870 E0.01683
G1 X182.880 Y98.234 E2.01796
G1 X182.880 Y97.699 E0.01683
G1 X138.051 Y52.870 E1.99417
G1 X138.586 Y52.870 E0.01683
G1 X182.880 Y97.164 E1.97037
